(VECTRIC POST REVISION)
(2410E23C85915A17A0D6BB4BFA509A68)
T1
G17
G21
G90
G0Z20.320
G0X0.000Y0.000
S18000M3
G0X6.975Y6.738
G0Z5.080
G1Z-0.750F304.8
G2X5.387Y8.325I0.000J1.587F1016.0
G1Y17.850
G1Y37.987
G1Y41.662
G1Y98.812
G1Y107.837
G1Y111.512
G1Y117.862
G1Y127.387
G1Y136.912
G1Y141.675
G2X6.975Y143.262I1.588J0.000
G1X42.987
G1X46.662
G1X112.837
G1X116.512
G1X153.025
G2X154.613Y141.675I0.000J-1.588
G1Y136.912
G1Y127.387
G1Y117.862
G1Y112.013
G1Y108.338
G1Y98.812
G1Y42.163
G1Y38.488
G1Y17.850
G1Y8.325
G2X153.025Y6.738I-1.587J0.000
G1X117.013
G1X113.338
G1X47.163
G1X43.488
G1X6.975
G1Z-1.500F304.8
G2X5.387Y8.325I0.000J1.587F1016.0
G1Y17.850
G1Y37.987
G1Y41.662
G1Y98.812
G1Y107.837
G1Y111.512
G1Y117.862
G1Y127.387
G1Y136.912
G1Y141.675
G2X6.975Y143.262I1.588J0.000
G1X42.987
G1X46.662
G1X112.837
G1X116.512
G1X153.025
G2X154.613Y141.675I0.000J-1.588
G1Y136.912
G1Y127.387
G1Y117.862
G1Y112.013
G1Y108.338
G1Y98.812
G1Y42.163
G1Y38.488
G1Y17.850
G1Y8.325
G2X153.025Y6.738I-1.587J0.000
G1X117.013
G1X113.338
G1X47.163
G1X43.488
G1X6.975
G1Z-2.250F304.8
G2X5.387Y8.325I0.000J1.587F1016.0
G1Y17.850
G1Y37.987
G1Y41.662
G1Y98.812
G1Y107.837
G1Y111.512
G1Y117.862
G1Y127.387
G1Y136.912
G1Y141.675
G2X6.975Y143.262I1.588J0.000
G1X42.987
G1X46.662
G1X112.837
G1X116.512
G1X153.025
G2X154.613Y141.675I0.000J-1.588
G1Y136.912
G1Y127.387
G1Y117.862
G1Y112.013
G1Y108.338
G1Y98.812
G1Y42.163
G1Y38.488
G1Y17.850
G1Y8.325
G2X153.025Y6.738I-1.587J0.000
G1X117.013
G1X113.338
G1X47.163
G1X43.488
G1X6.975
G1Z-3.000F304.8
G2X5.387Y8.325I0.000J1.587F1016.0
G1Y17.850
G1Y37.987
G1Z-2.875
G1Y41.662
G1Z-3.000F304.8
G1Y98.812F1016.0
G1Y107.837
G1Z-2.875
G1Y111.512
G1Z-3.000F304.8
G1Y117.862F1016.0
G1Y127.387
G1Y136.912
G1Y141.675
G2X6.975Y143.262I1.588J0.000
G1X42.987
G1Z-2.875
G1X46.662
G1Z-3.000F304.8
G1X112.837F1016.0
G1Z-2.875
G1X116.512
G1Z-3.000F304.8
G1X153.025F1016.0
G2X154.613Y141.675I0.000J-1.588
G1Y136.912
G1Y127.387
G1Y117.862
G1Y112.013
G1Z-2.875
G1Y108.338
G1Z-3.000F304.8
G1Y98.812F1016.0
G1Y42.163
G1Z-2.875
G1Y38.488
G1Z-3.000F304.8
G1Y17.850F1016.0
G1Y8.325
G2X153.025Y6.738I-1.587J0.000
G1X117.013
G1Z-2.875
G1X113.338
G1Z-3.000F304.8
G1X47.163F1016.0
G1Z-2.875
G1X43.488
G1Z-3.000F304.8
G1X6.975F1016.0
G0Z5.080
G0X11.419Y21.793Z5.080
G1Z-0.750F304.8
G1X11.497Y21.755F1016.0
G1X11.578Y21.726
G1X11.663Y21.704
G1X11.753Y21.690
G1X11.847Y21.685
G1X11.941Y21.690
G1X12.030Y21.704
G1X12.115Y21.726
G1X12.196Y21.755
G1X12.274Y21.793
G1X12.348Y21.838
G1X12.418Y21.890
G1X12.482Y21.948
G1X12.541Y22.013
G1X12.593Y22.082
G1X12.638Y22.156
G1X12.675Y22.234
G1X12.705Y22.316
G1X12.727Y22.401
G1X12.741Y22.490
G1X12.745Y22.584
G1X12.741Y22.678
G1X12.727Y22.767
G1X12.705Y22.852
G1X12.675Y22.934
G1X12.638Y23.012
G1X12.593Y23.086
G1X12.541Y23.155
G1X12.482Y23.220
G1X12.418Y23.278
G1X12.348Y23.330
G1X12.274Y23.375
G1X12.196Y23.413
G1X12.115Y23.443
G1X12.030Y23.464
G1X11.941Y23.478
G1X11.847Y23.483
G1X11.753Y23.478
G1X11.663Y23.464
G1X11.578Y23.443
G1X11.497Y23.413
G1X11.419Y23.375
G1X11.345Y23.330
G1X11.276Y23.278
G1X11.211Y23.220
G1X11.153Y23.155
G1X11.101Y23.086
G1X11.056Y23.012
G1X11.018Y22.934
G1X10.988Y22.852
G1X10.966Y22.767
G1X10.953Y22.678
G1X10.948Y22.584
G1X10.953Y22.490
G1X10.966Y22.401
G1X10.988Y22.316
G1X11.018Y22.234
G1X11.056Y22.156
G1X11.101Y22.082
G1X11.153Y22.013
G1X11.211Y21.948
G1X11.276Y21.890
G1X11.345Y21.838
G1X11.419Y21.793
G1Z-1.500F304.8
G1X11.497Y21.755F1016.0
G1X11.578Y21.726
G1X11.663Y21.704
G1X11.753Y21.690
G1X11.847Y21.685
G1X11.941Y21.690
G1X12.030Y21.704
G1X12.115Y21.726
G1X12.196Y21.755
G1X12.274Y21.793
G1X12.348Y21.838
G1X12.418Y21.890
G1X12.482Y21.948
G1X12.541Y22.013
G1X12.593Y22.082
G1X12.638Y22.156
G1X12.675Y22.234
G1X12.705Y22.316
G1X12.727Y22.401
G1X12.741Y22.490
G1X12.745Y22.584
G1X12.741Y22.678
G1X12.727Y22.767
G1X12.705Y22.852
G1X12.675Y22.934
G1X12.638Y23.012
G1X12.593Y23.086
G1X12.541Y23.155
G1X12.482Y23.220
G1X12.418Y23.278
G1X12.348Y23.330
G1X12.274Y23.375
G1X12.196Y23.413
G1X12.115Y23.443
G1X12.030Y23.464
G1X11.941Y23.478
G1X11.847Y23.483
G1X11.753Y23.478
G1X11.663Y23.464
G1X11.578Y23.443
G1X11.497Y23.413
G1X11.419Y23.375
G1X11.345Y23.330
G1X11.276Y23.278
G1X11.211Y23.220
G1X11.153Y23.155
G1X11.101Y23.086
G1X11.056Y23.012
G1X11.018Y22.934
G1X10.988Y22.852
G1X10.966Y22.767
G1X10.953Y22.678
G1X10.948Y22.584
G1X10.953Y22.490
G1X10.966Y22.401
G1X10.988Y22.316
G1X11.018Y22.234
G1X11.056Y22.156
G1X11.101Y22.082
G1X11.153Y22.013
G1X11.211Y21.948
G1X11.276Y21.890
G1X11.345Y21.838
G1X11.419Y21.793
G1Z-2.250F304.8
G1X11.497Y21.755F1016.0
G1X11.578Y21.726
G1X11.663Y21.704
G1X11.753Y21.690
G1X11.847Y21.685
G1X11.941Y21.690
G1X12.030Y21.704
G1X12.115Y21.726
G1X12.196Y21.755
G1X12.274Y21.793
G1X12.348Y21.838
G1X12.418Y21.890
G1X12.482Y21.948
G1X12.541Y22.013
G1X12.593Y22.082
G1X12.638Y22.156
G1X12.675Y22.234
G1X12.705Y22.316
G1X12.727Y22.401
G1X12.741Y22.490
G1X12.745Y22.584
G1X12.741Y22.678
G1X12.727Y22.767
G1X12.705Y22.852
G1X12.675Y22.934
G1X12.638Y23.012
G1X12.593Y23.086
G1X12.541Y23.155
G1X12.482Y23.220
G1X12.418Y23.278
G1X12.348Y23.330
G1X12.274Y23.375
G1X12.196Y23.413
G1X12.115Y23.443
G1X12.030Y23.464
G1X11.941Y23.478
G1X11.847Y23.483
G1X11.753Y23.478
G1X11.663Y23.464
G1X11.578Y23.443
G1X11.497Y23.413
G1X11.419Y23.375
G1X11.345Y23.330
G1X11.276Y23.278
G1X11.211Y23.220
G1X11.153Y23.155
G1X11.101Y23.086
G1X11.056Y23.012
G1X11.018Y22.934
G1X10.988Y22.852
G1X10.966Y22.767
G1X10.953Y22.678
G1X10.948Y22.584
G1X10.953Y22.490
G1X10.966Y22.401
G1X10.988Y22.316
G1X11.018Y22.234
G1X11.056Y22.156
G1X11.101Y22.082
G1X11.153Y22.013
G1X11.211Y21.948
G1X11.276Y21.890
G1X11.345Y21.838
G1X11.419Y21.793
G1Z-3.000F304.8
G1X11.497Y21.755F1016.0
G1X11.578Y21.726
G1X11.663Y21.704
G1X11.753Y21.690
G1X11.847Y21.685
G1X11.941Y21.690
G1X12.030Y21.704
G1X12.115Y21.726
G1X12.196Y21.755
G1X12.274Y21.793
G1X12.348Y21.838
G1X12.418Y21.890
G1X12.482Y21.948
G1X12.541Y22.013
G1X12.593Y22.082
G1X12.638Y22.156
G1X12.675Y22.234
G1X12.705Y22.316
G1X12.727Y22.401
G1X12.741Y22.490
G1X12.745Y22.584
G1X12.741Y22.678
G1X12.727Y22.767
G1X12.705Y22.852
G1X12.675Y22.934
G1X12.638Y23.012
G1X12.593Y23.086
G1X12.541Y23.155
G1X12.482Y23.220
G1X12.418Y23.278
G1X12.348Y23.330
G1X12.274Y23.375
G1X12.196Y23.413
G1X12.115Y23.443
G1X12.030Y23.464
G1X11.941Y23.478
G1X11.847Y23.483
G1X11.753Y23.478
G1X11.663Y23.464
G1X11.578Y23.443
G1X11.497Y23.413
G1X11.419Y23.375
G1X11.345Y23.330
G1X11.276Y23.278
G1X11.211Y23.220
G1X11.153Y23.155
G1X11.101Y23.086
G1X11.056Y23.012
G1X11.018Y22.934
G1X10.988Y22.852
G1X10.966Y22.767
G1X10.953Y22.678
G1X10.948Y22.584
G1X10.953Y22.490
G1X10.966Y22.401
G1X10.988Y22.316
G1X11.018Y22.234
G1X11.056Y22.156
G1X11.101Y22.082
G1X11.153Y22.013
G1X11.211Y21.948
G1X11.276Y21.890
G1X11.345Y21.838
G1X11.419Y21.793
G0Z5.080
G0X25.668Y15.749
G1Z-0.750F304.8
G1X45.593F1016.0
G1Y35.674
G1X25.668
G1Y15.749
G1Z-1.500F304.8
G1X45.593F1016.0
G1Y35.674
G1X25.668
G1Y15.749
G1Z-2.250F304.8
G1X45.593F1016.0
G1Y35.674
G1X25.668
G1Y15.749
G1Z-3.000F304.8
G1X45.593F1016.0
G1Y35.674
G1X25.668
G1Y15.749
G0Z5.080
G0X12.196Y50.331
G1Z-0.750F304.8
G1X12.274Y50.368F1016.0
G1X12.348Y50.413
G1X12.418Y50.465
G1X12.482Y50.524
G1X12.541Y50.588
G1X12.593Y50.658
G1X12.638Y50.732
G1X12.675Y50.810
G1X12.705Y50.891
G1X12.727Y50.976
G1X12.741Y51.065
G1X12.745Y51.160
G1X12.741Y51.254
G1X12.727Y51.343
G1X12.705Y51.428
G1X12.675Y51.509
G1X12.638Y51.587
G1X12.593Y51.661
G1X12.541Y51.731
G1X12.482Y51.795
G1X12.418Y51.854
G1X12.348Y51.906
G1X12.274Y51.951
G1X12.196Y51.988
G1X12.115Y52.018
G1X12.030Y52.040
G1X11.941Y52.053
G1X11.847Y52.058
G1X11.753Y52.053
G1X11.663Y52.040
G1X11.578Y52.018
G1X11.497Y51.988
G1X11.419Y51.951
G1X11.345Y51.906
G1X11.276Y51.854
G1X11.211Y51.795
G1X11.153Y51.731
G1X11.101Y51.661
G1X11.056Y51.587
G1X11.018Y51.509
G1X10.988Y51.428
G1X10.966Y51.343
G1X10.953Y51.254
G1X10.948Y51.160
G1X10.953Y51.065
G1X10.966Y50.976
G1X10.988Y50.891
G1X11.018Y50.810
G1X11.056Y50.732
G1X11.101Y50.658
G1X11.153Y50.588
G1X11.211Y50.524
G1X11.276Y50.465
G1X11.345Y50.413
G1X11.419Y50.368
G1X11.497Y50.331
G1X11.578Y50.301
G1X11.663Y50.279
G1X11.753Y50.266
G1X11.847Y50.261
G1X11.941Y50.266
G1X12.030Y50.279
G1X12.115Y50.301
G1X12.196Y50.331
G1Z-1.500F304.8
G1X12.274Y50.368F1016.0
G1X12.348Y50.413
G1X12.418Y50.465
G1X12.482Y50.524
G1X12.541Y50.588
G1X12.593Y50.658
G1X12.638Y50.732
G1X12.675Y50.810
G1X12.705Y50.891
G1X12.727Y50.976
G1X12.741Y51.065
G1X12.745Y51.160
G1X12.741Y51.254
G1X12.727Y51.343
G1X12.705Y51.428
G1X12.675Y51.509
G1X12.638Y51.587
G1X12.593Y51.661
G1X12.541Y51.731
G1X12.482Y51.795
G1X12.418Y51.854
G1X12.348Y51.906
G1X12.274Y51.951
G1X12.196Y51.988
G1X12.115Y52.018
G1X12.030Y52.040
G1X11.941Y52.053
G1X11.847Y52.058
G1X11.753Y52.053
G1X11.663Y52.040
G1X11.578Y52.018
G1X11.497Y51.988
G1X11.419Y51.951
G1X11.345Y51.906
G1X11.276Y51.854
G1X11.211Y51.795
G1X11.153Y51.731
G1X11.101Y51.661
G1X11.056Y51.587
G1X11.018Y51.509
G1X10.988Y51.428
G1X10.966Y51.343
G1X10.953Y51.254
G1X10.948Y51.160
G1X10.953Y51.065
G1X10.966Y50.976
G1X10.988Y50.891
G1X11.018Y50.810
G1X11.056Y50.732
G1X11.101Y50.658
G1X11.153Y50.588
G1X11.211Y50.524
G1X11.276Y50.465
G1X11.345Y50.413
G1X11.419Y50.368
G1X11.497Y50.331
G1X11.578Y50.301
G1X11.663Y50.279
G1X11.753Y50.266
G1X11.847Y50.261
G1X11.941Y50.266
G1X12.030Y50.279
G1X12.115Y50.301
G1X12.196Y50.331
G1Z-2.250F304.8
G1X12.274Y50.368F1016.0
G1X12.348Y50.413
G1X12.418Y50.465
G1X12.482Y50.524
G1X12.541Y50.588
G1X12.593Y50.658
G1X12.638Y50.732
G1X12.675Y50.810
G1X12.705Y50.891
G1X12.727Y50.976
G1X12.741Y51.065
G1X12.745Y51.160
G1X12.741Y51.254
G1X12.727Y51.343
G1X12.705Y51.428
G1X12.675Y51.509
G1X12.638Y51.587
G1X12.593Y51.661
G1X12.541Y51.731
G1X12.482Y51.795
G1X12.418Y51.854
G1X12.348Y51.906
G1X12.274Y51.951
G1X12.196Y51.988
G1X12.115Y52.018
G1X12.030Y52.040
G1X11.941Y52.053
G1X11.847Y52.058
G1X11.753Y52.053
G1X11.663Y52.040
G1X11.578Y52.018
G1X11.497Y51.988
G1X11.419Y51.951
G1X11.345Y51.906
G1X11.276Y51.854
G1X11.211Y51.795
G1X11.153Y51.731
G1X11.101Y51.661
G1X11.056Y51.587
G1X11.018Y51.509
G1X10.988Y51.428
G1X10.966Y51.343
G1X10.953Y51.254
G1X10.948Y51.160
G1X10.953Y51.065
G1X10.966Y50.976
G1X10.988Y50.891
G1X11.018Y50.810
G1X11.056Y50.732
G1X11.101Y50.658
G1X11.153Y50.588
G1X11.211Y50.524
G1X11.276Y50.465
G1X11.345Y50.413
G1X11.419Y50.368
G1X11.497Y50.331
G1X11.578Y50.301
G1X11.663Y50.279
G1X11.753Y50.266
G1X11.847Y50.261
G1X11.941Y50.266
G1X12.030Y50.279
G1X12.115Y50.301
G1X12.196Y50.331
G1Z-3.000F304.8
G1X12.274Y50.368F1016.0
G1X12.348Y50.413
G1X12.418Y50.465
G1X12.482Y50.524
G1X12.541Y50.588
G1X12.593Y50.658
G1X12.638Y50.732
G1X12.675Y50.810
G1X12.705Y50.891
G1X12.727Y50.976
G1X12.741Y51.065
G1X12.745Y51.160
G1X12.741Y51.254
G1X12.727Y51.343
G1X12.705Y51.428
G1X12.675Y51.509
G1X12.638Y51.587
G1X12.593Y51.661
G1X12.541Y51.731
G1X12.482Y51.795
G1X12.418Y51.854
G1X12.348Y51.906
G1X12.274Y51.951
G1X12.196Y51.988
G1X12.115Y52.018
G1X12.030Y52.040
G1X11.941Y52.053
G1X11.847Y52.058
G1X11.753Y52.053
G1X11.663Y52.040
G1X11.578Y52.018
G1X11.497Y51.988
G1X11.419Y51.951
G1X11.345Y51.906
G1X11.276Y51.854
G1X11.211Y51.795
G1X11.153Y51.731
G1X11.101Y51.661
G1X11.056Y51.587
G1X11.018Y51.509
G1X10.988Y51.428
G1X10.966Y51.343
G1X10.953Y51.254
G1X10.948Y51.160
G1X10.953Y51.065
G1X10.966Y50.976
G1X10.988Y50.891
G1X11.018Y50.810
G1X11.056Y50.732
G1X11.101Y50.658
G1X11.153Y50.588
G1X11.211Y50.524
G1X11.276Y50.465
G1X11.345Y50.413
G1X11.419Y50.368
G1X11.497Y50.331
G1X11.578Y50.301
G1X11.663Y50.279
G1X11.753Y50.266
G1X11.847Y50.261
G1X11.941Y50.266
G1X12.030Y50.279
G1X12.115Y50.301
G1X12.196Y50.331
G0Z5.080
G0X28.534Y54.664
G1Z-0.750F304.8
G1X28.629Y54.330F1016.0
G1X28.739Y54.003
G1X28.865Y53.684
G1X29.006Y53.372
G1X29.162Y53.068
G1X29.331Y52.773
G1X29.515Y52.487
G1X29.711Y52.211
G1X29.921Y51.945
G1X30.142Y51.689
G1X30.376Y51.444
G1X30.621Y51.210
G1X30.877Y50.988
G1X31.143Y50.779
G1X31.420Y50.582
G1X31.706Y50.399
G1X32.001Y50.229
G1X32.304Y50.074
G1X32.616Y49.933
G1X32.936Y49.807
G1X33.262Y49.696
G1X33.596Y49.602
G1X33.937Y49.523
G1X34.283Y49.461
G1X34.636Y49.416
G1X34.994Y49.389
G1X35.358Y49.380
G1X35.722Y49.389
G1X36.081Y49.416
G1X36.433Y49.461
G1X36.780Y49.523
G1X37.121Y49.602
G1X37.454Y49.696
G1X37.781Y49.807
G1X38.101Y49.933
G1X38.412Y50.074
G1X38.716Y50.229
G1X39.011Y50.399
G1X39.297Y50.582
G1X39.573Y50.779
G1X39.840Y50.988
G1X40.096Y51.210
G1X40.341Y51.444
G1X40.574Y51.689
G1X40.796Y51.945
G1X41.005Y52.211
G1X41.202Y52.487
G1X41.385Y52.773
G1X41.555Y53.068
G1X41.710Y53.372
G1X41.851Y53.684
G1X41.977Y54.003
G1X42.088Y54.330
G1X42.183Y54.664
G1X42.261Y55.004
G1X42.323Y55.351
G1X42.368Y55.704
G1X42.395Y56.062
G1X42.404Y56.426
G1X42.395Y56.790
G1X42.368Y57.148
G1X42.323Y57.501
G1X42.261Y57.848
G1X42.183Y58.188
G1X42.088Y58.522
G1X41.977Y58.849
G1X41.851Y59.168
G1X41.710Y59.480
G1X41.555Y59.783
G1X41.385Y60.078
G1X41.202Y60.364
G1X41.005Y60.641
G1X40.796Y60.907
G1X40.574Y61.163
G1X40.341Y61.408
G1X40.096Y61.642
G1X39.840Y61.864
G1X39.573Y62.073
G1X39.297Y62.270
G1X39.011Y62.453
G1X38.716Y62.622
G1X38.412Y62.778
G1X38.101Y62.919
G1X37.781Y63.045
G1X37.454Y63.155
G1X37.121Y63.250
G1X36.780Y63.329
G1X36.433Y63.391
G1X36.081Y63.435
G1X35.722Y63.463
G1X35.358Y63.472
G1X34.994Y63.463
G1X34.636Y63.435
G1X34.283Y63.391
G1X33.937Y63.329
G1X33.596Y63.250
G1X33.262Y63.155
G1X32.936Y63.045
G1X32.616Y62.919
G1X32.304Y62.778
G1X32.001Y62.622
G1X31.706Y62.453
G1X31.420Y62.270
G1X31.143Y62.073
G1X30.877Y61.864
G1X30.621Y61.642
G1X30.376Y61.408
G1X30.142Y61.163
G1X29.921Y60.907
G1X29.711Y60.641
G1X29.515Y60.364
G1X29.331Y60.078
G1X29.162Y59.783
G1X29.006Y59.480
G1X28.865Y59.168
G1X28.739Y58.849
G1X28.629Y58.522
G1X28.534Y58.188
G1X28.456Y57.848
G1X28.394Y57.501
G1X28.349Y57.148
G1X28.322Y56.790
G1X28.312Y56.426
G1X28.322Y56.062
G1X28.349Y55.704
G1X28.394Y55.351
G1X28.456Y55.004
G1X28.534Y54.664
G1Z-1.500F304.8
G1X28.629Y54.330F1016.0
G1X28.739Y54.003
G1X28.865Y53.684
G1X29.006Y53.372
G1X29.162Y53.068
G1X29.331Y52.773
G1X29.515Y52.487
G1X29.711Y52.211
G1X29.921Y51.945
G1X30.142Y51.689
G1X30.376Y51.444
G1X30.621Y51.210
G1X30.877Y50.988
G1X31.143Y50.779
G1X31.420Y50.582
G1X31.706Y50.399
G1X32.001Y50.229
G1X32.304Y50.074
G1X32.616Y49.933
G1X32.936Y49.807
G1X33.262Y49.696
G1X33.596Y49.602
G1X33.937Y49.523
G1X34.283Y49.461
G1X34.636Y49.416
G1X34.994Y49.389
G1X35.358Y49.380
G1X35.722Y49.389
G1X36.081Y49.416
G1X36.433Y49.461
G1X36.780Y49.523
G1X37.121Y49.602
G1X37.454Y49.696
G1X37.781Y49.807
G1X38.101Y49.933
G1X38.412Y50.074
G1X38.716Y50.229
G1X39.011Y50.399
G1X39.297Y50.582
G1X39.573Y50.779
G1X39.840Y50.988
G1X40.096Y51.210
G1X40.341Y51.444
G1X40.574Y51.689
G1X40.796Y51.945
G1X41.005Y52.211
G1X41.202Y52.487
G1X41.385Y52.773
G1X41.555Y53.068
G1X41.710Y53.372
G1X41.851Y53.684
G1X41.977Y54.003
G1X42.088Y54.330
G1X42.183Y54.664
G1X42.261Y55.004
G1X42.323Y55.351
G1X42.368Y55.704
G1X42.395Y56.062
G1X42.404Y56.426
G1X42.395Y56.790
G1X42.368Y57.148
G1X42.323Y57.501
G1X42.261Y57.848
G1X42.183Y58.188
G1X42.088Y58.522
G1X41.977Y58.849
G1X41.851Y59.168
G1X41.710Y59.480
G1X41.555Y59.783
G1X41.385Y60.078
G1X41.202Y60.364
G1X41.005Y60.641
G1X40.796Y60.907
G1X40.574Y61.163
G1X40.341Y61.408
G1X40.096Y61.642
G1X39.840Y61.864
G1X39.573Y62.073
G1X39.297Y62.270
G1X39.011Y62.453
G1X38.716Y62.622
G1X38.412Y62.778
G1X38.101Y62.919
G1X37.781Y63.045
G1X37.454Y63.155
G1X37.121Y63.250
G1X36.780Y63.329
G1X36.433Y63.391
G1X36.081Y63.435
G1X35.722Y63.463
G1X35.358Y63.472
G1X34.994Y63.463
G1X34.636Y63.435
G1X34.283Y63.391
G1X33.937Y63.329
G1X33.596Y63.250
G1X33.262Y63.155
G1X32.936Y63.045
G1X32.616Y62.919
G1X32.304Y62.778
G1X32.001Y62.622
G1X31.706Y62.453
G1X31.420Y62.270
G1X31.143Y62.073
G1X30.877Y61.864
G1X30.621Y61.642
G1X30.376Y61.408
G1X30.142Y61.163
G1X29.921Y60.907
G1X29.711Y60.641
G1X29.515Y60.364
G1X29.331Y60.078
G1X29.162Y59.783
G1X29.006Y59.480
G1X28.865Y59.168
G1X28.739Y58.849
G1X28.629Y58.522
G1X28.534Y58.188
G1X28.456Y57.848
G1X28.394Y57.501
G1X28.349Y57.148
G1X28.322Y56.790
G1X28.312Y56.426
G1X28.322Y56.062
G1X28.349Y55.704
G1X28.394Y55.351
G1X28.456Y55.004
G1X28.534Y54.664
G1Z-2.250F304.8
G1X28.629Y54.330F1016.0
G1X28.739Y54.003
G1X28.865Y53.684
G1X29.006Y53.372
G1X29.162Y53.068
G1X29.331Y52.773
G1X29.515Y52.487
G1X29.711Y52.211
G1X29.921Y51.945
G1X30.142Y51.689
G1X30.376Y51.444
G1X30.621Y51.210
G1X30.877Y50.988
G1X31.143Y50.779
G1X31.420Y50.582
G1X31.706Y50.399
G1X32.001Y50.229
G1X32.304Y50.074
G1X32.616Y49.933
G1X32.936Y49.807
G1X33.262Y49.696
G1X33.596Y49.602
G1X33.937Y49.523
G1X34.283Y49.461
G1X34.636Y49.416
G1X34.994Y49.389
G1X35.358Y49.380
G1X35.722Y49.389
G1X36.081Y49.416
G1X36.433Y49.461
G1X36.780Y49.523
G1X37.121Y49.602
G1X37.454Y49.696
G1X37.781Y49.807
G1X38.101Y49.933
G1X38.412Y50.074
G1X38.716Y50.229
G1X39.011Y50.399
G1X39.297Y50.582
G1X39.573Y50.779
G1X39.840Y50.988
G1X40.096Y51.210
G1X40.341Y51.444
G1X40.574Y51.689
G1X40.796Y51.945
G1X41.005Y52.211
G1X41.202Y52.487
G1X41.385Y52.773
G1X41.555Y53.068
G1X41.710Y53.372
G1X41.851Y53.684
G1X41.977Y54.003
G1X42.088Y54.330
G1X42.183Y54.664
G1X42.261Y55.004
G1X42.323Y55.351
G1X42.368Y55.704
G1X42.395Y56.062
G1X42.404Y56.426
G1X42.395Y56.790
G1X42.368Y57.148
G1X42.323Y57.501
G1X42.261Y57.848
G1X42.183Y58.188
G1X42.088Y58.522
G1X41.977Y58.849
G1X41.851Y59.168
G1X41.710Y59.480
G1X41.555Y59.783
G1X41.385Y60.078
G1X41.202Y60.364
G1X41.005Y60.641
G1X40.796Y60.907
G1X40.574Y61.163
G1X40.341Y61.408
G1X40.096Y61.642
G1X39.840Y61.864
G1X39.573Y62.073
G1X39.297Y62.270
G1X39.011Y62.453
G1X38.716Y62.622
G1X38.412Y62.778
G1X38.101Y62.919
G1X37.781Y63.045
G1X37.454Y63.155
G1X37.121Y63.250
G1X36.780Y63.329
G1X36.433Y63.391
G1X36.081Y63.435
G1X35.722Y63.463
G1X35.358Y63.472
G1X34.994Y63.463
G1X34.636Y63.435
G1X34.283Y63.391
G1X33.937Y63.329
G1X33.596Y63.250
G1X33.262Y63.155
G1X32.936Y63.045
G1X32.616Y62.919
G1X32.304Y62.778
G1X32.001Y62.622
G1X31.706Y62.453
G1X31.420Y62.270
G1X31.143Y62.073
G1X30.877Y61.864
G1X30.621Y61.642
G1X30.376Y61.408
G1X30.142Y61.163
G1X29.921Y60.907
G1X29.711Y60.641
G1X29.515Y60.364
G1X29.331Y60.078
G1X29.162Y59.783
G1X29.006Y59.480
G1X28.865Y59.168
G1X28.739Y58.849
G1X28.629Y58.522
G1X28.534Y58.188
G1X28.456Y57.848
G1X28.394Y57.501
G1X28.349Y57.148
G1X28.322Y56.790
G1X28.312Y56.426
G1X28.322Y56.062
G1X28.349Y55.704
G1X28.394Y55.351
G1X28.456Y55.004
G1X28.534Y54.664
G1Z-3.000F304.8
G1X28.629Y54.330F1016.0
G1X28.739Y54.003
G1X28.865Y53.684
G1X29.006Y53.372
G1X29.162Y53.068
G1X29.331Y52.773
G1X29.515Y52.487
G1X29.711Y52.211
G1X29.921Y51.945
G1X30.142Y51.689
G1X30.376Y51.444
G1X30.621Y51.210
G1X30.877Y50.988
G1X31.143Y50.779
G1X31.420Y50.582
G1X31.706Y50.399
G1X32.001Y50.229
G1X32.304Y50.074
G1X32.616Y49.933
G1X32.936Y49.807
G1X33.262Y49.696
G1X33.596Y49.602
G1X33.937Y49.523
G1X34.283Y49.461
G1X34.636Y49.416
G1X34.994Y49.389
G1X35.358Y49.380
G1X35.722Y49.389
G1X36.081Y49.416
G1X36.433Y49.461
G1X36.780Y49.523
G1X37.121Y49.602
G1X37.454Y49.696
G1X37.781Y49.807
G1X38.101Y49.933
G1X38.412Y50.074
G1X38.716Y50.229
G1X39.011Y50.399
G1X39.297Y50.582
G1X39.573Y50.779
G1X39.840Y50.988
G1X40.096Y51.210
G1X40.341Y51.444
G1X40.574Y51.689
G1X40.796Y51.945
G1X41.005Y52.211
G1X41.202Y52.487
G1X41.385Y52.773
G1X41.555Y53.068
G1X41.710Y53.372
G1X41.851Y53.684
G1X41.977Y54.003
G1X42.088Y54.330
G1X42.183Y54.664
G1X42.261Y55.004
G1X42.323Y55.351
G1X42.368Y55.704
G1X42.395Y56.062
G1X42.404Y56.426
G1X42.395Y56.790
G1X42.368Y57.148
G1X42.323Y57.501
G1X42.261Y57.848
G1X42.183Y58.188
G1X42.088Y58.522
G1X41.977Y58.849
G1X41.851Y59.168
G1X41.710Y59.480
G1X41.555Y59.783
G1X41.385Y60.078
G1X41.202Y60.364
G1X41.005Y60.641
G1X40.796Y60.907
G1X40.574Y61.163
G1X40.341Y61.408
G1X40.096Y61.642
G1X39.840Y61.864
G1X39.573Y62.073
G1X39.297Y62.270
G1X39.011Y62.453
G1X38.716Y62.622
G1X38.412Y62.778
G1X38.101Y62.919
G1X37.781Y63.045
G1X37.454Y63.155
G1X37.121Y63.250
G1X36.780Y63.329
G1X36.433Y63.391
G1X36.081Y63.435
G1X35.722Y63.463
G1X35.358Y63.472
G1X34.994Y63.463
G1X34.636Y63.435
G1X34.283Y63.391
G1X33.937Y63.329
G1X33.596Y63.250
G1X33.262Y63.155
G1X32.936Y63.045
G1X32.616Y62.919
G1X32.304Y62.778
G1X32.001Y62.622
G1X31.706Y62.453
G1X31.420Y62.270
G1X31.143Y62.073
G1X30.877Y61.864
G1X30.621Y61.642
G1X30.376Y61.408
G1X30.142Y61.163
G1X29.921Y60.907
G1X29.711Y60.641
G1X29.515Y60.364
G1X29.331Y60.078
G1X29.162Y59.783
G1X29.006Y59.480
G1X28.865Y59.168
G1X28.739Y58.849
G1X28.629Y58.522
G1X28.534Y58.188
G1X28.456Y57.848
G1X28.394Y57.501
G1X28.349Y57.148
G1X28.322Y56.790
G1X28.312Y56.426
G1X28.322Y56.062
G1X28.349Y55.704
G1X28.394Y55.351
G1X28.456Y55.004
G1X28.534Y54.664
G0Z5.080
G0X70.204Y35.531
G1Z-0.750F304.8
G1Y15.606F1016.0
G1X90.129
G1Y35.531
G1X70.204
G1Z-1.500F304.8
G1Y15.606F1016.0
G1X90.129
G1Y35.531
G1X70.204
G1Z-2.250F304.8
G1Y15.606F1016.0
G1X90.129
G1Y35.531
G1X70.204
G1Z-3.000F304.8
G1Y15.606F1016.0
G1X90.129
G1Y35.531
G1X70.204
G0Z5.080
G0X76.869Y49.933
G1Z-0.750F304.8
G1X77.188Y49.807F1016.0
G1X77.515Y49.696
G1X77.849Y49.602
G1X78.189Y49.523
G1X78.536Y49.461
G1X78.889Y49.416
G1X79.247Y49.389
G1X79.611Y49.380
G1X79.975Y49.389
G1X80.334Y49.416
G1X80.686Y49.461
G1X81.033Y49.523
G1X81.373Y49.602
G1X81.707Y49.696
G1X82.034Y49.807
G1X82.353Y49.933
G1X82.665Y50.074
G1X82.969Y50.229
G1X83.264Y50.399
G1X83.550Y50.582
G1X83.826Y50.779
G1X84.092Y50.988
G1X84.348Y51.210
G1X84.593Y51.444
G1X84.827Y51.689
G1X85.049Y51.945
G1X85.258Y52.211
G1X85.455Y52.487
G1X85.638Y52.773
G1X85.808Y53.068
G1X85.963Y53.372
G1X86.104Y53.684
G1X86.230Y54.003
G1X86.341Y54.330
G1X86.435Y54.664
G1X86.514Y55.004
G1X86.576Y55.351
G1X86.621Y55.704
G1X86.648Y56.062
G1X86.657Y56.426
G1X86.648Y56.790
G1X86.621Y57.148
G1X86.576Y57.501
G1X86.514Y57.848
G1X86.435Y58.188
G1X86.341Y58.522
G1X86.230Y58.849
G1X86.104Y59.168
G1X85.963Y59.480
G1X85.808Y59.783
G1X85.638Y60.078
G1X85.455Y60.364
G1X85.258Y60.641
G1X85.049Y60.907
G1X84.827Y61.163
G1X84.593Y61.408
G1X84.348Y61.642
G1X84.092Y61.864
G1X83.826Y62.073
G1X83.550Y62.270
G1X83.264Y62.453
G1X82.969Y62.622
G1X82.665Y62.778
G1X82.353Y62.919
G1X82.034Y63.045
G1X81.707Y63.155
G1X81.373Y63.250
G1X81.033Y63.329
G1X80.686Y63.391
G1X80.334Y63.435
G1X79.975Y63.463
G1X79.611Y63.472
G1X79.247Y63.463
G1X78.889Y63.435
G1X78.536Y63.391
G1X78.189Y63.329
G1X77.849Y63.250
G1X77.515Y63.155
G1X77.188Y63.045
G1X76.869Y62.919
G1X76.557Y62.778
G1X76.254Y62.622
G1X75.959Y62.453
G1X75.673Y62.270
G1X75.396Y62.073
G1X75.130Y61.864
G1X74.874Y61.642
G1X74.629Y61.408
G1X74.395Y61.163
G1X74.173Y60.907
G1X73.964Y60.641
G1X73.767Y60.364
G1X73.584Y60.078
G1X73.415Y59.783
G1X73.259Y59.480
G1X73.118Y59.168
G1X72.992Y58.849
G1X72.882Y58.522
G1X72.787Y58.188
G1X72.708Y57.848
G1X72.646Y57.501
G1X72.602Y57.148
G1X72.574Y56.790
G1X72.565Y56.426
G1X72.574Y56.062
G1X72.602Y55.704
G1X72.646Y55.351
G1X72.708Y55.004
G1X72.787Y54.664
G1X72.882Y54.330
G1X72.992Y54.003
G1X73.118Y53.684
G1X73.259Y53.372
G1X73.415Y53.068
G1X73.584Y52.773
G1X73.767Y52.487
G1X73.964Y52.211
G1X74.173Y51.945
G1X74.395Y51.689
G1X74.629Y51.444
G1X74.874Y51.210
G1X75.130Y50.988
G1X75.396Y50.779
G1X75.673Y50.582
G1X75.959Y50.399
G1X76.254Y50.229
G1X76.557Y50.074
G1X76.869Y49.933
G1Z-1.500F304.8
G1X77.188Y49.807F1016.0
G1X77.515Y49.696
G1X77.849Y49.602
G1X78.189Y49.523
G1X78.536Y49.461
G1X78.889Y49.416
G1X79.247Y49.389
G1X79.611Y49.380
G1X79.975Y49.389
G1X80.334Y49.416
G1X80.686Y49.461
G1X81.033Y49.523
G1X81.373Y49.602
G1X81.707Y49.696
G1X82.034Y49.807
G1X82.353Y49.933
G1X82.665Y50.074
G1X82.969Y50.229
G1X83.264Y50.399
G1X83.550Y50.582
G1X83.826Y50.779
G1X84.092Y50.988
G1X84.348Y51.210
G1X84.593Y51.444
G1X84.827Y51.689
G1X85.049Y51.945
G1X85.258Y52.211
G1X85.455Y52.487
G1X85.638Y52.773
G1X85.808Y53.068
G1X85.963Y53.372
G1X86.104Y53.684
G1X86.230Y54.003
G1X86.341Y54.330
G1X86.435Y54.664
G1X86.514Y55.004
G1X86.576Y55.351
G1X86.621Y55.704
G1X86.648Y56.062
G1X86.657Y56.426
G1X86.648Y56.790
G1X86.621Y57.148
G1X86.576Y57.501
G1X86.514Y57.848
G1X86.435Y58.188
G1X86.341Y58.522
G1X86.230Y58.849
G1X86.104Y59.168
G1X85.963Y59.480
G1X85.808Y59.783
G1X85.638Y60.078
G1X85.455Y60.364
G1X85.258Y60.641
G1X85.049Y60.907
G1X84.827Y61.163
G1X84.593Y61.408
G1X84.348Y61.642
G1X84.092Y61.864
G1X83.826Y62.073
G1X83.550Y62.270
G1X83.264Y62.453
G1X82.969Y62.622
G1X82.665Y62.778
G1X82.353Y62.919
G1X82.034Y63.045
G1X81.707Y63.155
G1X81.373Y63.250
G1X81.033Y63.329
G1X80.686Y63.391
G1X80.334Y63.435
G1X79.975Y63.463
G1X79.611Y63.472
G1X79.247Y63.463
G1X78.889Y63.435
G1X78.536Y63.391
G1X78.189Y63.329
G1X77.849Y63.250
G1X77.515Y63.155
G1X77.188Y63.045
G1X76.869Y62.919
G1X76.557Y62.778
G1X76.254Y62.622
G1X75.959Y62.453
G1X75.673Y62.270
G1X75.396Y62.073
G1X75.130Y61.864
G1X74.874Y61.642
G1X74.629Y61.408
G1X74.395Y61.163
G1X74.173Y60.907
G1X73.964Y60.641
G1X73.767Y60.364
G1X73.584Y60.078
G1X73.415Y59.783
G1X73.259Y59.480
G1X73.118Y59.168
G1X72.992Y58.849
G1X72.882Y58.522
G1X72.787Y58.188
G1X72.708Y57.848
G1X72.646Y57.501
G1X72.602Y57.148
G1X72.574Y56.790
G1X72.565Y56.426
G1X72.574Y56.062
G1X72.602Y55.704
G1X72.646Y55.351
G1X72.708Y55.004
G1X72.787Y54.664
G1X72.882Y54.330
G1X72.992Y54.003
G1X73.118Y53.684
G1X73.259Y53.372
G1X73.415Y53.068
G1X73.584Y52.773
G1X73.767Y52.487
G1X73.964Y52.211
G1X74.173Y51.945
G1X74.395Y51.689
G1X74.629Y51.444
G1X74.874Y51.210
G1X75.130Y50.988
G1X75.396Y50.779
G1X75.673Y50.582
G1X75.959Y50.399
G1X76.254Y50.229
G1X76.557Y50.074
G1X76.869Y49.933
G1Z-2.250F304.8
G1X77.188Y49.807F1016.0
G1X77.515Y49.696
G1X77.849Y49.602
G1X78.189Y49.523
G1X78.536Y49.461
G1X78.889Y49.416
G1X79.247Y49.389
G1X79.611Y49.380
G1X79.975Y49.389
G1X80.334Y49.416
G1X80.686Y49.461
G1X81.033Y49.523
G1X81.373Y49.602
G1X81.707Y49.696
G1X82.034Y49.807
G1X82.353Y49.933
G1X82.665Y50.074
G1X82.969Y50.229
G1X83.264Y50.399
G1X83.550Y50.582
G1X83.826Y50.779
G1X84.092Y50.988
G1X84.348Y51.210
G1X84.593Y51.444
G1X84.827Y51.689
G1X85.049Y51.945
G1X85.258Y52.211
G1X85.455Y52.487
G1X85.638Y52.773
G1X85.808Y53.068
G1X85.963Y53.372
G1X86.104Y53.684
G1X86.230Y54.003
G1X86.341Y54.330
G1X86.435Y54.664
G1X86.514Y55.004
G1X86.576Y55.351
G1X86.621Y55.704
G1X86.648Y56.062
G1X86.657Y56.426
G1X86.648Y56.790
G1X86.621Y57.148
G1X86.576Y57.501
G1X86.514Y57.848
G1X86.435Y58.188
G1X86.341Y58.522
G1X86.230Y58.849
G1X86.104Y59.168
G1X85.963Y59.480
G1X85.808Y59.783
G1X85.638Y60.078
G1X85.455Y60.364
G1X85.258Y60.641
G1X85.049Y60.907
G1X84.827Y61.163
G1X84.593Y61.408
G1X84.348Y61.642
G1X84.092Y61.864
G1X83.826Y62.073
G1X83.550Y62.270
G1X83.264Y62.453
G1X82.969Y62.622
G1X82.665Y62.778
G1X82.353Y62.919
G1X82.034Y63.045
G1X81.707Y63.155
G1X81.373Y63.250
G1X81.033Y63.329
G1X80.686Y63.391
G1X80.334Y63.435
G1X79.975Y63.463
G1X79.611Y63.472
G1X79.247Y63.463
G1X78.889Y63.435
G1X78.536Y63.391
G1X78.189Y63.329
G1X77.849Y63.250
G1X77.515Y63.155
G1X77.188Y63.045
G1X76.869Y62.919
G1X76.557Y62.778
G1X76.254Y62.622
G1X75.959Y62.453
G1X75.673Y62.270
G1X75.396Y62.073
G1X75.130Y61.864
G1X74.874Y61.642
G1X74.629Y61.408
G1X74.395Y61.163
G1X74.173Y60.907
G1X73.964Y60.641
G1X73.767Y60.364
G1X73.584Y60.078
G1X73.415Y59.783
G1X73.259Y59.480
G1X73.118Y59.168
G1X72.992Y58.849
G1X72.882Y58.522
G1X72.787Y58.188
G1X72.708Y57.848
G1X72.646Y57.501
G1X72.602Y57.148
G1X72.574Y56.790
G1X72.565Y56.426
G1X72.574Y56.062
G1X72.602Y55.704
G1X72.646Y55.351
G1X72.708Y55.004
G1X72.787Y54.664
G1X72.882Y54.330
G1X72.992Y54.003
G1X73.118Y53.684
G1X73.259Y53.372
G1X73.415Y53.068
G1X73.584Y52.773
G1X73.767Y52.487
G1X73.964Y52.211
G1X74.173Y51.945
G1X74.395Y51.689
G1X74.629Y51.444
G1X74.874Y51.210
G1X75.130Y50.988
G1X75.396Y50.779
G1X75.673Y50.582
G1X75.959Y50.399
G1X76.254Y50.229
G1X76.557Y50.074
G1X76.869Y49.933
G1Z-3.000F304.8
G1X77.188Y49.807F1016.0
G1X77.515Y49.696
G1X77.849Y49.602
G1X78.189Y49.523
G1X78.536Y49.461
G1X78.889Y49.416
G1X79.247Y49.389
G1X79.611Y49.380
G1X79.975Y49.389
G1X80.334Y49.416
G1X80.686Y49.461
G1X81.033Y49.523
G1X81.373Y49.602
G1X81.707Y49.696
G1X82.034Y49.807
G1X82.353Y49.933
G1X82.665Y50.074
G1X82.969Y50.229
G1X83.264Y50.399
G1X83.550Y50.582
G1X83.826Y50.779
G1X84.092Y50.988
G1X84.348Y51.210
G1X84.593Y51.444
G1X84.827Y51.689
G1X85.049Y51.945
G1X85.258Y52.211
G1X85.455Y52.487
G1X85.638Y52.773
G1X85.808Y53.068
G1X85.963Y53.372
G1X86.104Y53.684
G1X86.230Y54.003
G1X86.341Y54.330
G1X86.435Y54.664
G1X86.514Y55.004
G1X86.576Y55.351
G1X86.621Y55.704
G1X86.648Y56.062
G1X86.657Y56.426
G1X86.648Y56.790
G1X86.621Y57.148
G1X86.576Y57.501
G1X86.514Y57.848
G1X86.435Y58.188
G1X86.341Y58.522
G1X86.230Y58.849
G1X86.104Y59.168
G1X85.963Y59.480
G1X85.808Y59.783
G1X85.638Y60.078
G1X85.455Y60.364
G1X85.258Y60.641
G1X85.049Y60.907
G1X84.827Y61.163
G1X84.593Y61.408
G1X84.348Y61.642
G1X84.092Y61.864
G1X83.826Y62.073
G1X83.550Y62.270
G1X83.264Y62.453
G1X82.969Y62.622
G1X82.665Y62.778
G1X82.353Y62.919
G1X82.034Y63.045
G1X81.707Y63.155
G1X81.373Y63.250
G1X81.033Y63.329
G1X80.686Y63.391
G1X80.334Y63.435
G1X79.975Y63.463
G1X79.611Y63.472
G1X79.247Y63.463
G1X78.889Y63.435
G1X78.536Y63.391
G1X78.189Y63.329
G1X77.849Y63.250
G1X77.515Y63.155
G1X77.188Y63.045
G1X76.869Y62.919
G1X76.557Y62.778
G1X76.254Y62.622
G1X75.959Y62.453
G1X75.673Y62.270
G1X75.396Y62.073
G1X75.130Y61.864
G1X74.874Y61.642
G1X74.629Y61.408
G1X74.395Y61.163
G1X74.173Y60.907
G1X73.964Y60.641
G1X73.767Y60.364
G1X73.584Y60.078
G1X73.415Y59.783
G1X73.259Y59.480
G1X73.118Y59.168
G1X72.992Y58.849
G1X72.882Y58.522
G1X72.787Y58.188
G1X72.708Y57.848
G1X72.646Y57.501
G1X72.602Y57.148
G1X72.574Y56.790
G1X72.565Y56.426
G1X72.574Y56.062
G1X72.602Y55.704
G1X72.646Y55.351
G1X72.708Y55.004
G1X72.787Y54.664
G1X72.882Y54.330
G1X72.992Y54.003
G1X73.118Y53.684
G1X73.259Y53.372
G1X73.415Y53.068
G1X73.584Y52.773
G1X73.767Y52.487
G1X73.964Y52.211
G1X74.173Y51.945
G1X74.395Y51.689
G1X74.629Y51.444
G1X74.874Y51.210
G1X75.130Y50.988
G1X75.396Y50.779
G1X75.673Y50.582
G1X75.959Y50.399
G1X76.254Y50.229
G1X76.557Y50.074
G1X76.869Y49.933
G0Z5.080
G0X114.447Y35.489
G1Z-0.750F304.8
G1Y15.564F1016.0
G1X134.372
G1Y35.489
G1X114.447
G1Z-1.500F304.8
G1Y15.564F1016.0
G1X134.372
G1Y35.489
G1X114.447
G1Z-2.250F304.8
G1Y15.564F1016.0
G1X134.372
G1Y35.489
G1X114.447
G1Z-3.000F304.8
G1Y15.564F1016.0
G1X134.372
G1Y35.489
G1X114.447
G0Z5.080
G0X121.121Y49.933
G1Z-0.750F304.8
G1X121.440Y49.807F1016.0
G1X121.767Y49.696
G1X122.101Y49.602
G1X122.441Y49.523
G1X122.788Y49.461
G1X123.141Y49.416
G1X123.499Y49.389
G1X123.863Y49.380
G1X124.227Y49.389
G1X124.586Y49.416
G1X124.938Y49.461
G1X125.285Y49.523
G1X125.625Y49.602
G1X125.959Y49.696
G1X126.286Y49.807
G1X126.605Y49.933
G1X126.917Y50.074
G1X127.221Y50.229
G1X127.516Y50.399
G1X127.802Y50.582
G1X128.078Y50.779
G1X128.345Y50.988
G1X128.601Y51.210
G1X128.846Y51.444
G1X129.079Y51.689
G1X129.301Y51.945
G1X129.510Y52.211
G1X129.707Y52.487
G1X129.890Y52.773
G1X130.060Y53.068
G1X130.215Y53.372
G1X130.356Y53.684
G1X130.482Y54.003
G1X130.593Y54.330
G1X130.688Y54.664
G1X130.766Y55.004
G1X130.828Y55.351
G1X130.873Y55.704
G1X130.900Y56.062
G1X130.909Y56.426
G1X130.900Y56.790
G1X130.873Y57.148
G1X130.828Y57.501
G1X130.766Y57.848
G1X130.688Y58.188
G1X130.593Y58.522
G1X130.482Y58.849
G1X130.356Y59.168
G1X130.215Y59.480
G1X130.060Y59.783
G1X129.890Y60.078
G1X129.707Y60.364
G1X129.510Y60.641
G1X129.301Y60.907
G1X129.079Y61.163
G1X128.846Y61.408
G1X128.601Y61.642
G1X128.345Y61.864
G1X128.078Y62.073
G1X127.802Y62.270
G1X127.516Y62.453
G1X127.221Y62.622
G1X126.917Y62.778
G1X126.605Y62.919
G1X126.286Y63.045
G1X125.959Y63.155
G1X125.625Y63.250
G1X125.285Y63.329
G1X124.938Y63.391
G1X124.586Y63.435
G1X124.227Y63.463
G1X123.863Y63.472
G1X123.499Y63.463
G1X123.141Y63.435
G1X122.788Y63.391
G1X122.441Y63.329
G1X122.101Y63.250
G1X121.767Y63.155
G1X121.440Y63.045
G1X121.121Y62.919
G1X120.809Y62.778
G1X120.506Y62.622
G1X120.211Y62.453
G1X119.925Y62.270
G1X119.648Y62.073
G1X119.382Y61.864
G1X119.126Y61.642
G1X118.881Y61.408
G1X118.647Y61.163
G1X118.426Y60.907
G1X118.216Y60.641
G1X118.020Y60.364
G1X117.836Y60.078
G1X117.667Y59.783
G1X117.511Y59.480
G1X117.370Y59.168
G1X117.244Y58.849
G1X117.134Y58.522
G1X117.039Y58.188
G1X116.960Y57.848
G1X116.899Y57.501
G1X116.854Y57.148
G1X116.826Y56.790
G1X116.817Y56.426
G1X116.826Y56.062
G1X116.854Y55.704
G1X116.899Y55.351
G1X116.960Y55.004
G1X117.039Y54.664
G1X117.134Y54.330
G1X117.244Y54.003
G1X117.370Y53.684
G1X117.511Y53.372
G1X117.667Y53.068
G1X117.836Y52.773
G1X118.020Y52.487
G1X118.216Y52.211
G1X118.426Y51.945
G1X118.647Y51.689
G1X118.881Y51.444
G1X119.126Y51.210
G1X119.382Y50.988
G1X119.648Y50.779
G1X119.925Y50.582
G1X120.211Y50.399
G1X120.506Y50.229
G1X120.809Y50.074
G1X121.121Y49.933
G1Z-1.500F304.8
G1X121.440Y49.807F1016.0
G1X121.767Y49.696
G1X122.101Y49.602
G1X122.441Y49.523
G1X122.788Y49.461
G1X123.141Y49.416
G1X123.499Y49.389
G1X123.863Y49.380
G1X124.227Y49.389
G1X124.586Y49.416
G1X124.938Y49.461
G1X125.285Y49.523
G1X125.625Y49.602
G1X125.959Y49.696
G1X126.286Y49.807
G1X126.605Y49.933
G1X126.917Y50.074
G1X127.221Y50.229
G1X127.516Y50.399
G1X127.802Y50.582
G1X128.078Y50.779
G1X128.345Y50.988
G1X128.601Y51.210
G1X128.846Y51.444
G1X129.079Y51.689
G1X129.301Y51.945
G1X129.510Y52.211
G1X129.707Y52.487
G1X129.890Y52.773
G1X130.060Y53.068
G1X130.215Y53.372
G1X130.356Y53.684
G1X130.482Y54.003
G1X130.593Y54.330
G1X130.688Y54.664
G1X130.766Y55.004
G1X130.828Y55.351
G1X130.873Y55.704
G1X130.900Y56.062
G1X130.909Y56.426
G1X130.900Y56.790
G1X130.873Y57.148
G1X130.828Y57.501
G1X130.766Y57.848
G1X130.688Y58.188
G1X130.593Y58.522
G1X130.482Y58.849
G1X130.356Y59.168
G1X130.215Y59.480
G1X130.060Y59.783
G1X129.890Y60.078
G1X129.707Y60.364
G1X129.510Y60.641
G1X129.301Y60.907
G1X129.079Y61.163
G1X128.846Y61.408
G1X128.601Y61.642
G1X128.345Y61.864
G1X128.078Y62.073
G1X127.802Y62.270
G1X127.516Y62.453
G1X127.221Y62.622
G1X126.917Y62.778
G1X126.605Y62.919
G1X126.286Y63.045
G1X125.959Y63.155
G1X125.625Y63.250
G1X125.285Y63.329
G1X124.938Y63.391
G1X124.586Y63.435
G1X124.227Y63.463
G1X123.863Y63.472
G1X123.499Y63.463
G1X123.141Y63.435
G1X122.788Y63.391
G1X122.441Y63.329
G1X122.101Y63.250
G1X121.767Y63.155
G1X121.440Y63.045
G1X121.121Y62.919
G1X120.809Y62.778
G1X120.506Y62.622
G1X120.211Y62.453
G1X119.925Y62.270
G1X119.648Y62.073
G1X119.382Y61.864
G1X119.126Y61.642
G1X118.881Y61.408
G1X118.647Y61.163
G1X118.426Y60.907
G1X118.216Y60.641
G1X118.020Y60.364
G1X117.836Y60.078
G1X117.667Y59.783
G1X117.511Y59.480
G1X117.370Y59.168
G1X117.244Y58.849
G1X117.134Y58.522
G1X117.039Y58.188
G1X116.960Y57.848
G1X116.899Y57.501
G1X116.854Y57.148
G1X116.826Y56.790
G1X116.817Y56.426
G1X116.826Y56.062
G1X116.854Y55.704
G1X116.899Y55.351
G1X116.960Y55.004
G1X117.039Y54.664
G1X117.134Y54.330
G1X117.244Y54.003
G1X117.370Y53.684
G1X117.511Y53.372
G1X117.667Y53.068
G1X117.836Y52.773
G1X118.020Y52.487
G1X118.216Y52.211
G1X118.426Y51.945
G1X118.647Y51.689
G1X118.881Y51.444
G1X119.126Y51.210
G1X119.382Y50.988
G1X119.648Y50.779
G1X119.925Y50.582
G1X120.211Y50.399
G1X120.506Y50.229
G1X120.809Y50.074
G1X121.121Y49.933
G1Z-2.250F304.8
G1X121.440Y49.807F1016.0
G1X121.767Y49.696
G1X122.101Y49.602
G1X122.441Y49.523
G1X122.788Y49.461
G1X123.141Y49.416
G1X123.499Y49.389
G1X123.863Y49.380
G1X124.227Y49.389
G1X124.586Y49.416
G1X124.938Y49.461
G1X125.285Y49.523
G1X125.625Y49.602
G1X125.959Y49.696
G1X126.286Y49.807
G1X126.605Y49.933
G1X126.917Y50.074
G1X127.221Y50.229
G1X127.516Y50.399
G1X127.802Y50.582
G1X128.078Y50.779
G1X128.345Y50.988
G1X128.601Y51.210
G1X128.846Y51.444
G1X129.079Y51.689
G1X129.301Y51.945
G1X129.510Y52.211
G1X129.707Y52.487
G1X129.890Y52.773
G1X130.060Y53.068
G1X130.215Y53.372
G1X130.356Y53.684
G1X130.482Y54.003
G1X130.593Y54.330
G1X130.688Y54.664
G1X130.766Y55.004
G1X130.828Y55.351
G1X130.873Y55.704
G1X130.900Y56.062
G1X130.909Y56.426
G1X130.900Y56.790
G1X130.873Y57.148
G1X130.828Y57.501
G1X130.766Y57.848
G1X130.688Y58.188
G1X130.593Y58.522
G1X130.482Y58.849
G1X130.356Y59.168
G1X130.215Y59.480
G1X130.060Y59.783
G1X129.890Y60.078
G1X129.707Y60.364
G1X129.510Y60.641
G1X129.301Y60.907
G1X129.079Y61.163
G1X128.846Y61.408
G1X128.601Y61.642
G1X128.345Y61.864
G1X128.078Y62.073
G1X127.802Y62.270
G1X127.516Y62.453
G1X127.221Y62.622
G1X126.917Y62.778
G1X126.605Y62.919
G1X126.286Y63.045
G1X125.959Y63.155
G1X125.625Y63.250
G1X125.285Y63.329
G1X124.938Y63.391
G1X124.586Y63.435
G1X124.227Y63.463
G1X123.863Y63.472
G1X123.499Y63.463
G1X123.141Y63.435
G1X122.788Y63.391
G1X122.441Y63.329
G1X122.101Y63.250
G1X121.767Y63.155
G1X121.440Y63.045
G1X121.121Y62.919
G1X120.809Y62.778
G1X120.506Y62.622
G1X120.211Y62.453
G1X119.925Y62.270
G1X119.648Y62.073
G1X119.382Y61.864
G1X119.126Y61.642
G1X118.881Y61.408
G1X118.647Y61.163
G1X118.426Y60.907
G1X118.216Y60.641
G1X118.020Y60.364
G1X117.836Y60.078
G1X117.667Y59.783
G1X117.511Y59.480
G1X117.370Y59.168
G1X117.244Y58.849
G1X117.134Y58.522
G1X117.039Y58.188
G1X116.960Y57.848
G1X116.899Y57.501
G1X116.854Y57.148
G1X116.826Y56.790
G1X116.817Y56.426
G1X116.826Y56.062
G1X116.854Y55.704
G1X116.899Y55.351
G1X116.960Y55.004
G1X117.039Y54.664
G1X117.134Y54.330
G1X117.244Y54.003
G1X117.370Y53.684
G1X117.511Y53.372
G1X117.667Y53.068
G1X117.836Y52.773
G1X118.020Y52.487
G1X118.216Y52.211
G1X118.426Y51.945
G1X118.647Y51.689
G1X118.881Y51.444
G1X119.126Y51.210
G1X119.382Y50.988
G1X119.648Y50.779
G1X119.925Y50.582
G1X120.211Y50.399
G1X120.506Y50.229
G1X120.809Y50.074
G1X121.121Y49.933
G1Z-3.000F304.8
G1X121.440Y49.807F1016.0
G1X121.767Y49.696
G1X122.101Y49.602
G1X122.441Y49.523
G1X122.788Y49.461
G1X123.141Y49.416
G1X123.499Y49.389
G1X123.863Y49.380
G1X124.227Y49.389
G1X124.586Y49.416
G1X124.938Y49.461
G1X125.285Y49.523
G1X125.625Y49.602
G1X125.959Y49.696
G1X126.286Y49.807
G1X126.605Y49.933
G1X126.917Y50.074
G1X127.221Y50.229
G1X127.516Y50.399
G1X127.802Y50.582
G1X128.078Y50.779
G1X128.345Y50.988
G1X128.601Y51.210
G1X128.846Y51.444
G1X129.079Y51.689
G1X129.301Y51.945
G1X129.510Y52.211
G1X129.707Y52.487
G1X129.890Y52.773
G1X130.060Y53.068
G1X130.215Y53.372
G1X130.356Y53.684
G1X130.482Y54.003
G1X130.593Y54.330
G1X130.688Y54.664
G1X130.766Y55.004
G1X130.828Y55.351
G1X130.873Y55.704
G1X130.900Y56.062
G1X130.909Y56.426
G1X130.900Y56.790
G1X130.873Y57.148
G1X130.828Y57.501
G1X130.766Y57.848
G1X130.688Y58.188
G1X130.593Y58.522
G1X130.482Y58.849
G1X130.356Y59.168
G1X130.215Y59.480
G1X130.060Y59.783
G1X129.890Y60.078
G1X129.707Y60.364
G1X129.510Y60.641
G1X129.301Y60.907
G1X129.079Y61.163
G1X128.846Y61.408
G1X128.601Y61.642
G1X128.345Y61.864
G1X128.078Y62.073
G1X127.802Y62.270
G1X127.516Y62.453
G1X127.221Y62.622
G1X126.917Y62.778
G1X126.605Y62.919
G1X126.286Y63.045
G1X125.959Y63.155
G1X125.625Y63.250
G1X125.285Y63.329
G1X124.938Y63.391
G1X124.586Y63.435
G1X124.227Y63.463
G1X123.863Y63.472
G1X123.499Y63.463
G1X123.141Y63.435
G1X122.788Y63.391
G1X122.441Y63.329
G1X122.101Y63.250
G1X121.767Y63.155
G1X121.440Y63.045
G1X121.121Y62.919
G1X120.809Y62.778
G1X120.506Y62.622
G1X120.211Y62.453
G1X119.925Y62.270
G1X119.648Y62.073
G1X119.382Y61.864
G1X119.126Y61.642
G1X118.881Y61.408
G1X118.647Y61.163
G1X118.426Y60.907
G1X118.216Y60.641
G1X118.020Y60.364
G1X117.836Y60.078
G1X117.667Y59.783
G1X117.511Y59.480
G1X117.370Y59.168
G1X117.244Y58.849
G1X117.134Y58.522
G1X117.039Y58.188
G1X116.960Y57.848
G1X116.899Y57.501
G1X116.854Y57.148
G1X116.826Y56.790
G1X116.817Y56.426
G1X116.826Y56.062
G1X116.854Y55.704
G1X116.899Y55.351
G1X116.960Y55.004
G1X117.039Y54.664
G1X117.134Y54.330
G1X117.244Y54.003
G1X117.370Y53.684
G1X117.511Y53.372
G1X117.667Y53.068
G1X117.836Y52.773
G1X118.020Y52.487
G1X118.216Y52.211
G1X118.426Y51.945
G1X118.647Y51.689
G1X118.881Y51.444
G1X119.126Y51.210
G1X119.382Y50.988
G1X119.648Y50.779
G1X119.925Y50.582
G1X120.211Y50.399
G1X120.506Y50.229
G1X120.809Y50.074
G1X121.121Y49.933
G0Z5.080
G0X147.220Y51.160
G1Z-0.750F304.8
G1X147.224Y51.065F1016.0
G1X147.238Y50.976
G1X147.260Y50.891
G1X147.290Y50.810
G1X147.327Y50.732
G1X147.372Y50.658
G1X147.424Y50.588
G1X147.483Y50.524
G1X147.547Y50.465
G1X147.617Y50.413
G1X147.691Y50.368
G1X147.768Y50.331
G1X147.850Y50.301
G1X147.935Y50.279
G1X148.024Y50.266
G1X148.118Y50.261
G1X148.212Y50.266
G1X148.301Y50.279
G1X148.386Y50.301
G1X148.468Y50.331
G1X148.546Y50.368
G1X148.620Y50.413
G1X148.689Y50.465
G1X148.754Y50.524
G1X148.812Y50.588
G1X148.864Y50.658
G1X148.909Y50.732
G1X148.947Y50.810
G1X148.977Y50.891
G1X148.999Y50.976
G1X149.012Y51.065
G1X149.017Y51.160
G1X149.012Y51.254
G1X148.999Y51.343
G1X148.977Y51.428
G1X148.947Y51.509
G1X148.909Y51.587
G1X148.864Y51.661
G1X148.812Y51.731
G1X148.754Y51.795
G1X148.689Y51.854
G1X148.620Y51.906
G1X148.546Y51.951
G1X148.468Y51.988
G1X148.386Y52.018
G1X148.301Y52.040
G1X148.212Y52.053
G1X148.118Y52.058
G1X148.024Y52.053
G1X147.935Y52.040
G1X147.850Y52.018
G1X147.768Y51.988
G1X147.691Y51.951
G1X147.617Y51.906
G1X147.547Y51.854
G1X147.483Y51.795
G1X147.424Y51.731
G1X147.372Y51.661
G1X147.327Y51.587
G1X147.290Y51.509
G1X147.260Y51.428
G1X147.238Y51.343
G1X147.224Y51.254
G1X147.220Y51.160
G1Z-1.500F304.8
G1X147.224Y51.065F1016.0
G1X147.238Y50.976
G1X147.260Y50.891
G1X147.290Y50.810
G1X147.327Y50.732
G1X147.372Y50.658
G1X147.424Y50.588
G1X147.483Y50.524
G1X147.547Y50.465
G1X147.617Y50.413
G1X147.691Y50.368
G1X147.768Y50.331
G1X147.850Y50.301
G1X147.935Y50.279
G1X148.024Y50.266
G1X148.118Y50.261
G1X148.212Y50.266
G1X148.301Y50.279
G1X148.386Y50.301
G1X148.468Y50.331
G1X148.546Y50.368
G1X148.620Y50.413
G1X148.689Y50.465
G1X148.754Y50.524
G1X148.812Y50.588
G1X148.864Y50.658
G1X148.909Y50.732
G1X148.947Y50.810
G1X148.977Y50.891
G1X148.999Y50.976
G1X149.012Y51.065
G1X149.017Y51.160
G1X149.012Y51.254
G1X148.999Y51.343
G1X148.977Y51.428
G1X148.947Y51.509
G1X148.909Y51.587
G1X148.864Y51.661
G1X148.812Y51.731
G1X148.754Y51.795
G1X148.689Y51.854
G1X148.620Y51.906
G1X148.546Y51.951
G1X148.468Y51.988
G1X148.386Y52.018
G1X148.301Y52.040
G1X148.212Y52.053
G1X148.118Y52.058
G1X148.024Y52.053
G1X147.935Y52.040
G1X147.850Y52.018
G1X147.768Y51.988
G1X147.691Y51.951
G1X147.617Y51.906
G1X147.547Y51.854
G1X147.483Y51.795
G1X147.424Y51.731
G1X147.372Y51.661
G1X147.327Y51.587
G1X147.290Y51.509
G1X147.260Y51.428
G1X147.238Y51.343
G1X147.224Y51.254
G1X147.220Y51.160
G1Z-2.250F304.8
G1X147.224Y51.065F1016.0
G1X147.238Y50.976
G1X147.260Y50.891
G1X147.290Y50.810
G1X147.327Y50.732
G1X147.372Y50.658
G1X147.424Y50.588
G1X147.483Y50.524
G1X147.547Y50.465
G1X147.617Y50.413
G1X147.691Y50.368
G1X147.768Y50.331
G1X147.850Y50.301
G1X147.935Y50.279
G1X148.024Y50.266
G1X148.118Y50.261
G1X148.212Y50.266
G1X148.301Y50.279
G1X148.386Y50.301
G1X148.468Y50.331
G1X148.546Y50.368
G1X148.620Y50.413
G1X148.689Y50.465
G1X148.754Y50.524
G1X148.812Y50.588
G1X148.864Y50.658
G1X148.909Y50.732
G1X148.947Y50.810
G1X148.977Y50.891
G1X148.999Y50.976
G1X149.012Y51.065
G1X149.017Y51.160
G1X149.012Y51.254
G1X148.999Y51.343
G1X148.977Y51.428
G1X148.947Y51.509
G1X148.909Y51.587
G1X148.864Y51.661
G1X148.812Y51.731
G1X148.754Y51.795
G1X148.689Y51.854
G1X148.620Y51.906
G1X148.546Y51.951
G1X148.468Y51.988
G1X148.386Y52.018
G1X148.301Y52.040
G1X148.212Y52.053
G1X148.118Y52.058
G1X148.024Y52.053
G1X147.935Y52.040
G1X147.850Y52.018
G1X147.768Y51.988
G1X147.691Y51.951
G1X147.617Y51.906
G1X147.547Y51.854
G1X147.483Y51.795
G1X147.424Y51.731
G1X147.372Y51.661
G1X147.327Y51.587
G1X147.290Y51.509
G1X147.260Y51.428
G1X147.238Y51.343
G1X147.224Y51.254
G1X147.220Y51.160
G1Z-3.000F304.8
G1X147.224Y51.065F1016.0
G1X147.238Y50.976
G1X147.260Y50.891
G1X147.290Y50.810
G1X147.327Y50.732
G1X147.372Y50.658
G1X147.424Y50.588
G1X147.483Y50.524
G1X147.547Y50.465
G1X147.617Y50.413
G1X147.691Y50.368
G1X147.768Y50.331
G1X147.850Y50.301
G1X147.935Y50.279
G1X148.024Y50.266
G1X148.118Y50.261
G1X148.212Y50.266
G1X148.301Y50.279
G1X148.386Y50.301
G1X148.468Y50.331
G1X148.546Y50.368
G1X148.620Y50.413
G1X148.689Y50.465
G1X148.754Y50.524
G1X148.812Y50.588
G1X148.864Y50.658
G1X148.909Y50.732
G1X148.947Y50.810
G1X148.977Y50.891
G1X148.999Y50.976
G1X149.012Y51.065
G1X149.017Y51.160
G1X149.012Y51.254
G1X148.999Y51.343
G1X148.977Y51.428
G1X148.947Y51.509
G1X148.909Y51.587
G1X148.864Y51.661
G1X148.812Y51.731
G1X148.754Y51.795
G1X148.689Y51.854
G1X148.620Y51.906
G1X148.546Y51.951
G1X148.468Y51.988
G1X148.386Y52.018
G1X148.301Y52.040
G1X148.212Y52.053
G1X148.118Y52.058
G1X148.024Y52.053
G1X147.935Y52.040
G1X147.850Y52.018
G1X147.768Y51.988
G1X147.691Y51.951
G1X147.617Y51.906
G1X147.547Y51.854
G1X147.483Y51.795
G1X147.424Y51.731
G1X147.372Y51.661
G1X147.327Y51.587
G1X147.290Y51.509
G1X147.260Y51.428
G1X147.238Y51.343
G1X147.224Y51.254
G1X147.220Y51.160
G0Z5.080
G0X148.118Y23.483
G1Z-0.750F304.8
G1X148.024Y23.478F1016.0
G1X147.935Y23.464
G1X147.850Y23.443
G1X147.768Y23.413
G1X147.691Y23.375
G1X147.617Y23.330
G1X147.547Y23.278
G1X147.483Y23.220
G1X147.424Y23.155
G1X147.372Y23.086
G1X147.327Y23.012
G1X147.290Y22.934
G1X147.260Y22.852
G1X147.238Y22.767
G1X147.224Y22.678
G1X147.220Y22.584
G1X147.224Y22.490
G1X147.238Y22.401
G1X147.260Y22.316
G1X147.290Y22.234
G1X147.327Y22.156
G1X147.372Y22.082
G1X147.424Y22.013
G1X147.483Y21.948
G1X147.547Y21.890
G1X147.617Y21.838
G1X147.691Y21.793
G1X147.768Y21.755
G1X147.850Y21.726
G1X147.935Y21.704
G1X148.024Y21.690
G1X148.118Y21.685
G1X148.212Y21.690
G1X148.301Y21.704
G1X148.386Y21.726
G1X148.468Y21.755
G1X148.546Y21.793
G1X148.620Y21.838
G1X148.689Y21.890
G1X148.754Y21.948
G1X148.812Y22.013
G1X148.864Y22.082
G1X148.909Y22.156
G1X148.947Y22.234
G1X148.977Y22.316
G1X148.999Y22.401
G1X149.012Y22.490
G1X149.017Y22.584
G1X149.012Y22.678
G1X148.999Y22.767
G1X148.977Y22.852
G1X148.947Y22.934
G1X148.909Y23.012
G1X148.864Y23.086
G1X148.812Y23.155
G1X148.754Y23.220
G1X148.689Y23.278
G1X148.620Y23.330
G1X148.546Y23.375
G1X148.468Y23.413
G1X148.386Y23.443
G1X148.301Y23.464
G1X148.212Y23.478
G1X148.118Y23.483
G1Z-1.500F304.8
G1X148.024Y23.478F1016.0
G1X147.935Y23.464
G1X147.850Y23.443
G1X147.768Y23.413
G1X147.691Y23.375
G1X147.617Y23.330
G1X147.547Y23.278
G1X147.483Y23.220
G1X147.424Y23.155
G1X147.372Y23.086
G1X147.327Y23.012
G1X147.290Y22.934
G1X147.260Y22.852
G1X147.238Y22.767
G1X147.224Y22.678
G1X147.220Y22.584
G1X147.224Y22.490
G1X147.238Y22.401
G1X147.260Y22.316
G1X147.290Y22.234
G1X147.327Y22.156
G1X147.372Y22.082
G1X147.424Y22.013
G1X147.483Y21.948
G1X147.547Y21.890
G1X147.617Y21.838
G1X147.691Y21.793
G1X147.768Y21.755
G1X147.850Y21.726
G1X147.935Y21.704
G1X148.024Y21.690
G1X148.118Y21.685
G1X148.212Y21.690
G1X148.301Y21.704
G1X148.386Y21.726
G1X148.468Y21.755
G1X148.546Y21.793
G1X148.620Y21.838
G1X148.689Y21.890
G1X148.754Y21.948
G1X148.812Y22.013
G1X148.864Y22.082
G1X148.909Y22.156
G1X148.947Y22.234
G1X148.977Y22.316
G1X148.999Y22.401
G1X149.012Y22.490
G1X149.017Y22.584
G1X149.012Y22.678
G1X148.999Y22.767
G1X148.977Y22.852
G1X148.947Y22.934
G1X148.909Y23.012
G1X148.864Y23.086
G1X148.812Y23.155
G1X148.754Y23.220
G1X148.689Y23.278
G1X148.620Y23.330
G1X148.546Y23.375
G1X148.468Y23.413
G1X148.386Y23.443
G1X148.301Y23.464
G1X148.212Y23.478
G1X148.118Y23.483
G1Z-2.250F304.8
G1X148.024Y23.478F1016.0
G1X147.935Y23.464
G1X147.850Y23.443
G1X147.768Y23.413
G1X147.691Y23.375
G1X147.617Y23.330
G1X147.547Y23.278
G1X147.483Y23.220
G1X147.424Y23.155
G1X147.372Y23.086
G1X147.327Y23.012
G1X147.290Y22.934
G1X147.260Y22.852
G1X147.238Y22.767
G1X147.224Y22.678
G1X147.220Y22.584
G1X147.224Y22.490
G1X147.238Y22.401
G1X147.260Y22.316
G1X147.290Y22.234
G1X147.327Y22.156
G1X147.372Y22.082
G1X147.424Y22.013
G1X147.483Y21.948
G1X147.547Y21.890
G1X147.617Y21.838
G1X147.691Y21.793
G1X147.768Y21.755
G1X147.850Y21.726
G1X147.935Y21.704
G1X148.024Y21.690
G1X148.118Y21.685
G1X148.212Y21.690
G1X148.301Y21.704
G1X148.386Y21.726
G1X148.468Y21.755
G1X148.546Y21.793
G1X148.620Y21.838
G1X148.689Y21.890
G1X148.754Y21.948
G1X148.812Y22.013
G1X148.864Y22.082
G1X148.909Y22.156
G1X148.947Y22.234
G1X148.977Y22.316
G1X148.999Y22.401
G1X149.012Y22.490
G1X149.017Y22.584
G1X149.012Y22.678
G1X148.999Y22.767
G1X148.977Y22.852
G1X148.947Y22.934
G1X148.909Y23.012
G1X148.864Y23.086
G1X148.812Y23.155
G1X148.754Y23.220
G1X148.689Y23.278
G1X148.620Y23.330
G1X148.546Y23.375
G1X148.468Y23.413
G1X148.386Y23.443
G1X148.301Y23.464
G1X148.212Y23.478
G1X148.118Y23.483
G1Z-3.000F304.8
G1X148.024Y23.478F1016.0
G1X147.935Y23.464
G1X147.850Y23.443
G1X147.768Y23.413
G1X147.691Y23.375
G1X147.617Y23.330
G1X147.547Y23.278
G1X147.483Y23.220
G1X147.424Y23.155
G1X147.372Y23.086
G1X147.327Y23.012
G1X147.290Y22.934
G1X147.260Y22.852
G1X147.238Y22.767
G1X147.224Y22.678
G1X147.220Y22.584
G1X147.224Y22.490
G1X147.238Y22.401
G1X147.260Y22.316
G1X147.290Y22.234
G1X147.327Y22.156
G1X147.372Y22.082
G1X147.424Y22.013
G1X147.483Y21.948
G1X147.547Y21.890
G1X147.617Y21.838
G1X147.691Y21.793
G1X147.768Y21.755
G1X147.850Y21.726
G1X147.935Y21.704
G1X148.024Y21.690
G1X148.118Y21.685
G1X148.212Y21.690
G1X148.301Y21.704
G1X148.386Y21.726
G1X148.468Y21.755
G1X148.546Y21.793
G1X148.620Y21.838
G1X148.689Y21.890
G1X148.754Y21.948
G1X148.812Y22.013
G1X148.864Y22.082
G1X148.909Y22.156
G1X148.947Y22.234
G1X148.977Y22.316
G1X148.999Y22.401
G1X149.012Y22.490
G1X149.017Y22.584
G1X149.012Y22.678
G1X148.999Y22.767
G1X148.977Y22.852
G1X148.947Y22.934
G1X148.909Y23.012
G1X148.864Y23.086
G1X148.812Y23.155
G1X148.754Y23.220
G1X148.689Y23.278
G1X148.620Y23.330
G1X148.546Y23.375
G1X148.468Y23.413
G1X148.386Y23.443
G1X148.301Y23.464
G1X148.212Y23.478
G1X148.118Y23.483
G0Z5.080
G0Y97.887
G1Z-0.750F304.8
G1X148.212Y97.891F1016.0
G1X148.301Y97.905
G1X148.386Y97.927
G1X148.468Y97.957
G1X148.546Y97.994
G1X148.620Y98.039
G1X148.689Y98.091
G1X148.754Y98.150
G1X148.812Y98.214
G1X148.864Y98.284
G1X148.909Y98.358
G1X148.947Y98.436
G1X148.977Y98.517
G1X148.999Y98.602
G1X149.012Y98.691
G1X149.017Y98.785
G1X149.012Y98.879
G1X148.999Y98.968
G1X148.977Y99.054
G1X148.947Y99.135
G1X148.909Y99.213
G1X148.864Y99.287
G1X148.812Y99.356
G1X148.754Y99.421
G1X148.689Y99.479
G1X148.620Y99.531
G1X148.546Y99.576
G1X148.468Y99.614
G1X148.386Y99.644
G1X148.301Y99.666
G1X148.212Y99.679
G1X148.118Y99.684
G1X148.024Y99.679
G1X147.935Y99.666
G1X147.850Y99.644
G1X147.768Y99.614
G1X147.691Y99.576
G1X147.617Y99.531
G1X147.547Y99.479
G1X147.483Y99.421
G1X147.424Y99.356
G1X147.372Y99.287
G1X147.327Y99.213
G1X147.290Y99.135
G1X147.260Y99.054
G1X147.238Y98.968
G1X147.224Y98.879
G1X147.220Y98.785
G1X147.224Y98.691
G1X147.238Y98.602
G1X147.260Y98.517
G1X147.290Y98.436
G1X147.327Y98.358
G1X147.372Y98.284
G1X147.424Y98.214
G1X147.483Y98.150
G1X147.547Y98.091
G1X147.617Y98.039
G1X147.691Y97.994
G1X147.768Y97.957
G1X147.850Y97.927
G1X147.935Y97.905
G1X148.024Y97.891
G1X148.118Y97.887
G1Z-1.500F304.8
G1X148.212Y97.891F1016.0
G1X148.301Y97.905
G1X148.386Y97.927
G1X148.468Y97.957
G1X148.546Y97.994
G1X148.620Y98.039
G1X148.689Y98.091
G1X148.754Y98.150
G1X148.812Y98.214
G1X148.864Y98.284
G1X148.909Y98.358
G1X148.947Y98.436
G1X148.977Y98.517
G1X148.999Y98.602
G1X149.012Y98.691
G1X149.017Y98.785
G1X149.012Y98.879
G1X148.999Y98.968
G1X148.977Y99.054
G1X148.947Y99.135
G1X148.909Y99.213
G1X148.864Y99.287
G1X148.812Y99.356
G1X148.754Y99.421
G1X148.689Y99.479
G1X148.620Y99.531
G1X148.546Y99.576
G1X148.468Y99.614
G1X148.386Y99.644
G1X148.301Y99.666
G1X148.212Y99.679
G1X148.118Y99.684
G1X148.024Y99.679
G1X147.935Y99.666
G1X147.850Y99.644
G1X147.768Y99.614
G1X147.691Y99.576
G1X147.617Y99.531
G1X147.547Y99.479
G1X147.483Y99.421
G1X147.424Y99.356
G1X147.372Y99.287
G1X147.327Y99.213
G1X147.290Y99.135
G1X147.260Y99.054
G1X147.238Y98.968
G1X147.224Y98.879
G1X147.220Y98.785
G1X147.224Y98.691
G1X147.238Y98.602
G1X147.260Y98.517
G1X147.290Y98.436
G1X147.327Y98.358
G1X147.372Y98.284
G1X147.424Y98.214
G1X147.483Y98.150
G1X147.547Y98.091
G1X147.617Y98.039
G1X147.691Y97.994
G1X147.768Y97.957
G1X147.850Y97.927
G1X147.935Y97.905
G1X148.024Y97.891
G1X148.118Y97.887
G1Z-2.250F304.8
G1X148.212Y97.891F1016.0
G1X148.301Y97.905
G1X148.386Y97.927
G1X148.468Y97.957
G1X148.546Y97.994
G1X148.620Y98.039
G1X148.689Y98.091
G1X148.754Y98.150
G1X148.812Y98.214
G1X148.864Y98.284
G1X148.909Y98.358
G1X148.947Y98.436
G1X148.977Y98.517
G1X148.999Y98.602
G1X149.012Y98.691
G1X149.017Y98.785
G1X149.012Y98.879
G1X148.999Y98.968
G1X148.977Y99.054
G1X148.947Y99.135
G1X148.909Y99.213
G1X148.864Y99.287
G1X148.812Y99.356
G1X148.754Y99.421
G1X148.689Y99.479
G1X148.620Y99.531
G1X148.546Y99.576
G1X148.468Y99.614
G1X148.386Y99.644
G1X148.301Y99.666
G1X148.212Y99.679
G1X148.118Y99.684
G1X148.024Y99.679
G1X147.935Y99.666
G1X147.850Y99.644
G1X147.768Y99.614
G1X147.691Y99.576
G1X147.617Y99.531
G1X147.547Y99.479
G1X147.483Y99.421
G1X147.424Y99.356
G1X147.372Y99.287
G1X147.327Y99.213
G1X147.290Y99.135
G1X147.260Y99.054
G1X147.238Y98.968
G1X147.224Y98.879
G1X147.220Y98.785
G1X147.224Y98.691
G1X147.238Y98.602
G1X147.260Y98.517
G1X147.290Y98.436
G1X147.327Y98.358
G1X147.372Y98.284
G1X147.424Y98.214
G1X147.483Y98.150
G1X147.547Y98.091
G1X147.617Y98.039
G1X147.691Y97.994
G1X147.768Y97.957
G1X147.850Y97.927
G1X147.935Y97.905
G1X148.024Y97.891
G1X148.118Y97.887
G1Z-3.000F304.8
G1X148.212Y97.891F1016.0
G1X148.301Y97.905
G1X148.386Y97.927
G1X148.468Y97.957
G1X148.546Y97.994
G1X148.620Y98.039
G1X148.689Y98.091
G1X148.754Y98.150
G1X148.812Y98.214
G1X148.864Y98.284
G1X148.909Y98.358
G1X148.947Y98.436
G1X148.977Y98.517
G1X148.999Y98.602
G1X149.012Y98.691
G1X149.017Y98.785
G1X149.012Y98.879
G1X148.999Y98.968
G1X148.977Y99.054
G1X148.947Y99.135
G1X148.909Y99.213
G1X148.864Y99.287
G1X148.812Y99.356
G1X148.754Y99.421
G1X148.689Y99.479
G1X148.620Y99.531
G1X148.546Y99.576
G1X148.468Y99.614
G1X148.386Y99.644
G1X148.301Y99.666
G1X148.212Y99.679
G1X148.118Y99.684
G1X148.024Y99.679
G1X147.935Y99.666
G1X147.850Y99.644
G1X147.768Y99.614
G1X147.691Y99.576
G1X147.617Y99.531
G1X147.547Y99.479
G1X147.483Y99.421
G1X147.424Y99.356
G1X147.372Y99.287
G1X147.327Y99.213
G1X147.290Y99.135
G1X147.260Y99.054
G1X147.238Y98.968
G1X147.224Y98.879
G1X147.220Y98.785
G1X147.224Y98.691
G1X147.238Y98.602
G1X147.260Y98.517
G1X147.290Y98.436
G1X147.327Y98.358
G1X147.372Y98.284
G1X147.424Y98.214
G1X147.483Y98.150
G1X147.547Y98.091
G1X147.617Y98.039
G1X147.691Y97.994
G1X147.768Y97.957
G1X147.850Y97.927
G1X147.935Y97.905
G1X148.024Y97.891
G1X148.118Y97.887
G0Z5.080
G0Y126.461
G1Z-0.750F304.8
G1X148.212Y126.466F1016.0
G1X148.301Y126.479
G1X148.386Y126.501
G1X148.468Y126.531
G1X148.546Y126.568
G1X148.620Y126.613
G1X148.689Y126.665
G1X148.754Y126.724
G1X148.812Y126.788
G1X148.864Y126.858
G1X148.909Y126.932
G1X148.947Y127.010
G1X148.977Y127.091
G1X148.999Y127.176
G1X149.012Y127.265
G1X149.017Y127.360
G1X149.012Y127.454
G1X148.999Y127.543
G1X148.977Y127.628
G1X148.947Y127.709
G1X148.909Y127.787
G1X148.864Y127.861
G1X148.812Y127.931
G1X148.754Y127.995
G1X148.689Y128.054
G1X148.620Y128.106
G1X148.546Y128.151
G1X148.468Y128.188
G1X148.386Y128.218
G1X148.301Y128.240
G1X148.212Y128.253
G1X148.118Y128.258
G1X148.024Y128.253
G1X147.935Y128.240
G1X147.850Y128.218
G1X147.768Y128.188
G1X147.691Y128.151
G1X147.617Y128.106
G1X147.547Y128.054
G1X147.483Y127.995
G1X147.424Y127.931
G1X147.372Y127.861
G1X147.327Y127.787
G1X147.290Y127.709
G1X147.260Y127.628
G1X147.238Y127.543
G1X147.224Y127.454
G1X147.220Y127.360
G1X147.224Y127.265
G1X147.238Y127.176
G1X147.260Y127.091
G1X147.290Y127.010
G1X147.327Y126.932
G1X147.372Y126.858
G1X147.424Y126.788
G1X147.483Y126.724
G1X147.547Y126.665
G1X147.617Y126.613
G1X147.691Y126.568
G1X147.768Y126.531
G1X147.850Y126.501
G1X147.935Y126.479
G1X148.024Y126.466
G1X148.118Y126.461
G1Z-1.500F304.8
G1X148.212Y126.466F1016.0
G1X148.301Y126.479
G1X148.386Y126.501
G1X148.468Y126.531
G1X148.546Y126.568
G1X148.620Y126.613
G1X148.689Y126.665
G1X148.754Y126.724
G1X148.812Y126.788
G1X148.864Y126.858
G1X148.909Y126.932
G1X148.947Y127.010
G1X148.977Y127.091
G1X148.999Y127.176
G1X149.012Y127.265
G1X149.017Y127.360
G1X149.012Y127.454
G1X148.999Y127.543
G1X148.977Y127.628
G1X148.947Y127.709
G1X148.909Y127.787
G1X148.864Y127.861
G1X148.812Y127.931
G1X148.754Y127.995
G1X148.689Y128.054
G1X148.620Y128.106
G1X148.546Y128.151
G1X148.468Y128.188
G1X148.386Y128.218
G1X148.301Y128.240
G1X148.212Y128.253
G1X148.118Y128.258
G1X148.024Y128.253
G1X147.935Y128.240
G1X147.850Y128.218
G1X147.768Y128.188
G1X147.691Y128.151
G1X147.617Y128.106
G1X147.547Y128.054
G1X147.483Y127.995
G1X147.424Y127.931
G1X147.372Y127.861
G1X147.327Y127.787
G1X147.290Y127.709
G1X147.260Y127.628
G1X147.238Y127.543
G1X147.224Y127.454
G1X147.220Y127.360
G1X147.224Y127.265
G1X147.238Y127.176
G1X147.260Y127.091
G1X147.290Y127.010
G1X147.327Y126.932
G1X147.372Y126.858
G1X147.424Y126.788
G1X147.483Y126.724
G1X147.547Y126.665
G1X147.617Y126.613
G1X147.691Y126.568
G1X147.768Y126.531
G1X147.850Y126.501
G1X147.935Y126.479
G1X148.024Y126.466
G1X148.118Y126.461
G1Z-2.250F304.8
G1X148.212Y126.466F1016.0
G1X148.301Y126.479
G1X148.386Y126.501
G1X148.468Y126.531
G1X148.546Y126.568
G1X148.620Y126.613
G1X148.689Y126.665
G1X148.754Y126.724
G1X148.812Y126.788
G1X148.864Y126.858
G1X148.909Y126.932
G1X148.947Y127.010
G1X148.977Y127.091
G1X148.999Y127.176
G1X149.012Y127.265
G1X149.017Y127.360
G1X149.012Y127.454
G1X148.999Y127.543
G1X148.977Y127.628
G1X148.947Y127.709
G1X148.909Y127.787
G1X148.864Y127.861
G1X148.812Y127.931
G1X148.754Y127.995
G1X148.689Y128.054
G1X148.620Y128.106
G1X148.546Y128.151
G1X148.468Y128.188
G1X148.386Y128.218
G1X148.301Y128.240
G1X148.212Y128.253
G1X148.118Y128.258
G1X148.024Y128.253
G1X147.935Y128.240
G1X147.850Y128.218
G1X147.768Y128.188
G1X147.691Y128.151
G1X147.617Y128.106
G1X147.547Y128.054
G1X147.483Y127.995
G1X147.424Y127.931
G1X147.372Y127.861
G1X147.327Y127.787
G1X147.290Y127.709
G1X147.260Y127.628
G1X147.238Y127.543
G1X147.224Y127.454
G1X147.220Y127.360
G1X147.224Y127.265
G1X147.238Y127.176
G1X147.260Y127.091
G1X147.290Y127.010
G1X147.327Y126.932
G1X147.372Y126.858
G1X147.424Y126.788
G1X147.483Y126.724
G1X147.547Y126.665
G1X147.617Y126.613
G1X147.691Y126.568
G1X147.768Y126.531
G1X147.850Y126.501
G1X147.935Y126.479
G1X148.024Y126.466
G1X148.118Y126.461
G1Z-3.000F304.8
G1X148.212Y126.466F1016.0
G1X148.301Y126.479
G1X148.386Y126.501
G1X148.468Y126.531
G1X148.546Y126.568
G1X148.620Y126.613
G1X148.689Y126.665
G1X148.754Y126.724
G1X148.812Y126.788
G1X148.864Y126.858
G1X148.909Y126.932
G1X148.947Y127.010
G1X148.977Y127.091
G1X148.999Y127.176
G1X149.012Y127.265
G1X149.017Y127.360
G1X149.012Y127.454
G1X148.999Y127.543
G1X148.977Y127.628
G1X148.947Y127.709
G1X148.909Y127.787
G1X148.864Y127.861
G1X148.812Y127.931
G1X148.754Y127.995
G1X148.689Y128.054
G1X148.620Y128.106
G1X148.546Y128.151
G1X148.468Y128.188
G1X148.386Y128.218
G1X148.301Y128.240
G1X148.212Y128.253
G1X148.118Y128.258
G1X148.024Y128.253
G1X147.935Y128.240
G1X147.850Y128.218
G1X147.768Y128.188
G1X147.691Y128.151
G1X147.617Y128.106
G1X147.547Y128.054
G1X147.483Y127.995
G1X147.424Y127.931
G1X147.372Y127.861
G1X147.327Y127.787
G1X147.290Y127.709
G1X147.260Y127.628
G1X147.238Y127.543
G1X147.224Y127.454
G1X147.220Y127.360
G1X147.224Y127.265
G1X147.238Y127.176
G1X147.260Y127.091
G1X147.290Y127.010
G1X147.327Y126.932
G1X147.372Y126.858
G1X147.424Y126.788
G1X147.483Y126.724
G1X147.547Y126.665
G1X147.617Y126.613
G1X147.691Y126.568
G1X147.768Y126.531
G1X147.850Y126.501
G1X147.935Y126.479
G1X148.024Y126.466
G1X148.118Y126.461
G0Z5.080
G0X134.290Y103.681
G1Z-0.750F304.8
G1X114.365F1016.0
G1Y83.756
G1X134.290
G1Y103.681
G1Z-1.500F304.8
G1X114.365F1016.0
G1Y83.756
G1X134.290
G1Y103.681
G1Z-2.250F304.8
G1X114.365F1016.0
G1Y83.756
G1X134.290
G1Y103.681
G1Z-3.000F304.8
G1X114.365F1016.0
G1Y83.756
G1X134.290
G1Y103.681
G0Z5.080
G0X90.047Y103.723
G1Z-0.750F304.8
G1X70.122F1016.0
G1Y83.798
G1X90.047
G1Y103.723
G1Z-1.500F304.8
G1X70.122F1016.0
G1Y83.798
G1X90.047
G1Y103.723
G1Z-2.250F304.8
G1X70.122F1016.0
G1Y83.798
G1X90.047
G1Y103.723
G1Z-3.000F304.8
G1X70.122F1016.0
G1Y83.798
G1X90.047
G1Y103.723
G0Z5.080
G0X93.077Y115.124
G1Z-0.750F304.8
G1Y129.795F1016.0
G1X67.582
G1Y115.124
G1X93.077
G1Z-1.500F304.8
G1Y129.795F1016.0
G1X67.582
G1Y115.124
G1X93.077
G1Z-2.250F304.8
G1Y129.795F1016.0
G1X67.582
G1Y115.124
G1X93.077
G1Z-3.000F304.8
G1Y129.795F1016.0
G1X67.582
G1Y115.124
G1X93.077
G0Z5.080
G0X45.511Y103.866
G1Z-0.750F304.8
G1X25.586F1016.0
G1Y83.941
G1X45.511
G1Y103.866
G1Z-1.500F304.8
G1X25.586F1016.0
G1Y83.941
G1X45.511
G1Y103.866
G1Z-2.250F304.8
G1X25.586F1016.0
G1Y83.941
G1X45.511
G1Y103.866
G1Z-3.000F304.8
G1X25.586F1016.0
G1Y83.941
G1X45.511
G1Y103.866
G0Z5.080
G0X12.741Y98.879
G1Z-0.750F304.8
G1X12.727Y98.968F1016.0
G1X12.705Y99.054
G1X12.675Y99.135
G1X12.638Y99.213
G1X12.593Y99.287
G1X12.541Y99.356
G1X12.482Y99.421
G1X12.418Y99.479
G1X12.348Y99.531
G1X12.274Y99.576
G1X12.196Y99.614
G1X12.115Y99.644
G1X12.030Y99.666
G1X11.941Y99.679
G1X11.847Y99.684
G1X11.753Y99.679
G1X11.663Y99.666
G1X11.578Y99.644
G1X11.497Y99.614
G1X11.419Y99.576
G1X11.345Y99.531
G1X11.276Y99.479
G1X11.211Y99.421
G1X11.153Y99.356
G1X11.101Y99.287
G1X11.056Y99.213
G1X11.018Y99.135
G1X10.988Y99.054
G1X10.966Y98.968
G1X10.953Y98.879
G1X10.948Y98.785
G1X10.953Y98.691
G1X10.966Y98.602
G1X10.988Y98.517
G1X11.018Y98.436
G1X11.056Y98.358
G1X11.101Y98.284
G1X11.153Y98.214
G1X11.211Y98.150
G1X11.276Y98.091
G1X11.345Y98.039
G1X11.419Y97.994
G1X11.497Y97.957
G1X11.578Y97.927
G1X11.663Y97.905
G1X11.753Y97.891
G1X11.847Y97.887
G1X11.941Y97.891
G1X12.030Y97.905
G1X12.115Y97.927
G1X12.196Y97.957
G1X12.274Y97.994
G1X12.348Y98.039
G1X12.418Y98.091
G1X12.482Y98.150
G1X12.541Y98.214
G1X12.593Y98.284
G1X12.638Y98.358
G1X12.675Y98.436
G1X12.705Y98.517
G1X12.727Y98.602
G1X12.741Y98.691
G1X12.745Y98.785
G1X12.741Y98.879
G1Z-1.500F304.8
G1X12.727Y98.968F1016.0
G1X12.705Y99.054
G1X12.675Y99.135
G1X12.638Y99.213
G1X12.593Y99.287
G1X12.541Y99.356
G1X12.482Y99.421
G1X12.418Y99.479
G1X12.348Y99.531
G1X12.274Y99.576
G1X12.196Y99.614
G1X12.115Y99.644
G1X12.030Y99.666
G1X11.941Y99.679
G1X11.847Y99.684
G1X11.753Y99.679
G1X11.663Y99.666
G1X11.578Y99.644
G1X11.497Y99.614
G1X11.419Y99.576
G1X11.345Y99.531
G1X11.276Y99.479
G1X11.211Y99.421
G1X11.153Y99.356
G1X11.101Y99.287
G1X11.056Y99.213
G1X11.018Y99.135
G1X10.988Y99.054
G1X10.966Y98.968
G1X10.953Y98.879
G1X10.948Y98.785
G1X10.953Y98.691
G1X10.966Y98.602
G1X10.988Y98.517
G1X11.018Y98.436
G1X11.056Y98.358
G1X11.101Y98.284
G1X11.153Y98.214
G1X11.211Y98.150
G1X11.276Y98.091
G1X11.345Y98.039
G1X11.419Y97.994
G1X11.497Y97.957
G1X11.578Y97.927
G1X11.663Y97.905
G1X11.753Y97.891
G1X11.847Y97.887
G1X11.941Y97.891
G1X12.030Y97.905
G1X12.115Y97.927
G1X12.196Y97.957
G1X12.274Y97.994
G1X12.348Y98.039
G1X12.418Y98.091
G1X12.482Y98.150
G1X12.541Y98.214
G1X12.593Y98.284
G1X12.638Y98.358
G1X12.675Y98.436
G1X12.705Y98.517
G1X12.727Y98.602
G1X12.741Y98.691
G1X12.745Y98.785
G1X12.741Y98.879
G1Z-2.250F304.8
G1X12.727Y98.968F1016.0
G1X12.705Y99.054
G1X12.675Y99.135
G1X12.638Y99.213
G1X12.593Y99.287
G1X12.541Y99.356
G1X12.482Y99.421
G1X12.418Y99.479
G1X12.348Y99.531
G1X12.274Y99.576
G1X12.196Y99.614
G1X12.115Y99.644
G1X12.030Y99.666
G1X11.941Y99.679
G1X11.847Y99.684
G1X11.753Y99.679
G1X11.663Y99.666
G1X11.578Y99.644
G1X11.497Y99.614
G1X11.419Y99.576
G1X11.345Y99.531
G1X11.276Y99.479
G1X11.211Y99.421
G1X11.153Y99.356
G1X11.101Y99.287
G1X11.056Y99.213
G1X11.018Y99.135
G1X10.988Y99.054
G1X10.966Y98.968
G1X10.953Y98.879
G1X10.948Y98.785
G1X10.953Y98.691
G1X10.966Y98.602
G1X10.988Y98.517
G1X11.018Y98.436
G1X11.056Y98.358
G1X11.101Y98.284
G1X11.153Y98.214
G1X11.211Y98.150
G1X11.276Y98.091
G1X11.345Y98.039
G1X11.419Y97.994
G1X11.497Y97.957
G1X11.578Y97.927
G1X11.663Y97.905
G1X11.753Y97.891
G1X11.847Y97.887
G1X11.941Y97.891
G1X12.030Y97.905
G1X12.115Y97.927
G1X12.196Y97.957
G1X12.274Y97.994
G1X12.348Y98.039
G1X12.418Y98.091
G1X12.482Y98.150
G1X12.541Y98.214
G1X12.593Y98.284
G1X12.638Y98.358
G1X12.675Y98.436
G1X12.705Y98.517
G1X12.727Y98.602
G1X12.741Y98.691
G1X12.745Y98.785
G1X12.741Y98.879
G1Z-3.000F304.8
G1X12.727Y98.968F1016.0
G1X12.705Y99.054
G1X12.675Y99.135
G1X12.638Y99.213
G1X12.593Y99.287
G1X12.541Y99.356
G1X12.482Y99.421
G1X12.418Y99.479
G1X12.348Y99.531
G1X12.274Y99.576
G1X12.196Y99.614
G1X12.115Y99.644
G1X12.030Y99.666
G1X11.941Y99.679
G1X11.847Y99.684
G1X11.753Y99.679
G1X11.663Y99.666
G1X11.578Y99.644
G1X11.497Y99.614
G1X11.419Y99.576
G1X11.345Y99.531
G1X11.276Y99.479
G1X11.211Y99.421
G1X11.153Y99.356
G1X11.101Y99.287
G1X11.056Y99.213
G1X11.018Y99.135
G1X10.988Y99.054
G1X10.966Y98.968
G1X10.953Y98.879
G1X10.948Y98.785
G1X10.953Y98.691
G1X10.966Y98.602
G1X10.988Y98.517
G1X11.018Y98.436
G1X11.056Y98.358
G1X11.101Y98.284
G1X11.153Y98.214
G1X11.211Y98.150
G1X11.276Y98.091
G1X11.345Y98.039
G1X11.419Y97.994
G1X11.497Y97.957
G1X11.578Y97.927
G1X11.663Y97.905
G1X11.753Y97.891
G1X11.847Y97.887
G1X11.941Y97.891
G1X12.030Y97.905
G1X12.115Y97.927
G1X12.196Y97.957
G1X12.274Y97.994
G1X12.348Y98.039
G1X12.418Y98.091
G1X12.482Y98.150
G1X12.541Y98.214
G1X12.593Y98.284
G1X12.638Y98.358
G1X12.675Y98.436
G1X12.705Y98.517
G1X12.727Y98.602
G1X12.741Y98.691
G1X12.745Y98.785
G1X12.741Y98.879
G0Z5.080
G0X11.847Y126.461
G1Z-0.750F304.8
G1X11.941Y126.466F1016.0
G1X12.030Y126.479
G1X12.115Y126.501
G1X12.196Y126.531
G1X12.274Y126.568
G1X12.348Y126.613
G1X12.418Y126.665
G1X12.482Y126.724
G1X12.541Y126.788
G1X12.593Y126.858
G1X12.638Y126.932
G1X12.675Y127.010
G1X12.705Y127.091
G1X12.727Y127.176
G1X12.741Y127.265
G1X12.745Y127.360
G1X12.741Y127.454
G1X12.727Y127.543
G1X12.705Y127.628
G1X12.675Y127.709
G1X12.638Y127.787
G1X12.593Y127.861
G1X12.541Y127.931
G1X12.482Y127.995
G1X12.418Y128.054
G1X12.348Y128.106
G1X12.274Y128.151
G1X12.196Y128.188
G1X12.115Y128.218
G1X12.030Y128.240
G1X11.941Y128.253
G1X11.847Y128.258
G1X11.753Y128.253
G1X11.663Y128.240
G1X11.578Y128.218
G1X11.497Y128.188
G1X11.419Y128.151
G1X11.345Y128.106
G1X11.276Y128.054
G1X11.211Y127.995
G1X11.153Y127.931
G1X11.101Y127.861
G1X11.056Y127.787
G1X11.018Y127.709
G1X10.988Y127.628
G1X10.966Y127.543
G1X10.953Y127.454
G1X10.948Y127.360
G1X10.953Y127.265
G1X10.966Y127.176
G1X10.988Y127.091
G1X11.018Y127.010
G1X11.056Y126.932
G1X11.101Y126.858
G1X11.153Y126.788
G1X11.211Y126.724
G1X11.276Y126.665
G1X11.345Y126.613
G1X11.419Y126.568
G1X11.497Y126.531
G1X11.578Y126.501
G1X11.663Y126.479
G1X11.753Y126.466
G1X11.847Y126.461
G1Z-1.500F304.8
G1X11.941Y126.466F1016.0
G1X12.030Y126.479
G1X12.115Y126.501
G1X12.196Y126.531
G1X12.274Y126.568
G1X12.348Y126.613
G1X12.418Y126.665
G1X12.482Y126.724
G1X12.541Y126.788
G1X12.593Y126.858
G1X12.638Y126.932
G1X12.675Y127.010
G1X12.705Y127.091
G1X12.727Y127.176
G1X12.741Y127.265
G1X12.745Y127.360
G1X12.741Y127.454
G1X12.727Y127.543
G1X12.705Y127.628
G1X12.675Y127.709
G1X12.638Y127.787
G1X12.593Y127.861
G1X12.541Y127.931
G1X12.482Y127.995
G1X12.418Y128.054
G1X12.348Y128.106
G1X12.274Y128.151
G1X12.196Y128.188
G1X12.115Y128.218
G1X12.030Y128.240
G1X11.941Y128.253
G1X11.847Y128.258
G1X11.753Y128.253
G1X11.663Y128.240
G1X11.578Y128.218
G1X11.497Y128.188
G1X11.419Y128.151
G1X11.345Y128.106
G1X11.276Y128.054
G1X11.211Y127.995
G1X11.153Y127.931
G1X11.101Y127.861
G1X11.056Y127.787
G1X11.018Y127.709
G1X10.988Y127.628
G1X10.966Y127.543
G1X10.953Y127.454
G1X10.948Y127.360
G1X10.953Y127.265
G1X10.966Y127.176
G1X10.988Y127.091
G1X11.018Y127.010
G1X11.056Y126.932
G1X11.101Y126.858
G1X11.153Y126.788
G1X11.211Y126.724
G1X11.276Y126.665
G1X11.345Y126.613
G1X11.419Y126.568
G1X11.497Y126.531
G1X11.578Y126.501
G1X11.663Y126.479
G1X11.753Y126.466
G1X11.847Y126.461
G1Z-2.250F304.8
G1X11.941Y126.466F1016.0
G1X12.030Y126.479
G1X12.115Y126.501
G1X12.196Y126.531
G1X12.274Y126.568
G1X12.348Y126.613
G1X12.418Y126.665
G1X12.482Y126.724
G1X12.541Y126.788
G1X12.593Y126.858
G1X12.638Y126.932
G1X12.675Y127.010
G1X12.705Y127.091
G1X12.727Y127.176
G1X12.741Y127.265
G1X12.745Y127.360
G1X12.741Y127.454
G1X12.727Y127.543
G1X12.705Y127.628
G1X12.675Y127.709
G1X12.638Y127.787
G1X12.593Y127.861
G1X12.541Y127.931
G1X12.482Y127.995
G1X12.418Y128.054
G1X12.348Y128.106
G1X12.274Y128.151
G1X12.196Y128.188
G1X12.115Y128.218
G1X12.030Y128.240
G1X11.941Y128.253
G1X11.847Y128.258
G1X11.753Y128.253
G1X11.663Y128.240
G1X11.578Y128.218
G1X11.497Y128.188
G1X11.419Y128.151
G1X11.345Y128.106
G1X11.276Y128.054
G1X11.211Y127.995
G1X11.153Y127.931
G1X11.101Y127.861
G1X11.056Y127.787
G1X11.018Y127.709
G1X10.988Y127.628
G1X10.966Y127.543
G1X10.953Y127.454
G1X10.948Y127.360
G1X10.953Y127.265
G1X10.966Y127.176
G1X10.988Y127.091
G1X11.018Y127.010
G1X11.056Y126.932
G1X11.101Y126.858
G1X11.153Y126.788
G1X11.211Y126.724
G1X11.276Y126.665
G1X11.345Y126.613
G1X11.419Y126.568
G1X11.497Y126.531
G1X11.578Y126.501
G1X11.663Y126.479
G1X11.753Y126.466
G1X11.847Y126.461
G1Z-3.000F304.8
G1X11.941Y126.466F1016.0
G1X12.030Y126.479
G1X12.115Y126.501
G1X12.196Y126.531
G1X12.274Y126.568
G1X12.348Y126.613
G1X12.418Y126.665
G1X12.482Y126.724
G1X12.541Y126.788
G1X12.593Y126.858
G1X12.638Y126.932
G1X12.675Y127.010
G1X12.705Y127.091
G1X12.727Y127.176
G1X12.741Y127.265
G1X12.745Y127.360
G1X12.741Y127.454
G1X12.727Y127.543
G1X12.705Y127.628
G1X12.675Y127.709
G1X12.638Y127.787
G1X12.593Y127.861
G1X12.541Y127.931
G1X12.482Y127.995
G1X12.418Y128.054
G1X12.348Y128.106
G1X12.274Y128.151
G1X12.196Y128.188
G1X12.115Y128.218
G1X12.030Y128.240
G1X11.941Y128.253
G1X11.847Y128.258
G1X11.753Y128.253
G1X11.663Y128.240
G1X11.578Y128.218
G1X11.497Y128.188
G1X11.419Y128.151
G1X11.345Y128.106
G1X11.276Y128.054
G1X11.211Y127.995
G1X11.153Y127.931
G1X11.101Y127.861
G1X11.056Y127.787
G1X11.018Y127.709
G1X10.988Y127.628
G1X10.966Y127.543
G1X10.953Y127.454
G1X10.948Y127.360
G1X10.953Y127.265
G1X10.966Y127.176
G1X10.988Y127.091
G1X11.018Y127.010
G1X11.056Y126.932
G1X11.101Y126.858
G1X11.153Y126.788
G1X11.211Y126.724
G1X11.276Y126.665
G1X11.345Y126.613
G1X11.419Y126.568
G1X11.497Y126.531
G1X11.578Y126.501
G1X11.663Y126.479
G1X11.753Y126.466
G1X11.847Y126.461
G0Z5.080
M5
G0Z20.320
G0X0.000Y0.000
M2
