(VECTRIC POST REVISION)
(2410E23C85915A17A0D6BB4BFA509A68)
T1
G17
G21
G90
G0Z20.320
G0X0.000Y0.000
S18000M3
G0X7.590Y8.431
G0Z5.080
G1Z-0.750F304.8
G1X7.313Y8.682F1016.0
G1X7.062Y8.958
G1X6.838Y9.258
G1X6.643Y9.579
G1X6.479Y9.921
G1X6.347Y10.280
G1X6.251Y10.655
G1X6.192Y11.042
G1X6.174Y11.398
G1Y15.461
G1X6.193Y15.818
G1X6.253Y16.202
G1X6.350Y16.574
G1X6.482Y16.931
G1X6.646Y17.270
G1X6.840Y17.589
G1X7.063Y17.887
G1X7.313Y18.161
G1X7.587Y18.410
G1X7.885Y18.633
G1X8.204Y18.828
G1X8.542Y18.992
G1X8.898Y19.124
G1X9.269Y19.221
G1X9.653Y19.282
G1X10.012Y19.302
G1X11.823
G1X12.201Y19.322
G1X12.527Y19.372
G1X12.841Y19.454
G1X13.143Y19.565
G1X13.430Y19.705
G1X13.702Y19.872
G1X13.957Y20.064
G1X14.192Y20.279
G1X14.407Y20.517
G1X14.598Y20.774
G1X14.764Y21.049
G1X14.903Y21.339
G1X15.014Y21.643
G1X15.095Y21.960
G1X15.145Y22.289
G1X15.162Y22.629
G1X15.145Y22.969
G1X15.095Y23.298
G1X15.014Y23.615
G1X14.903Y23.919
G1X14.764Y24.210
G1X14.598Y24.485
G1X14.407Y24.742
G1X14.192Y24.979
G1X13.957Y25.195
G1X13.702Y25.387
G1X13.430Y25.554
G1X13.142Y25.694
G1X12.841Y25.805
G1X12.527Y25.887
G1X12.202Y25.937
G1X11.823Y25.956
G1X10.029
G1X9.673Y25.974
G1X9.286Y26.034
G1X8.911Y26.130
G1X8.552Y26.261
G1X8.211Y26.426
G1X7.889Y26.621
G1X7.590Y26.845
G1X7.313Y27.096
G1X7.062Y27.372
G1X6.838Y27.672
G1X6.643Y27.993
G1X6.479Y28.335
G1X6.347Y28.694
G1X6.251Y29.068
G1X6.192Y29.456
G1X6.174Y29.812
G1Y32.154
G1Y42.481
G1Y44.020
G1X6.195Y44.379
G1X6.255Y44.762
G1X6.352Y45.133
G1X6.484Y45.488
G1X6.648Y45.827
G1X6.842Y46.145
G1X7.065Y46.442
G1X7.314Y46.717
G1X7.588Y46.966
G1X7.885Y47.189
G1X8.204Y47.384
G1X8.542Y47.548
G1X8.898Y47.680
G1X9.269Y47.777
G1X9.653Y47.838
G1X10.012Y47.859
G1X11.823
G1X12.202Y47.878
G1X12.527Y47.929
G1X12.841Y48.010
G1X13.143Y48.122
G1X13.430Y48.261
G1X13.702Y48.428
G1X13.957Y48.620
G1X14.192Y48.836
G1X14.407Y49.073
G1X14.598Y49.330
G1X14.764Y49.605
G1X14.903Y49.895
G1X15.014Y50.200
G1X15.095Y50.517
G1X15.145Y50.845
G1X15.162Y51.185
G1X15.145Y51.525
G1X15.095Y51.854
G1X15.014Y52.171
G1X14.903Y52.476
G1X14.764Y52.766
G1X14.598Y53.041
G1X14.407Y53.298
G1X14.192Y53.536
G1X13.957Y53.751
G1X13.702Y53.944
G1X13.430Y54.110
G1X13.142Y54.250
G1X12.841Y54.362
G1X12.527Y54.443
G1X12.202Y54.493
G1X11.823Y54.513
G1X10.029
G1X9.673Y54.531
G1X9.286Y54.590
G1X8.911Y54.686
G1X8.552Y54.818
G1X8.211Y54.982
G1X7.889Y55.177
G1X7.590Y55.401
G1X7.313Y55.652
G1X7.062Y55.929
G1X6.838Y56.228
G1X6.643Y56.550
G1X6.479Y56.891
G1X6.347Y57.250
G1X6.251Y57.625
G1X6.192Y58.012
G1X6.174Y58.368
G1Y90.106
G1Y91.645
G1X6.195Y92.004
G1X6.255Y92.387
G1X6.352Y92.758
G1X6.484Y93.113
G1X6.648Y93.452
G1X6.842Y93.770
G1X7.065Y94.067
G1X7.314Y94.342
G1X7.588Y94.591
G1X7.885Y94.814
G1X8.204Y95.009
G1X8.542Y95.173
G1X8.898Y95.305
G1X9.269Y95.402
G1X9.653Y95.463
G1X10.012Y95.484
G1X11.823
G1X12.202Y95.503
G1X12.527Y95.554
G1X12.841Y95.635
G1X13.143Y95.747
G1X13.430Y95.886
G1X13.702Y96.053
G1X13.957Y96.245
G1X14.192Y96.461
G1X14.407Y96.698
G1X14.598Y96.955
G1X14.764Y97.230
G1X14.903Y97.520
G1X15.014Y97.825
G1X15.095Y98.142
G1X15.145Y98.470
G1X15.162Y98.810
G1X15.145Y99.150
G1X15.095Y99.479
G1X15.014Y99.796
G1X14.903Y100.101
G1X14.764Y100.391
G1X14.598Y100.666
G1X14.407Y100.923
G1X14.192Y101.161
G1X13.957Y101.376
G1X13.702Y101.569
G1X13.430Y101.735
G1X13.142Y101.875
G1X12.841Y101.987
G1X12.527Y102.068
G1X12.202Y102.118
G1X11.823Y102.138
G1X10.029
G1X9.673Y102.156
G1X9.286Y102.215
G1X8.911Y102.311
G1X8.552Y102.443
G1X8.211Y102.607
G1X7.889Y102.802
G1X7.590Y103.026
G1X7.313Y103.277
G1X7.062Y103.554
G1X6.838Y103.853
G1X6.643Y104.175
G1X6.479Y104.516
G1X6.347Y104.875
G1X6.251Y105.250
G1X6.192Y105.637
G1X6.174Y105.993
G1Y120.222
G1X6.192Y120.577
G1X6.250Y120.963
G1X6.346Y121.337
G1X6.477Y121.695
G1X6.641Y122.035
G1X6.835Y122.356
G1X7.058Y122.655
G1X7.308Y122.930
G1X7.582Y123.181
G1X7.880Y123.405
G1X8.200Y123.600
G1X8.539Y123.765
G1X8.895Y123.898
G1X9.268Y123.995
G1X9.652Y124.057
G1X10.012Y124.077
G1X11.824
G1X12.202Y124.097
G1X12.528Y124.147
G1X12.842Y124.229
G1X13.143Y124.340
G1X13.431Y124.480
G1X13.703Y124.647
G1X13.957Y124.839
G1X14.193Y125.054
G1X14.407Y125.292
G1X14.598Y125.549
G1X14.764Y125.823
G1X14.903Y126.114
G1X15.014Y126.418
G1X15.096Y126.735
G1X15.146Y127.064
G1X15.163Y127.404
G1X15.146Y127.744
G1X15.096Y128.073
G1X15.014Y128.390
G1X14.903Y128.694
G1X14.764Y128.985
G1X14.598Y129.260
G1X14.407Y129.517
G1X14.193Y129.754
G1X13.957Y129.970
G1X13.702Y130.162
G1X13.430Y130.329
G1X13.143Y130.469
G1X12.842Y130.580
G1X12.528Y130.662
G1X12.202Y130.712
G1X11.824Y130.731
G1X10.032
G1X9.794Y130.743
G1X9.587Y130.761
G1X9.463Y130.780
G1X9.197Y130.824
G1X8.964Y130.885
G1X8.856Y130.918
G1X8.610Y131.009
G1X8.503Y131.053
G1X8.394Y131.106
G1X8.194Y131.201
G1X8.152Y131.225
G1X7.958Y131.342
G1X7.765Y131.479
G1X7.586Y131.613
G1X7.345Y131.831
G1X7.279Y131.897
G1X7.137Y132.054
G1X7.011Y132.202
G1X6.909Y132.339
G1X6.793Y132.505
G1X6.661Y132.720
G1X6.611Y132.818
G1X6.502Y133.044
G1X6.459Y133.144
G1X6.374Y133.375
G1X6.337Y133.479
G1X6.268Y133.750
G1X6.228Y133.969
G1X6.204Y134.123
G1X6.186Y134.337
G1X6.174Y134.571
G1Y136.282
G1Y138.663
G1X6.198Y139.026
G1X6.261Y139.407
G1X6.360Y139.776
G1X6.494Y140.130
G1X6.659Y140.465
G1X6.855Y140.781
G1X7.078Y141.076
G1X7.328Y141.347
G1X7.602Y141.594
G1X7.898Y141.814
G1X8.216Y142.006
G1X8.553Y142.168
G1X8.906Y142.298
G1X9.275Y142.394
G1X9.578Y142.442
G1X9.732Y142.458
G1X10.069Y142.494
G1X150.004Y142.492
G1X150.360Y142.474
G1X150.747Y142.415
G1X151.122Y142.318
G1X151.481Y142.185
G1X151.822Y142.019
G1X152.142Y141.821
G1X152.440Y141.594
G1X152.713Y141.341
G1X152.960Y141.063
G1X153.180Y140.762
G1X153.370Y140.440
G1X153.530Y140.100
G1X153.656Y139.742
G1X153.749Y139.371
G1X153.805Y138.989
G1X153.823Y138.636
G1Y136.301
G1Y134.588
G1X153.805Y134.232
G1X153.745Y133.844
G1X153.649Y133.470
G1X153.518Y133.111
G1X153.353Y132.769
G1X153.158Y132.448
G1X152.934Y132.148
G1X152.683Y131.872
G1X152.407Y131.621
G1X152.107Y131.397
G1X151.786Y131.202
G1X151.444Y131.037
G1X151.085Y130.906
G1X150.711Y130.809
G1X150.323Y130.750
G1X149.967Y130.732
G1X148.173
G1X147.795Y130.713
G1X147.469Y130.663
G1X147.155Y130.581
G1X146.854Y130.470
G1X146.566Y130.330
G1X146.294Y130.163
G1X146.040Y129.971
G1X145.804Y129.755
G1X145.590Y129.518
G1X145.399Y129.261
G1X145.233Y128.986
G1X145.093Y128.695
G1X144.982Y128.391
G1X144.901Y128.074
G1X144.851Y127.745
G1X144.834Y127.405
G1X144.851Y127.065
G1X144.901Y126.736
G1X144.982Y126.419
G1X145.093Y126.115
G1X145.233Y125.825
G1X145.399Y125.550
G1X145.590Y125.293
G1X145.804Y125.055
G1X146.039Y124.840
G1X146.294Y124.648
G1X146.566Y124.481
G1X146.854Y124.341
G1X147.155Y124.230
G1X147.469Y124.148
G1X147.795Y124.098
G1X148.173Y124.079
G1X149.982
G1X150.341Y124.059
G1X150.727Y123.998
G1X151.100Y123.901
G1X151.457Y123.768
G1X151.797Y123.603
G1X152.117Y123.408
G1X152.415Y123.183
G1X152.690Y122.932
G1X152.940Y122.656
G1X153.162Y122.357
G1X153.357Y122.036
G1X153.520Y121.696
G1X153.651Y121.338
G1X153.746Y120.964
G1X153.805Y120.578
G1X153.823Y120.223
G1Y107.518
G1Y105.994
G1X153.805Y105.638
G1X153.746Y105.250
G1X153.650Y104.876
G1X153.518Y104.517
G1X153.354Y104.175
G1X153.159Y103.854
G1X152.934Y103.554
G1X152.683Y103.278
G1X152.407Y103.027
G1X152.108Y102.803
G1X151.786Y102.608
G1X151.445Y102.443
G1X151.086Y102.312
G1X150.711Y102.215
G1X150.324Y102.156
G1X149.968Y102.138
G1X148.174
G1X147.795Y102.119
G1X147.470Y102.069
G1X147.156Y101.987
G1X146.854Y101.876
G1X146.567Y101.736
G1X146.295Y101.569
G1X146.040Y101.377
G1X145.805Y101.161
G1X145.590Y100.924
G1X145.399Y100.666
G1X145.233Y100.392
G1X145.094Y100.101
G1X144.983Y99.797
G1X144.902Y99.480
G1X144.852Y99.151
G1X144.835Y98.811
G1X144.852Y98.471
G1X144.902Y98.142
G1X144.983Y97.825
G1X145.094Y97.521
G1X145.233Y97.230
G1X145.399Y96.956
G1X145.590Y96.699
G1X145.804Y96.461
G1X146.040Y96.246
G1X146.295Y96.053
G1X146.567Y95.887
G1X146.854Y95.747
G1X147.155Y95.636
G1X147.469Y95.554
G1X147.795Y95.504
G1X148.174Y95.484
G1X149.983
G1X150.340Y95.465
G1X150.725Y95.404
G1X151.097Y95.307
G1X151.454Y95.176
G1X151.793Y95.011
G1X152.112Y94.816
G1X152.410Y94.593
G1X152.684Y94.343
G1X152.933Y94.068
G1X153.155Y93.771
G1X153.349Y93.452
G1X153.513Y93.114
G1X153.645Y92.758
G1X153.742Y92.387
G1X153.802Y92.004
G1X153.823Y91.645
G1Y90.107
G1Y59.893
G1Y58.369
G1X153.805Y58.013
G1X153.746Y57.625
G1X153.650Y57.251
G1X153.518Y56.892
G1X153.354Y56.550
G1X153.159Y56.229
G1X152.934Y55.929
G1X152.683Y55.653
G1X152.407Y55.402
G1X152.108Y55.178
G1X151.786Y54.983
G1X151.445Y54.818
G1X151.086Y54.687
G1X150.711Y54.590
G1X150.324Y54.531
G1X149.968Y54.513
G1X148.174
G1X147.795Y54.494
G1X147.470Y54.444
G1X147.156Y54.362
G1X146.854Y54.251
G1X146.567Y54.111
G1X146.295Y53.944
G1X146.040Y53.752
G1X145.805Y53.536
G1X145.590Y53.299
G1X145.399Y53.041
G1X145.233Y52.767
G1X145.094Y52.476
G1X144.983Y52.172
G1X144.902Y51.855
G1X144.852Y51.526
G1X144.835Y51.186
G1X144.852Y50.846
G1X144.902Y50.517
G1X144.983Y50.200
G1X145.094Y49.896
G1X145.233Y49.605
G1X145.399Y49.331
G1X145.590Y49.074
G1X145.804Y48.836
G1X146.040Y48.621
G1X146.295Y48.428
G1X146.567Y48.262
G1X146.854Y48.122
G1X147.155Y48.011
G1X147.469Y47.929
G1X147.795Y47.879
G1X148.174Y47.859
G1X149.983
G1X150.340Y47.840
G1X150.725Y47.779
G1X151.097Y47.682
G1X151.454Y47.551
G1X151.793Y47.386
G1X152.112Y47.191
G1X152.410Y46.968
G1X152.684Y46.718
G1X152.933Y46.443
G1X153.155Y46.146
G1X153.349Y45.827
G1X153.513Y45.489
G1X153.645Y45.133
G1X153.742Y44.762
G1X153.802Y44.379
G1X153.823Y44.020
G1Y42.482
G1Y32.155
G1Y29.813
G1X153.805Y29.457
G1X153.746Y29.069
G1X153.650Y28.695
G1X153.518Y28.336
G1X153.354Y27.994
G1X153.159Y27.673
G1X152.934Y27.373
G1X152.683Y27.097
G1X152.407Y26.846
G1X152.108Y26.622
G1X151.786Y26.427
G1X151.445Y26.262
G1X151.086Y26.131
G1X150.711Y26.035
G1X150.324Y25.975
G1X149.968Y25.957
G1X148.174
G1X147.795Y25.938
G1X147.470Y25.888
G1X147.156Y25.806
G1X146.854Y25.695
G1X146.567Y25.555
G1X146.295Y25.388
G1X146.040Y25.196
G1X145.805Y24.980
G1X145.590Y24.743
G1X145.399Y24.486
G1X145.233Y24.211
G1X145.094Y23.920
G1X144.983Y23.616
G1X144.902Y23.299
G1X144.852Y22.970
G1X144.835Y22.630
G1X144.852Y22.290
G1X144.902Y21.961
G1X144.983Y21.644
G1X145.094Y21.340
G1X145.233Y21.049
G1X145.399Y20.775
G1X145.590Y20.518
G1X145.804Y20.280
G1X146.040Y20.065
G1X146.295Y19.873
G1X146.567Y19.706
G1X146.854Y19.566
G1X147.155Y19.455
G1X147.469Y19.373
G1X147.795Y19.323
G1X148.174Y19.304
G1X149.983
G1X150.341Y19.284
G1X150.727Y19.223
G1X151.100Y19.126
G1X151.458Y18.993
G1X151.798Y18.828
G1X152.117Y18.633
G1X152.416Y18.408
G1X152.690Y18.157
G1X152.940Y17.881
G1X153.163Y17.582
G1X153.357Y17.261
G1X153.521Y16.921
G1X153.651Y16.563
G1X153.747Y16.189
G1X153.806Y15.803
G1X153.824Y15.448
G1Y11.399
G1X153.806Y11.046
G1X153.750Y10.664
G1X153.657Y10.293
G1X153.531Y9.936
G1X153.371Y9.595
G1X153.181Y9.273
G1X152.961Y8.972
G1X152.714Y8.694
G1X152.441Y8.441
G1X152.143Y8.214
G1X151.823Y8.016
G1X151.482Y7.850
G1X151.123Y7.717
G1X150.748Y7.620
G1X150.361Y7.561
G1X150.005Y7.542
G1X10.029
G1X9.673Y7.560
G1X9.286Y7.620
G1X8.911Y7.716
G1X8.552Y7.847
G1X8.211Y8.012
G1X7.889Y8.207
G1X7.590Y8.431
G1Z-1.500F304.8
G1X7.313Y8.682F1016.0
G1X7.062Y8.958
G1X6.838Y9.258
G1X6.643Y9.579
G1X6.479Y9.921
G1X6.347Y10.280
G1X6.251Y10.655
G1X6.192Y11.042
G1X6.174Y11.398
G1Y15.461
G1X6.193Y15.818
G1X6.253Y16.202
G1X6.350Y16.574
G1X6.482Y16.931
G1X6.646Y17.270
G1X6.840Y17.589
G1X7.063Y17.887
G1X7.313Y18.161
G1X7.587Y18.410
G1X7.885Y18.633
G1X8.204Y18.828
G1X8.542Y18.992
G1X8.898Y19.124
G1X9.269Y19.221
G1X9.653Y19.282
G1X10.012Y19.302
G1X11.823
G1X12.201Y19.322
G1X12.527Y19.372
G1X12.841Y19.454
G1X13.143Y19.565
G1X13.430Y19.705
G1X13.702Y19.872
G1X13.957Y20.064
G1X14.192Y20.279
G1X14.407Y20.517
G1X14.598Y20.774
G1X14.764Y21.049
G1X14.903Y21.339
G1X15.014Y21.643
G1X15.095Y21.960
G1X15.145Y22.289
G1X15.162Y22.629
G1X15.145Y22.969
G1X15.095Y23.298
G1X15.014Y23.615
G1X14.903Y23.919
G1X14.764Y24.210
G1X14.598Y24.485
G1X14.407Y24.742
G1X14.192Y24.979
G1X13.957Y25.195
G1X13.702Y25.387
G1X13.430Y25.554
G1X13.142Y25.694
G1X12.841Y25.805
G1X12.527Y25.887
G1X12.202Y25.937
G1X11.823Y25.956
G1X10.029
G1X9.673Y25.974
G1X9.286Y26.034
G1X8.911Y26.130
G1X8.552Y26.261
G1X8.211Y26.426
G1X7.889Y26.621
G1X7.590Y26.845
G1X7.313Y27.096
G1X7.062Y27.372
G1X6.838Y27.672
G1X6.643Y27.993
G1X6.479Y28.335
G1X6.347Y28.694
G1X6.251Y29.068
G1X6.192Y29.456
G1X6.174Y29.812
G1Y32.154
G1Y42.481
G1Y44.020
G1X6.195Y44.379
G1X6.255Y44.762
G1X6.352Y45.133
G1X6.484Y45.488
G1X6.648Y45.827
G1X6.842Y46.145
G1X7.065Y46.442
G1X7.314Y46.717
G1X7.588Y46.966
G1X7.885Y47.189
G1X8.204Y47.384
G1X8.542Y47.548
G1X8.898Y47.680
G1X9.269Y47.777
G1X9.653Y47.838
G1X10.012Y47.859
G1X11.823
G1X12.202Y47.878
G1X12.527Y47.929
G1X12.841Y48.010
G1X13.143Y48.122
G1X13.430Y48.261
G1X13.702Y48.428
G1X13.957Y48.620
G1X14.192Y48.836
G1X14.407Y49.073
G1X14.598Y49.330
G1X14.764Y49.605
G1X14.903Y49.895
G1X15.014Y50.200
G1X15.095Y50.517
G1X15.145Y50.845
G1X15.162Y51.185
G1X15.145Y51.525
G1X15.095Y51.854
G1X15.014Y52.171
G1X14.903Y52.476
G1X14.764Y52.766
G1X14.598Y53.041
G1X14.407Y53.298
G1X14.192Y53.536
G1X13.957Y53.751
G1X13.702Y53.944
G1X13.430Y54.110
G1X13.142Y54.250
G1X12.841Y54.362
G1X12.527Y54.443
G1X12.202Y54.493
G1X11.823Y54.513
G1X10.029
G1X9.673Y54.531
G1X9.286Y54.590
G1X8.911Y54.686
G1X8.552Y54.818
G1X8.211Y54.982
G1X7.889Y55.177
G1X7.590Y55.401
G1X7.313Y55.652
G1X7.062Y55.929
G1X6.838Y56.228
G1X6.643Y56.550
G1X6.479Y56.891
G1X6.347Y57.250
G1X6.251Y57.625
G1X6.192Y58.012
G1X6.174Y58.368
G1Y90.106
G1Y91.645
G1X6.195Y92.004
G1X6.255Y92.387
G1X6.352Y92.758
G1X6.484Y93.113
G1X6.648Y93.452
G1X6.842Y93.770
G1X7.065Y94.067
G1X7.314Y94.342
G1X7.588Y94.591
G1X7.885Y94.814
G1X8.204Y95.009
G1X8.542Y95.173
G1X8.898Y95.305
G1X9.269Y95.402
G1X9.653Y95.463
G1X10.012Y95.484
G1X11.823
G1X12.202Y95.503
G1X12.527Y95.554
G1X12.841Y95.635
G1X13.143Y95.747
G1X13.430Y95.886
G1X13.702Y96.053
G1X13.957Y96.245
G1X14.192Y96.461
G1X14.407Y96.698
G1X14.598Y96.955
G1X14.764Y97.230
G1X14.903Y97.520
G1X15.014Y97.825
G1X15.095Y98.142
G1X15.145Y98.470
G1X15.162Y98.810
G1X15.145Y99.150
G1X15.095Y99.479
G1X15.014Y99.796
G1X14.903Y100.101
G1X14.764Y100.391
G1X14.598Y100.666
G1X14.407Y100.923
G1X14.192Y101.161
G1X13.957Y101.376
G1X13.702Y101.569
G1X13.430Y101.735
G1X13.142Y101.875
G1X12.841Y101.987
G1X12.527Y102.068
G1X12.202Y102.118
G1X11.823Y102.138
G1X10.029
G1X9.673Y102.156
G1X9.286Y102.215
G1X8.911Y102.311
G1X8.552Y102.443
G1X8.211Y102.607
G1X7.889Y102.802
G1X7.590Y103.026
G1X7.313Y103.277
G1X7.062Y103.554
G1X6.838Y103.853
G1X6.643Y104.175
G1X6.479Y104.516
G1X6.347Y104.875
G1X6.251Y105.250
G1X6.192Y105.637
G1X6.174Y105.993
G1Y120.222
G1X6.192Y120.577
G1X6.250Y120.963
G1X6.346Y121.337
G1X6.477Y121.695
G1X6.641Y122.035
G1X6.835Y122.356
G1X7.058Y122.655
G1X7.308Y122.930
G1X7.582Y123.181
G1X7.880Y123.405
G1X8.200Y123.600
G1X8.539Y123.765
G1X8.895Y123.898
G1X9.268Y123.995
G1X9.652Y124.057
G1X10.012Y124.077
G1X11.824
G1X12.202Y124.097
G1X12.528Y124.147
G1X12.842Y124.229
G1X13.143Y124.340
G1X13.431Y124.480
G1X13.703Y124.647
G1X13.957Y124.839
G1X14.193Y125.054
G1X14.407Y125.292
G1X14.598Y125.549
G1X14.764Y125.823
G1X14.903Y126.114
G1X15.014Y126.418
G1X15.096Y126.735
G1X15.146Y127.064
G1X15.163Y127.404
G1X15.146Y127.744
G1X15.096Y128.073
G1X15.014Y128.390
G1X14.903Y128.694
G1X14.764Y128.985
G1X14.598Y129.260
G1X14.407Y129.517
G1X14.193Y129.754
G1X13.957Y129.970
G1X13.702Y130.162
G1X13.430Y130.329
G1X13.143Y130.469
G1X12.842Y130.580
G1X12.528Y130.662
G1X12.202Y130.712
G1X11.824Y130.731
G1X10.032
G1X9.794Y130.743
G1X9.587Y130.761
G1X9.463Y130.780
G1X9.197Y130.824
G1X8.964Y130.885
G1X8.856Y130.918
G1X8.610Y131.009
G1X8.503Y131.053
G1X8.394Y131.106
G1X8.194Y131.201
G1X8.152Y131.225
G1X7.958Y131.342
G1X7.765Y131.479
G1X7.586Y131.613
G1X7.345Y131.831
G1X7.279Y131.897
G1X7.137Y132.054
G1X7.011Y132.202
G1X6.909Y132.339
G1X6.793Y132.505
G1X6.661Y132.720
G1X6.611Y132.818
G1X6.502Y133.044
G1X6.459Y133.144
G1X6.374Y133.375
G1X6.337Y133.479
G1X6.268Y133.750
G1X6.228Y133.969
G1X6.204Y134.123
G1X6.186Y134.337
G1X6.174Y134.571
G1Y136.282
G1Y138.663
G1X6.198Y139.026
G1X6.261Y139.407
G1X6.360Y139.776
G1X6.494Y140.130
G1X6.659Y140.465
G1X6.855Y140.781
G1X7.078Y141.076
G1X7.328Y141.347
G1X7.602Y141.594
G1X7.898Y141.814
G1X8.216Y142.006
G1X8.553Y142.168
G1X8.906Y142.298
G1X9.275Y142.394
G1X9.578Y142.442
G1X9.732Y142.458
G1X10.069Y142.494
G1X150.004Y142.492
G1X150.360Y142.474
G1X150.747Y142.415
G1X151.122Y142.318
G1X151.481Y142.185
G1X151.822Y142.019
G1X152.142Y141.821
G1X152.440Y141.594
G1X152.713Y141.341
G1X152.960Y141.063
G1X153.180Y140.762
G1X153.370Y140.440
G1X153.530Y140.100
G1X153.656Y139.742
G1X153.749Y139.371
G1X153.805Y138.989
G1X153.823Y138.636
G1Y136.301
G1Y134.588
G1X153.805Y134.232
G1X153.745Y133.844
G1X153.649Y133.470
G1X153.518Y133.111
G1X153.353Y132.769
G1X153.158Y132.448
G1X152.934Y132.148
G1X152.683Y131.872
G1X152.407Y131.621
G1X152.107Y131.397
G1X151.786Y131.202
G1X151.444Y131.037
G1X151.085Y130.906
G1X150.711Y130.809
G1X150.323Y130.750
G1X149.967Y130.732
G1X148.173
G1X147.795Y130.713
G1X147.469Y130.663
G1X147.155Y130.581
G1X146.854Y130.470
G1X146.566Y130.330
G1X146.294Y130.163
G1X146.040Y129.971
G1X145.804Y129.755
G1X145.590Y129.518
G1X145.399Y129.261
G1X145.233Y128.986
G1X145.093Y128.695
G1X144.982Y128.391
G1X144.901Y128.074
G1X144.851Y127.745
G1X144.834Y127.405
G1X144.851Y127.065
G1X144.901Y126.736
G1X144.982Y126.419
G1X145.093Y126.115
G1X145.233Y125.825
G1X145.399Y125.550
G1X145.590Y125.293
G1X145.804Y125.055
G1X146.039Y124.840
G1X146.294Y124.648
G1X146.566Y124.481
G1X146.854Y124.341
G1X147.155Y124.230
G1X147.469Y124.148
G1X147.795Y124.098
G1X148.173Y124.079
G1X149.982
G1X150.341Y124.059
G1X150.727Y123.998
G1X151.100Y123.901
G1X151.457Y123.768
G1X151.797Y123.603
G1X152.117Y123.408
G1X152.415Y123.183
G1X152.690Y122.932
G1X152.940Y122.656
G1X153.162Y122.357
G1X153.357Y122.036
G1X153.520Y121.696
G1X153.651Y121.338
G1X153.746Y120.964
G1X153.805Y120.578
G1X153.823Y120.223
G1Y107.518
G1Y105.994
G1X153.805Y105.638
G1X153.746Y105.250
G1X153.650Y104.876
G1X153.518Y104.517
G1X153.354Y104.175
G1X153.159Y103.854
G1X152.934Y103.554
G1X152.683Y103.278
G1X152.407Y103.027
G1X152.108Y102.803
G1X151.786Y102.608
G1X151.445Y102.443
G1X151.086Y102.312
G1X150.711Y102.215
G1X150.324Y102.156
G1X149.968Y102.138
G1X148.174
G1X147.795Y102.119
G1X147.470Y102.069
G1X147.156Y101.987
G1X146.854Y101.876
G1X146.567Y101.736
G1X146.295Y101.569
G1X146.040Y101.377
G1X145.805Y101.161
G1X145.590Y100.924
G1X145.399Y100.666
G1X145.233Y100.392
G1X145.094Y100.101
G1X144.983Y99.797
G1X144.902Y99.480
G1X144.852Y99.151
G1X144.835Y98.811
G1X144.852Y98.471
G1X144.902Y98.142
G1X144.983Y97.825
G1X145.094Y97.521
G1X145.233Y97.230
G1X145.399Y96.956
G1X145.590Y96.699
G1X145.804Y96.461
G1X146.040Y96.246
G1X146.295Y96.053
G1X146.567Y95.887
G1X146.854Y95.747
G1X147.155Y95.636
G1X147.469Y95.554
G1X147.795Y95.504
G1X148.174Y95.484
G1X149.983
G1X150.340Y95.465
G1X150.725Y95.404
G1X151.097Y95.307
G1X151.454Y95.176
G1X151.793Y95.011
G1X152.112Y94.816
G1X152.410Y94.593
G1X152.684Y94.343
G1X152.933Y94.068
G1X153.155Y93.771
G1X153.349Y93.452
G1X153.513Y93.114
G1X153.645Y92.758
G1X153.742Y92.387
G1X153.802Y92.004
G1X153.823Y91.645
G1Y90.107
G1Y59.893
G1Y58.369
G1X153.805Y58.013
G1X153.746Y57.625
G1X153.650Y57.251
G1X153.518Y56.892
G1X153.354Y56.550
G1X153.159Y56.229
G1X152.934Y55.929
G1X152.683Y55.653
G1X152.407Y55.402
G1X152.108Y55.178
G1X151.786Y54.983
G1X151.445Y54.818
G1X151.086Y54.687
G1X150.711Y54.590
G1X150.324Y54.531
G1X149.968Y54.513
G1X148.174
G1X147.795Y54.494
G1X147.470Y54.444
G1X147.156Y54.362
G1X146.854Y54.251
G1X146.567Y54.111
G1X146.295Y53.944
G1X146.040Y53.752
G1X145.805Y53.536
G1X145.590Y53.299
G1X145.399Y53.041
G1X145.233Y52.767
G1X145.094Y52.476
G1X144.983Y52.172
G1X144.902Y51.855
G1X144.852Y51.526
G1X144.835Y51.186
G1X144.852Y50.846
G1X144.902Y50.517
G1X144.983Y50.200
G1X145.094Y49.896
G1X145.233Y49.605
G1X145.399Y49.331
G1X145.590Y49.074
G1X145.804Y48.836
G1X146.040Y48.621
G1X146.295Y48.428
G1X146.567Y48.262
G1X146.854Y48.122
G1X147.155Y48.011
G1X147.469Y47.929
G1X147.795Y47.879
G1X148.174Y47.859
G1X149.983
G1X150.340Y47.840
G1X150.725Y47.779
G1X151.097Y47.682
G1X151.454Y47.551
G1X151.793Y47.386
G1X152.112Y47.191
G1X152.410Y46.968
G1X152.684Y46.718
G1X152.933Y46.443
G1X153.155Y46.146
G1X153.349Y45.827
G1X153.513Y45.489
G1X153.645Y45.133
G1X153.742Y44.762
G1X153.802Y44.379
G1X153.823Y44.020
G1Y42.482
G1Y32.155
G1Y29.813
G1X153.805Y29.457
G1X153.746Y29.069
G1X153.650Y28.695
G1X153.518Y28.336
G1X153.354Y27.994
G1X153.159Y27.673
G1X152.934Y27.373
G1X152.683Y27.097
G1X152.407Y26.846
G1X152.108Y26.622
G1X151.786Y26.427
G1X151.445Y26.262
G1X151.086Y26.131
G1X150.711Y26.035
G1X150.324Y25.975
G1X149.968Y25.957
G1X148.174
G1X147.795Y25.938
G1X147.470Y25.888
G1X147.156Y25.806
G1X146.854Y25.695
G1X146.567Y25.555
G1X146.295Y25.388
G1X146.040Y25.196
G1X145.805Y24.980
G1X145.590Y24.743
G1X145.399Y24.486
G1X145.233Y24.211
G1X145.094Y23.920
G1X144.983Y23.616
G1X144.902Y23.299
G1X144.852Y22.970
G1X144.835Y22.630
G1X144.852Y22.290
G1X144.902Y21.961
G1X144.983Y21.644
G1X145.094Y21.340
G1X145.233Y21.049
G1X145.399Y20.775
G1X145.590Y20.518
G1X145.804Y20.280
G1X146.040Y20.065
G1X146.295Y19.873
G1X146.567Y19.706
G1X146.854Y19.566
G1X147.155Y19.455
G1X147.469Y19.373
G1X147.795Y19.323
G1X148.174Y19.304
G1X149.983
G1X150.341Y19.284
G1X150.727Y19.223
G1X151.100Y19.126
G1X151.458Y18.993
G1X151.798Y18.828
G1X152.117Y18.633
G1X152.416Y18.408
G1X152.690Y18.157
G1X152.940Y17.881
G1X153.163Y17.582
G1X153.357Y17.261
G1X153.521Y16.921
G1X153.651Y16.563
G1X153.747Y16.189
G1X153.806Y15.803
G1X153.824Y15.448
G1Y11.399
G1X153.806Y11.046
G1X153.750Y10.664
G1X153.657Y10.293
G1X153.531Y9.936
G1X153.371Y9.595
G1X153.181Y9.273
G1X152.961Y8.972
G1X152.714Y8.694
G1X152.441Y8.441
G1X152.143Y8.214
G1X151.823Y8.016
G1X151.482Y7.850
G1X151.123Y7.717
G1X150.748Y7.620
G1X150.361Y7.561
G1X150.005Y7.542
G1X10.029
G1X9.673Y7.560
G1X9.286Y7.620
G1X8.911Y7.716
G1X8.552Y7.847
G1X8.211Y8.012
G1X7.889Y8.207
G1X7.590Y8.431
G1Z-2.250F304.8
G1X7.313Y8.682F1016.0
G1X7.062Y8.958
G1X6.838Y9.258
G1X6.643Y9.579
G1X6.479Y9.921
G1X6.347Y10.280
G1X6.251Y10.655
G1X6.192Y11.042
G1X6.174Y11.398
G1Y15.461
G1X6.193Y15.818
G1X6.253Y16.202
G1X6.350Y16.574
G1X6.482Y16.931
G1X6.646Y17.270
G1X6.840Y17.589
G1X7.063Y17.887
G1X7.313Y18.161
G1X7.587Y18.410
G1X7.885Y18.633
G1X8.204Y18.828
G1X8.542Y18.992
G1X8.898Y19.124
G1X9.269Y19.221
G1X9.653Y19.282
G1X10.012Y19.302
G1X11.823
G1X12.201Y19.322
G1X12.527Y19.372
G1X12.841Y19.454
G1X13.143Y19.565
G1X13.430Y19.705
G1X13.702Y19.872
G1X13.957Y20.064
G1X14.192Y20.279
G1X14.407Y20.517
G1X14.598Y20.774
G1X14.764Y21.049
G1X14.903Y21.339
G1X15.014Y21.643
G1X15.095Y21.960
G1X15.145Y22.289
G1X15.162Y22.629
G1X15.145Y22.969
G1X15.095Y23.298
G1X15.014Y23.615
G1X14.903Y23.919
G1X14.764Y24.210
G1X14.598Y24.485
G1X14.407Y24.742
G1X14.192Y24.979
G1X13.957Y25.195
G1X13.702Y25.387
G1X13.430Y25.554
G1X13.142Y25.694
G1X12.841Y25.805
G1X12.527Y25.887
G1X12.202Y25.937
G1X11.823Y25.956
G1X10.029
G1X9.673Y25.974
G1X9.286Y26.034
G1X8.911Y26.130
G1X8.552Y26.261
G1X8.211Y26.426
G1X7.889Y26.621
G1X7.590Y26.845
G1X7.313Y27.096
G1X7.062Y27.372
G1X6.838Y27.672
G1X6.643Y27.993
G1X6.479Y28.335
G1X6.347Y28.694
G1X6.251Y29.068
G1X6.192Y29.456
G1X6.174Y29.812
G1Y32.154
G1Y42.481
G1Y44.020
G1X6.195Y44.379
G1X6.255Y44.762
G1X6.352Y45.133
G1X6.484Y45.488
G1X6.648Y45.827
G1X6.842Y46.145
G1X7.065Y46.442
G1X7.314Y46.717
G1X7.588Y46.966
G1X7.885Y47.189
G1X8.204Y47.384
G1X8.542Y47.548
G1X8.898Y47.680
G1X9.269Y47.777
G1X9.653Y47.838
G1X10.012Y47.859
G1X11.823
G1X12.202Y47.878
G1X12.527Y47.929
G1X12.841Y48.010
G1X13.143Y48.122
G1X13.430Y48.261
G1X13.702Y48.428
G1X13.957Y48.620
G1X14.192Y48.836
G1X14.407Y49.073
G1X14.598Y49.330
G1X14.764Y49.605
G1X14.903Y49.895
G1X15.014Y50.200
G1X15.095Y50.517
G1X15.145Y50.845
G1X15.162Y51.185
G1X15.145Y51.525
G1X15.095Y51.854
G1X15.014Y52.171
G1X14.903Y52.476
G1X14.764Y52.766
G1X14.598Y53.041
G1X14.407Y53.298
G1X14.192Y53.536
G1X13.957Y53.751
G1X13.702Y53.944
G1X13.430Y54.110
G1X13.142Y54.250
G1X12.841Y54.362
G1X12.527Y54.443
G1X12.202Y54.493
G1X11.823Y54.513
G1X10.029
G1X9.673Y54.531
G1X9.286Y54.590
G1X8.911Y54.686
G1X8.552Y54.818
G1X8.211Y54.982
G1X7.889Y55.177
G1X7.590Y55.401
G1X7.313Y55.652
G1X7.062Y55.929
G1X6.838Y56.228
G1X6.643Y56.550
G1X6.479Y56.891
G1X6.347Y57.250
G1X6.251Y57.625
G1X6.192Y58.012
G1X6.174Y58.368
G1Y90.106
G1Y91.645
G1X6.195Y92.004
G1X6.255Y92.387
G1X6.352Y92.758
G1X6.484Y93.113
G1X6.648Y93.452
G1X6.842Y93.770
G1X7.065Y94.067
G1X7.314Y94.342
G1X7.588Y94.591
G1X7.885Y94.814
G1X8.204Y95.009
G1X8.542Y95.173
G1X8.898Y95.305
G1X9.269Y95.402
G1X9.653Y95.463
G1X10.012Y95.484
G1X11.823
G1X12.202Y95.503
G1X12.527Y95.554
G1X12.841Y95.635
G1X13.143Y95.747
G1X13.430Y95.886
G1X13.702Y96.053
G1X13.957Y96.245
G1X14.192Y96.461
G1X14.407Y96.698
G1X14.598Y96.955
G1X14.764Y97.230
G1X14.903Y97.520
G1X15.014Y97.825
G1X15.095Y98.142
G1X15.145Y98.470
G1X15.162Y98.810
G1X15.145Y99.150
G1X15.095Y99.479
G1X15.014Y99.796
G1X14.903Y100.101
G1X14.764Y100.391
G1X14.598Y100.666
G1X14.407Y100.923
G1X14.192Y101.161
G1X13.957Y101.376
G1X13.702Y101.569
G1X13.430Y101.735
G1X13.142Y101.875
G1X12.841Y101.987
G1X12.527Y102.068
G1X12.202Y102.118
G1X11.823Y102.138
G1X10.029
G1X9.673Y102.156
G1X9.286Y102.215
G1X8.911Y102.311
G1X8.552Y102.443
G1X8.211Y102.607
G1X7.889Y102.802
G1X7.590Y103.026
G1X7.313Y103.277
G1X7.062Y103.554
G1X6.838Y103.853
G1X6.643Y104.175
G1X6.479Y104.516
G1X6.347Y104.875
G1X6.251Y105.250
G1X6.192Y105.637
G1X6.174Y105.993
G1Y120.222
G1X6.192Y120.577
G1X6.250Y120.963
G1X6.346Y121.337
G1X6.477Y121.695
G1X6.641Y122.035
G1X6.835Y122.356
G1X7.058Y122.655
G1X7.308Y122.930
G1X7.582Y123.181
G1X7.880Y123.405
G1X8.200Y123.600
G1X8.539Y123.765
G1X8.895Y123.898
G1X9.268Y123.995
G1X9.652Y124.057
G1X10.012Y124.077
G1X11.824
G1X12.202Y124.097
G1X12.528Y124.147
G1X12.842Y124.229
G1X13.143Y124.340
G1X13.431Y124.480
G1X13.703Y124.647
G1X13.957Y124.839
G1X14.193Y125.054
G1X14.407Y125.292
G1X14.598Y125.549
G1X14.764Y125.823
G1X14.903Y126.114
G1X15.014Y126.418
G1X15.096Y126.735
G1X15.146Y127.064
G1X15.163Y127.404
G1X15.146Y127.744
G1X15.096Y128.073
G1X15.014Y128.390
G1X14.903Y128.694
G1X14.764Y128.985
G1X14.598Y129.260
G1X14.407Y129.517
G1X14.193Y129.754
G1X13.957Y129.970
G1X13.702Y130.162
G1X13.430Y130.329
G1X13.143Y130.469
G1X12.842Y130.580
G1X12.528Y130.662
G1X12.202Y130.712
G1X11.824Y130.731
G1X10.032
G1X9.794Y130.743
G1X9.587Y130.761
G1X9.463Y130.780
G1X9.197Y130.824
G1X8.964Y130.885
G1X8.856Y130.918
G1X8.610Y131.009
G1X8.503Y131.053
G1X8.394Y131.106
G1X8.194Y131.201
G1X8.152Y131.225
G1X7.958Y131.342
G1X7.765Y131.479
G1X7.586Y131.613
G1X7.345Y131.831
G1X7.279Y131.897
G1X7.137Y132.054
G1X7.011Y132.202
G1X6.909Y132.339
G1X6.793Y132.505
G1X6.661Y132.720
G1X6.611Y132.818
G1X6.502Y133.044
G1X6.459Y133.144
G1X6.374Y133.375
G1X6.337Y133.479
G1X6.268Y133.750
G1X6.228Y133.969
G1X6.204Y134.123
G1X6.186Y134.337
G1X6.174Y134.571
G1Y136.282
G1Y138.663
G1X6.198Y139.026
G1X6.261Y139.407
G1X6.360Y139.776
G1X6.494Y140.130
G1X6.659Y140.465
G1X6.855Y140.781
G1X7.078Y141.076
G1X7.328Y141.347
G1X7.602Y141.594
G1X7.898Y141.814
G1X8.216Y142.006
G1X8.553Y142.168
G1X8.906Y142.298
G1X9.275Y142.394
G1X9.578Y142.442
G1X9.732Y142.458
G1X10.069Y142.494
G1X150.004Y142.492
G1X150.360Y142.474
G1X150.747Y142.415
G1X151.122Y142.318
G1X151.481Y142.185
G1X151.822Y142.019
G1X152.142Y141.821
G1X152.440Y141.594
G1X152.713Y141.341
G1X152.960Y141.063
G1X153.180Y140.762
G1X153.370Y140.440
G1X153.530Y140.100
G1X153.656Y139.742
G1X153.749Y139.371
G1X153.805Y138.989
G1X153.823Y138.636
G1Y136.301
G1Y134.588
G1X153.805Y134.232
G1X153.745Y133.844
G1X153.649Y133.470
G1X153.518Y133.111
G1X153.353Y132.769
G1X153.158Y132.448
G1X152.934Y132.148
G1X152.683Y131.872
G1X152.407Y131.621
G1X152.107Y131.397
G1X151.786Y131.202
G1X151.444Y131.037
G1X151.085Y130.906
G1X150.711Y130.809
G1X150.323Y130.750
G1X149.967Y130.732
G1X148.173
G1X147.795Y130.713
G1X147.469Y130.663
G1X147.155Y130.581
G1X146.854Y130.470
G1X146.566Y130.330
G1X146.294Y130.163
G1X146.040Y129.971
G1X145.804Y129.755
G1X145.590Y129.518
G1X145.399Y129.261
G1X145.233Y128.986
G1X145.093Y128.695
G1X144.982Y128.391
G1X144.901Y128.074
G1X144.851Y127.745
G1X144.834Y127.405
G1X144.851Y127.065
G1X144.901Y126.736
G1X144.982Y126.419
G1X145.093Y126.115
G1X145.233Y125.825
G1X145.399Y125.550
G1X145.590Y125.293
G1X145.804Y125.055
G1X146.039Y124.840
G1X146.294Y124.648
G1X146.566Y124.481
G1X146.854Y124.341
G1X147.155Y124.230
G1X147.469Y124.148
G1X147.795Y124.098
G1X148.173Y124.079
G1X149.982
G1X150.341Y124.059
G1X150.727Y123.998
G1X151.100Y123.901
G1X151.457Y123.768
G1X151.797Y123.603
G1X152.117Y123.408
G1X152.415Y123.183
G1X152.690Y122.932
G1X152.940Y122.656
G1X153.162Y122.357
G1X153.357Y122.036
G1X153.520Y121.696
G1X153.651Y121.338
G1X153.746Y120.964
G1X153.805Y120.578
G1X153.823Y120.223
G1Y107.518
G1Y105.994
G1X153.805Y105.638
G1X153.746Y105.250
G1X153.650Y104.876
G1X153.518Y104.517
G1X153.354Y104.175
G1X153.159Y103.854
G1X152.934Y103.554
G1X152.683Y103.278
G1X152.407Y103.027
G1X152.108Y102.803
G1X151.786Y102.608
G1X151.445Y102.443
G1X151.086Y102.312
G1X150.711Y102.215
G1X150.324Y102.156
G1X149.968Y102.138
G1X148.174
G1X147.795Y102.119
G1X147.470Y102.069
G1X147.156Y101.987
G1X146.854Y101.876
G1X146.567Y101.736
G1X146.295Y101.569
G1X146.040Y101.377
G1X145.805Y101.161
G1X145.590Y100.924
G1X145.399Y100.666
G1X145.233Y100.392
G1X145.094Y100.101
G1X144.983Y99.797
G1X144.902Y99.480
G1X144.852Y99.151
G1X144.835Y98.811
G1X144.852Y98.471
G1X144.902Y98.142
G1X144.983Y97.825
G1X145.094Y97.521
G1X145.233Y97.230
G1X145.399Y96.956
G1X145.590Y96.699
G1X145.804Y96.461
G1X146.040Y96.246
G1X146.295Y96.053
G1X146.567Y95.887
G1X146.854Y95.747
G1X147.155Y95.636
G1X147.469Y95.554
G1X147.795Y95.504
G1X148.174Y95.484
G1X149.983
G1X150.340Y95.465
G1X150.725Y95.404
G1X151.097Y95.307
G1X151.454Y95.176
G1X151.793Y95.011
G1X152.112Y94.816
G1X152.410Y94.593
G1X152.684Y94.343
G1X152.933Y94.068
G1X153.155Y93.771
G1X153.349Y93.452
G1X153.513Y93.114
G1X153.645Y92.758
G1X153.742Y92.387
G1X153.802Y92.004
G1X153.823Y91.645
G1Y90.107
G1Y59.893
G1Y58.369
G1X153.805Y58.013
G1X153.746Y57.625
G1X153.650Y57.251
G1X153.518Y56.892
G1X153.354Y56.550
G1X153.159Y56.229
G1X152.934Y55.929
G1X152.683Y55.653
G1X152.407Y55.402
G1X152.108Y55.178
G1X151.786Y54.983
G1X151.445Y54.818
G1X151.086Y54.687
G1X150.711Y54.590
G1X150.324Y54.531
G1X149.968Y54.513
G1X148.174
G1X147.795Y54.494
G1X147.470Y54.444
G1X147.156Y54.362
G1X146.854Y54.251
G1X146.567Y54.111
G1X146.295Y53.944
G1X146.040Y53.752
G1X145.805Y53.536
G1X145.590Y53.299
G1X145.399Y53.041
G1X145.233Y52.767
G1X145.094Y52.476
G1X144.983Y52.172
G1X144.902Y51.855
G1X144.852Y51.526
G1X144.835Y51.186
G1X144.852Y50.846
G1X144.902Y50.517
G1X144.983Y50.200
G1X145.094Y49.896
G1X145.233Y49.605
G1X145.399Y49.331
G1X145.590Y49.074
G1X145.804Y48.836
G1X146.040Y48.621
G1X146.295Y48.428
G1X146.567Y48.262
G1X146.854Y48.122
G1X147.155Y48.011
G1X147.469Y47.929
G1X147.795Y47.879
G1X148.174Y47.859
G1X149.983
G1X150.340Y47.840
G1X150.725Y47.779
G1X151.097Y47.682
G1X151.454Y47.551
G1X151.793Y47.386
G1X152.112Y47.191
G1X152.410Y46.968
G1X152.684Y46.718
G1X152.933Y46.443
G1X153.155Y46.146
G1X153.349Y45.827
G1X153.513Y45.489
G1X153.645Y45.133
G1X153.742Y44.762
G1X153.802Y44.379
G1X153.823Y44.020
G1Y42.482
G1Y32.155
G1Y29.813
G1X153.805Y29.457
G1X153.746Y29.069
G1X153.650Y28.695
G1X153.518Y28.336
G1X153.354Y27.994
G1X153.159Y27.673
G1X152.934Y27.373
G1X152.683Y27.097
G1X152.407Y26.846
G1X152.108Y26.622
G1X151.786Y26.427
G1X151.445Y26.262
G1X151.086Y26.131
G1X150.711Y26.035
G1X150.324Y25.975
G1X149.968Y25.957
G1X148.174
G1X147.795Y25.938
G1X147.470Y25.888
G1X147.156Y25.806
G1X146.854Y25.695
G1X146.567Y25.555
G1X146.295Y25.388
G1X146.040Y25.196
G1X145.805Y24.980
G1X145.590Y24.743
G1X145.399Y24.486
G1X145.233Y24.211
G1X145.094Y23.920
G1X144.983Y23.616
G1X144.902Y23.299
G1X144.852Y22.970
G1X144.835Y22.630
G1X144.852Y22.290
G1X144.902Y21.961
G1X144.983Y21.644
G1X145.094Y21.340
G1X145.233Y21.049
G1X145.399Y20.775
G1X145.590Y20.518
G1X145.804Y20.280
G1X146.040Y20.065
G1X146.295Y19.873
G1X146.567Y19.706
G1X146.854Y19.566
G1X147.155Y19.455
G1X147.469Y19.373
G1X147.795Y19.323
G1X148.174Y19.304
G1X149.983
G1X150.341Y19.284
G1X150.727Y19.223
G1X151.100Y19.126
G1X151.458Y18.993
G1X151.798Y18.828
G1X152.117Y18.633
G1X152.416Y18.408
G1X152.690Y18.157
G1X152.940Y17.881
G1X153.163Y17.582
G1X153.357Y17.261
G1X153.521Y16.921
G1X153.651Y16.563
G1X153.747Y16.189
G1X153.806Y15.803
G1X153.824Y15.448
G1Y11.399
G1X153.806Y11.046
G1X153.750Y10.664
G1X153.657Y10.293
G1X153.531Y9.936
G1X153.371Y9.595
G1X153.181Y9.273
G1X152.961Y8.972
G1X152.714Y8.694
G1X152.441Y8.441
G1X152.143Y8.214
G1X151.823Y8.016
G1X151.482Y7.850
G1X151.123Y7.717
G1X150.748Y7.620
G1X150.361Y7.561
G1X150.005Y7.542
G1X10.029
G1X9.673Y7.560
G1X9.286Y7.620
G1X8.911Y7.716
G1X8.552Y7.847
G1X8.211Y8.012
G1X7.889Y8.207
G1X7.590Y8.431
G1Z-3.000F304.8
G1X7.313Y8.682F1016.0
G1X7.062Y8.958
G1X6.838Y9.258
G1X6.643Y9.579
G1X6.479Y9.921
G1X6.347Y10.280
G1X6.251Y10.655
G1X6.192Y11.042
G1X6.174Y11.398
G1Y15.461
G1X6.193Y15.818
G1X6.253Y16.202
G1X6.350Y16.574
G1X6.482Y16.931
G1X6.646Y17.270
G1X6.840Y17.589
G1X7.063Y17.887
G1X7.313Y18.161
G1X7.587Y18.410
G1X7.885Y18.633
G1X8.204Y18.828
G1X8.542Y18.992
G1X8.898Y19.124
G1X9.269Y19.221
G1X9.653Y19.282
G1X10.012Y19.302
G1X11.823
G1X12.201Y19.322
G1X12.527Y19.372
G1X12.841Y19.454
G1X13.143Y19.565
G1X13.430Y19.705
G1X13.702Y19.872
G1X13.957Y20.064
G1X14.192Y20.279
G1X14.407Y20.517
G1X14.598Y20.774
G1X14.764Y21.049
G1X14.903Y21.339
G1X15.014Y21.643
G1X15.095Y21.960
G1X15.145Y22.289
G1X15.162Y22.629
G1X15.145Y22.969
G1X15.095Y23.298
G1X15.014Y23.615
G1X14.903Y23.919
G1X14.764Y24.210
G1X14.598Y24.485
G1X14.407Y24.742
G1X14.192Y24.979
G1X13.957Y25.195
G1X13.702Y25.387
G1X13.430Y25.554
G1X13.142Y25.694
G1X12.841Y25.805
G1X12.527Y25.887
G1X12.202Y25.937
G1X11.823Y25.956
G1X10.029
G1X9.673Y25.974
G1X9.286Y26.034
G1X8.911Y26.130
G1X8.552Y26.261
G1X8.211Y26.426
G1X7.889Y26.621
G1X7.590Y26.845
G1X7.313Y27.096
G1X7.062Y27.372
G1X6.838Y27.672
G1X6.643Y27.993
G1X6.479Y28.335
G1X6.347Y28.694
G1X6.251Y29.068
G1X6.192Y29.456
G1X6.174Y29.812
G1Y32.154
G1Y42.481
G1Y44.020
G1X6.195Y44.379
G1X6.255Y44.762
G1X6.352Y45.133
G1X6.484Y45.488
G1X6.648Y45.827
G1X6.842Y46.145
G1X7.065Y46.442
G1X7.314Y46.717
G1X7.588Y46.966
G1X7.885Y47.189
G1X8.204Y47.384
G1X8.542Y47.548
G1X8.898Y47.680
G1X9.269Y47.777
G1X9.653Y47.838
G1X10.012Y47.859
G1X11.823
G1X12.202Y47.878
G1X12.527Y47.929
G1X12.841Y48.010
G1X13.143Y48.122
G1X13.430Y48.261
G1X13.702Y48.428
G1X13.957Y48.620
G1X14.192Y48.836
G1X14.407Y49.073
G1X14.598Y49.330
G1X14.764Y49.605
G1X14.903Y49.895
G1X15.014Y50.200
G1X15.095Y50.517
G1X15.145Y50.845
G1X15.162Y51.185
G1X15.145Y51.525
G1X15.095Y51.854
G1X15.014Y52.171
G1X14.903Y52.476
G1X14.764Y52.766
G1X14.598Y53.041
G1X14.407Y53.298
G1X14.192Y53.536
G1X13.957Y53.751
G1X13.702Y53.944
G1X13.430Y54.110
G1X13.142Y54.250
G1X12.841Y54.362
G1X12.527Y54.443
G1X12.202Y54.493
G1X11.823Y54.513
G1X10.029
G1X9.673Y54.531
G1X9.286Y54.590
G1X8.911Y54.686
G1X8.552Y54.818
G1X8.211Y54.982
G1X7.889Y55.177
G1X7.590Y55.401
G1X7.313Y55.652
G1X7.062Y55.929
G1X6.838Y56.228
G1X6.643Y56.550
G1X6.479Y56.891
G1X6.347Y57.250
G1X6.251Y57.625
G1X6.192Y58.012
G1X6.174Y58.368
G1Y90.106
G1Y91.645
G1X6.195Y92.004
G1X6.255Y92.387
G1X6.352Y92.758
G1X6.484Y93.113
G1X6.648Y93.452
G1X6.842Y93.770
G1X7.065Y94.067
G1X7.314Y94.342
G1X7.588Y94.591
G1X7.885Y94.814
G1X8.204Y95.009
G1X8.542Y95.173
G1X8.898Y95.305
G1X9.269Y95.402
G1X9.653Y95.463
G1X10.012Y95.484
G1X11.823
G1X12.202Y95.503
G1X12.527Y95.554
G1X12.841Y95.635
G1X13.143Y95.747
G1X13.430Y95.886
G1X13.702Y96.053
G1X13.957Y96.245
G1X14.192Y96.461
G1X14.407Y96.698
G1X14.598Y96.955
G1X14.764Y97.230
G1X14.903Y97.520
G1X15.014Y97.825
G1X15.095Y98.142
G1X15.145Y98.470
G1X15.162Y98.810
G1X15.145Y99.150
G1X15.095Y99.479
G1X15.014Y99.796
G1X14.903Y100.101
G1X14.764Y100.391
G1X14.598Y100.666
G1X14.407Y100.923
G1X14.192Y101.161
G1X13.957Y101.376
G1X13.702Y101.569
G1X13.430Y101.735
G1X13.142Y101.875
G1X12.841Y101.987
G1X12.527Y102.068
G1X12.202Y102.118
G1X11.823Y102.138
G1X10.029
G1X9.673Y102.156
G1X9.286Y102.215
G1X8.911Y102.311
G1X8.552Y102.443
G1X8.211Y102.607
G1X7.889Y102.802
G1X7.590Y103.026
G1X7.313Y103.277
G1X7.062Y103.554
G1X6.838Y103.853
G1X6.643Y104.175
G1X6.479Y104.516
G1X6.347Y104.875
G1X6.251Y105.250
G1X6.192Y105.637
G1X6.174Y105.993
G1Y120.222
G1X6.192Y120.577
G1X6.250Y120.963
G1X6.346Y121.337
G1X6.477Y121.695
G1X6.641Y122.035
G1X6.835Y122.356
G1X7.058Y122.655
G1X7.308Y122.930
G1X7.582Y123.181
G1X7.880Y123.405
G1X8.200Y123.600
G1X8.539Y123.765
G1X8.895Y123.898
G1X9.268Y123.995
G1X9.652Y124.057
G1X10.012Y124.077
G1X11.824
G1X12.202Y124.097
G1X12.528Y124.147
G1X12.842Y124.229
G1X13.143Y124.340
G1X13.431Y124.480
G1X13.703Y124.647
G1X13.957Y124.839
G1X14.193Y125.054
G1X14.407Y125.292
G1X14.598Y125.549
G1X14.764Y125.823
G1X14.903Y126.114
G1X15.014Y126.418
G1X15.096Y126.735
G1X15.146Y127.064
G1X15.163Y127.404
G1X15.146Y127.744
G1X15.096Y128.073
G1X15.014Y128.390
G1X14.903Y128.694
G1X14.764Y128.985
G1X14.598Y129.260
G1X14.407Y129.517
G1X14.193Y129.754
G1X13.957Y129.970
G1X13.702Y130.162
G1X13.430Y130.329
G1X13.143Y130.469
G1X12.842Y130.580
G1X12.528Y130.662
G1X12.202Y130.712
G1X11.824Y130.731
G1X10.032
G1X9.794Y130.743
G1X9.587Y130.761
G1X9.463Y130.780
G1X9.197Y130.824
G1X8.964Y130.885
G1X8.856Y130.918
G1X8.610Y131.009
G1X8.503Y131.053
G1X8.394Y131.106
G1X8.194Y131.201
G1X8.152Y131.225
G1X7.958Y131.342
G1X7.765Y131.479
G1X7.586Y131.613
G1X7.345Y131.831
G1X7.279Y131.897
G1X7.137Y132.054
G1X7.011Y132.202
G1X6.909Y132.339
G1X6.793Y132.505
G1X6.661Y132.720
G1X6.611Y132.818
G1X6.502Y133.044
G1X6.459Y133.144
G1X6.374Y133.375
G1X6.337Y133.479
G1X6.268Y133.750
G1X6.228Y133.969
G1X6.204Y134.123
G1X6.186Y134.337
G1X6.174Y134.571
G1Y136.282
G1Y138.663
G1X6.198Y139.026
G1X6.261Y139.407
G1X6.360Y139.776
G1X6.494Y140.130
G1X6.659Y140.465
G1X6.855Y140.781
G1X7.078Y141.076
G1X7.328Y141.347
G1X7.602Y141.594
G1X7.898Y141.814
G1X8.216Y142.006
G1X8.553Y142.168
G1X8.906Y142.298
G1X9.275Y142.394
G1X9.578Y142.442
G1X9.732Y142.458
G1X10.069Y142.494
G1X150.004Y142.492
G1X150.360Y142.474
G1X150.747Y142.415
G1X151.122Y142.318
G1X151.481Y142.185
G1X151.822Y142.019
G1X152.142Y141.821
G1X152.440Y141.594
G1X152.713Y141.341
G1X152.960Y141.063
G1X153.180Y140.762
G1X153.370Y140.440
G1X153.530Y140.100
G1X153.656Y139.742
G1X153.749Y139.371
G1X153.805Y138.989
G1X153.823Y138.636
G1Y136.301
G1Y134.588
G1X153.805Y134.232
G1X153.745Y133.844
G1X153.649Y133.470
G1X153.518Y133.111
G1X153.353Y132.769
G1X153.158Y132.448
G1X152.934Y132.148
G1X152.683Y131.872
G1X152.407Y131.621
G1X152.107Y131.397
G1X151.786Y131.202
G1X151.444Y131.037
G1X151.085Y130.906
G1X150.711Y130.809
G1X150.323Y130.750
G1X149.967Y130.732
G1X148.173
G1X147.795Y130.713
G1X147.469Y130.663
G1X147.155Y130.581
G1X146.854Y130.470
G1X146.566Y130.330
G1X146.294Y130.163
G1X146.040Y129.971
G1X145.804Y129.755
G1X145.590Y129.518
G1X145.399Y129.261
G1X145.233Y128.986
G1X145.093Y128.695
G1X144.982Y128.391
G1X144.901Y128.074
G1X144.851Y127.745
G1X144.834Y127.405
G1X144.851Y127.065
G1X144.901Y126.736
G1X144.982Y126.419
G1X145.093Y126.115
G1X145.233Y125.825
G1X145.399Y125.550
G1X145.590Y125.293
G1X145.804Y125.055
G1X146.039Y124.840
G1X146.294Y124.648
G1X146.566Y124.481
G1X146.854Y124.341
G1X147.155Y124.230
G1X147.469Y124.148
G1X147.795Y124.098
G1X148.173Y124.079
G1X149.982
G1X150.341Y124.059
G1X150.727Y123.998
G1X151.100Y123.901
G1X151.457Y123.768
G1X151.797Y123.603
G1X152.117Y123.408
G1X152.415Y123.183
G1X152.690Y122.932
G1X152.940Y122.656
G1X153.162Y122.357
G1X153.357Y122.036
G1X153.520Y121.696
G1X153.651Y121.338
G1X153.746Y120.964
G1X153.805Y120.578
G1X153.823Y120.223
G1Y107.518
G1Y105.994
G1X153.805Y105.638
G1X153.746Y105.250
G1X153.650Y104.876
G1X153.518Y104.517
G1X153.354Y104.175
G1X153.159Y103.854
G1X152.934Y103.554
G1X152.683Y103.278
G1X152.407Y103.027
G1X152.108Y102.803
G1X151.786Y102.608
G1X151.445Y102.443
G1X151.086Y102.312
G1X150.711Y102.215
G1X150.324Y102.156
G1X149.968Y102.138
G1X148.174
G1X147.795Y102.119
G1X147.470Y102.069
G1X147.156Y101.987
G1X146.854Y101.876
G1X146.567Y101.736
G1X146.295Y101.569
G1X146.040Y101.377
G1X145.805Y101.161
G1X145.590Y100.924
G1X145.399Y100.666
G1X145.233Y100.392
G1X145.094Y100.101
G1X144.983Y99.797
G1X144.902Y99.480
G1X144.852Y99.151
G1X144.835Y98.811
G1X144.852Y98.471
G1X144.902Y98.142
G1X144.983Y97.825
G1X145.094Y97.521
G1X145.233Y97.230
G1X145.399Y96.956
G1X145.590Y96.699
G1X145.804Y96.461
G1X146.040Y96.246
G1X146.295Y96.053
G1X146.567Y95.887
G1X146.854Y95.747
G1X147.155Y95.636
G1X147.469Y95.554
G1X147.795Y95.504
G1X148.174Y95.484
G1X149.983
G1X150.340Y95.465
G1X150.725Y95.404
G1X151.097Y95.307
G1X151.454Y95.176
G1X151.793Y95.011
G1X152.112Y94.816
G1X152.410Y94.593
G1X152.684Y94.343
G1X152.933Y94.068
G1X153.155Y93.771
G1X153.349Y93.452
G1X153.513Y93.114
G1X153.645Y92.758
G1X153.742Y92.387
G1X153.802Y92.004
G1X153.823Y91.645
G1Y90.107
G1Y59.893
G1Y58.369
G1X153.805Y58.013
G1X153.746Y57.625
G1X153.650Y57.251
G1X153.518Y56.892
G1X153.354Y56.550
G1X153.159Y56.229
G1X152.934Y55.929
G1X152.683Y55.653
G1X152.407Y55.402
G1X152.108Y55.178
G1X151.786Y54.983
G1X151.445Y54.818
G1X151.086Y54.687
G1X150.711Y54.590
G1X150.324Y54.531
G1X149.968Y54.513
G1X148.174
G1X147.795Y54.494
G1X147.470Y54.444
G1X147.156Y54.362
G1X146.854Y54.251
G1X146.567Y54.111
G1X146.295Y53.944
G1X146.040Y53.752
G1X145.805Y53.536
G1X145.590Y53.299
G1X145.399Y53.041
G1X145.233Y52.767
G1X145.094Y52.476
G1X144.983Y52.172
G1X144.902Y51.855
G1X144.852Y51.526
G1X144.835Y51.186
G1X144.852Y50.846
G1X144.902Y50.517
G1X144.983Y50.200
G1X145.094Y49.896
G1X145.233Y49.605
G1X145.399Y49.331
G1X145.590Y49.074
G1X145.804Y48.836
G1X146.040Y48.621
G1X146.295Y48.428
G1X146.567Y48.262
G1X146.854Y48.122
G1X147.155Y48.011
G1X147.469Y47.929
G1X147.795Y47.879
G1X148.174Y47.859
G1X149.983
G1X150.340Y47.840
G1X150.725Y47.779
G1X151.097Y47.682
G1X151.454Y47.551
G1X151.793Y47.386
G1X152.112Y47.191
G1X152.410Y46.968
G1X152.684Y46.718
G1X152.933Y46.443
G1X153.155Y46.146
G1X153.349Y45.827
G1X153.513Y45.489
G1X153.645Y45.133
G1X153.742Y44.762
G1X153.802Y44.379
G1X153.823Y44.020
G1Y42.482
G1Y32.155
G1Y29.813
G1X153.805Y29.457
G1X153.746Y29.069
G1X153.650Y28.695
G1X153.518Y28.336
G1X153.354Y27.994
G1X153.159Y27.673
G1X152.934Y27.373
G1X152.683Y27.097
G1X152.407Y26.846
G1X152.108Y26.622
G1X151.786Y26.427
G1X151.445Y26.262
G1X151.086Y26.131
G1X150.711Y26.035
G1X150.324Y25.975
G1X149.968Y25.957
G1X148.174
G1X147.795Y25.938
G1X147.470Y25.888
G1X147.156Y25.806
G1X146.854Y25.695
G1X146.567Y25.555
G1X146.295Y25.388
G1X146.040Y25.196
G1X145.805Y24.980
G1X145.590Y24.743
G1X145.399Y24.486
G1X145.233Y24.211
G1X145.094Y23.920
G1X144.983Y23.616
G1X144.902Y23.299
G1X144.852Y22.970
G1X144.835Y22.630
G1X144.852Y22.290
G1X144.902Y21.961
G1X144.983Y21.644
G1X145.094Y21.340
G1X145.233Y21.049
G1X145.399Y20.775
G1X145.590Y20.518
G1X145.804Y20.280
G1X146.040Y20.065
G1X146.295Y19.873
G1X146.567Y19.706
G1X146.854Y19.566
G1X147.155Y19.455
G1X147.469Y19.373
G1X147.795Y19.323
G1X148.174Y19.304
G1X149.983
G1X150.341Y19.284
G1X150.727Y19.223
G1X151.100Y19.126
G1X151.458Y18.993
G1X151.798Y18.828
G1X152.117Y18.633
G1X152.416Y18.408
G1X152.690Y18.157
G1X152.940Y17.881
G1X153.163Y17.582
G1X153.357Y17.261
G1X153.521Y16.921
G1X153.651Y16.563
G1X153.747Y16.189
G1X153.806Y15.803
G1X153.824Y15.448
G1Y11.399
G1X153.806Y11.046
G1X153.750Y10.664
G1X153.657Y10.293
G1X153.531Y9.936
G1X153.371Y9.595
G1X153.181Y9.273
G1X152.961Y8.972
G1X152.714Y8.694
G1X152.441Y8.441
G1X152.143Y8.214
G1X151.823Y8.016
G1X151.482Y7.850
G1X151.123Y7.717
G1X150.748Y7.620
G1X150.361Y7.561
G1X150.005Y7.542
G1X10.029
G1X9.673Y7.560
G1X9.286Y7.620
G1X8.911Y7.716
G1X8.552Y7.847
G1X8.211Y8.012
G1X7.889Y8.207
G1X7.590Y8.431
G0Z5.080
G0X27.235Y17.082Z5.080
G1Z-0.750F304.8
G1X44.260F1016.0
G1Y34.107
G1X27.235
G1Y17.082
G1Z-1.500F304.8
G1X44.260F1016.0
G1Y34.107
G1X27.235
G1Y17.082
G1Z-2.250F304.8
G1X44.260F1016.0
G1Y34.107
G1X27.235
G1Y17.082
G1Z-3.000F304.8
G1X44.260F1016.0
G1Y34.107
G1X27.235
G1Y17.082
G0Z5.080
G0X34.762Y53.540
G1Z-0.750F304.8
G1X35.055Y53.495F1016.0
G1X35.358Y53.480
G1X35.662Y53.495
G1X35.954Y53.540
G1X36.235Y53.612
G1X36.505Y53.711
G1X36.762Y53.834
G1X37.005Y53.982
G1X37.232Y54.152
G1X37.442Y54.343
G1X37.632Y54.552
G1X37.802Y54.780
G1X37.950Y55.022
G1X38.074Y55.279
G1X38.172Y55.549
G1X38.245Y55.830
G1X38.289Y56.122
G1X38.304Y56.426
G1X38.289Y56.729
G1X38.245Y57.022
G1X38.172Y57.303
G1X38.074Y57.573
G1X37.950Y57.830
G1X37.802Y58.072
G1X37.632Y58.300
G1X37.442Y58.509
G1X37.232Y58.700
G1X37.005Y58.870
G1X36.762Y59.017
G1X36.505Y59.141
G1X36.235Y59.240
G1X35.954Y59.312
G1X35.662Y59.357
G1X35.358Y59.372
G1X35.055Y59.357
G1X34.762Y59.312
G1X34.481Y59.240
G1X34.212Y59.141
G1X33.955Y59.017
G1X33.712Y58.870
G1X33.485Y58.700
G1X33.275Y58.509
G1X33.084Y58.300
G1X32.914Y58.072
G1X32.767Y57.830
G1X32.643Y57.573
G1X32.544Y57.303
G1X32.472Y57.022
G1X32.428Y56.729
G1X32.412Y56.426
G1X32.428Y56.122
G1X32.472Y55.830
G1X32.544Y55.549
G1X32.643Y55.279
G1X32.767Y55.022
G1X32.914Y54.780
G1X33.084Y54.552
G1X33.275Y54.343
G1X33.485Y54.152
G1X33.712Y53.982
G1X33.955Y53.834
G1X34.212Y53.711
G1X34.481Y53.612
G1X34.762Y53.540
G1Z-1.500F304.8
G1X35.055Y53.495F1016.0
G1X35.358Y53.480
G1X35.662Y53.495
G1X35.954Y53.540
G1X36.235Y53.612
G1X36.505Y53.711
G1X36.762Y53.834
G1X37.005Y53.982
G1X37.232Y54.152
G1X37.442Y54.343
G1X37.632Y54.552
G1X37.802Y54.780
G1X37.950Y55.022
G1X38.074Y55.279
G1X38.172Y55.549
G1X38.245Y55.830
G1X38.289Y56.122
G1X38.304Y56.426
G1X38.289Y56.729
G1X38.245Y57.022
G1X38.172Y57.303
G1X38.074Y57.573
G1X37.950Y57.830
G1X37.802Y58.072
G1X37.632Y58.300
G1X37.442Y58.509
G1X37.232Y58.700
G1X37.005Y58.870
G1X36.762Y59.017
G1X36.505Y59.141
G1X36.235Y59.240
G1X35.954Y59.312
G1X35.662Y59.357
G1X35.358Y59.372
G1X35.055Y59.357
G1X34.762Y59.312
G1X34.481Y59.240
G1X34.212Y59.141
G1X33.955Y59.017
G1X33.712Y58.870
G1X33.485Y58.700
G1X33.275Y58.509
G1X33.084Y58.300
G1X32.914Y58.072
G1X32.767Y57.830
G1X32.643Y57.573
G1X32.544Y57.303
G1X32.472Y57.022
G1X32.428Y56.729
G1X32.412Y56.426
G1X32.428Y56.122
G1X32.472Y55.830
G1X32.544Y55.549
G1X32.643Y55.279
G1X32.767Y55.022
G1X32.914Y54.780
G1X33.084Y54.552
G1X33.275Y54.343
G1X33.485Y54.152
G1X33.712Y53.982
G1X33.955Y53.834
G1X34.212Y53.711
G1X34.481Y53.612
G1X34.762Y53.540
G1Z-2.250F304.8
G1X35.055Y53.495F1016.0
G1X35.358Y53.480
G1X35.662Y53.495
G1X35.954Y53.540
G1X36.235Y53.612
G1X36.505Y53.711
G1X36.762Y53.834
G1X37.005Y53.982
G1X37.232Y54.152
G1X37.442Y54.343
G1X37.632Y54.552
G1X37.802Y54.780
G1X37.950Y55.022
G1X38.074Y55.279
G1X38.172Y55.549
G1X38.245Y55.830
G1X38.289Y56.122
G1X38.304Y56.426
G1X38.289Y56.729
G1X38.245Y57.022
G1X38.172Y57.303
G1X38.074Y57.573
G1X37.950Y57.830
G1X37.802Y58.072
G1X37.632Y58.300
G1X37.442Y58.509
G1X37.232Y58.700
G1X37.005Y58.870
G1X36.762Y59.017
G1X36.505Y59.141
G1X36.235Y59.240
G1X35.954Y59.312
G1X35.662Y59.357
G1X35.358Y59.372
G1X35.055Y59.357
G1X34.762Y59.312
G1X34.481Y59.240
G1X34.212Y59.141
G1X33.955Y59.017
G1X33.712Y58.870
G1X33.485Y58.700
G1X33.275Y58.509
G1X33.084Y58.300
G1X32.914Y58.072
G1X32.767Y57.830
G1X32.643Y57.573
G1X32.544Y57.303
G1X32.472Y57.022
G1X32.428Y56.729
G1X32.412Y56.426
G1X32.428Y56.122
G1X32.472Y55.830
G1X32.544Y55.549
G1X32.643Y55.279
G1X32.767Y55.022
G1X32.914Y54.780
G1X33.084Y54.552
G1X33.275Y54.343
G1X33.485Y54.152
G1X33.712Y53.982
G1X33.955Y53.834
G1X34.212Y53.711
G1X34.481Y53.612
G1X34.762Y53.540
G1Z-3.000F304.8
G1X35.055Y53.495F1016.0
G1X35.358Y53.480
G1X35.662Y53.495
G1X35.954Y53.540
G1X36.235Y53.612
G1X36.505Y53.711
G1X36.762Y53.834
G1X37.005Y53.982
G1X37.232Y54.152
G1X37.442Y54.343
G1X37.632Y54.552
G1X37.802Y54.780
G1X37.950Y55.022
G1X38.074Y55.279
G1X38.172Y55.549
G1X38.245Y55.830
G1X38.289Y56.122
G1X38.304Y56.426
G1X38.289Y56.729
G1X38.245Y57.022
G1X38.172Y57.303
G1X38.074Y57.573
G1X37.950Y57.830
G1X37.802Y58.072
G1X37.632Y58.300
G1X37.442Y58.509
G1X37.232Y58.700
G1X37.005Y58.870
G1X36.762Y59.017
G1X36.505Y59.141
G1X36.235Y59.240
G1X35.954Y59.312
G1X35.662Y59.357
G1X35.358Y59.372
G1X35.055Y59.357
G1X34.762Y59.312
G1X34.481Y59.240
G1X34.212Y59.141
G1X33.955Y59.017
G1X33.712Y58.870
G1X33.485Y58.700
G1X33.275Y58.509
G1X33.084Y58.300
G1X32.914Y58.072
G1X32.767Y57.830
G1X32.643Y57.573
G1X32.544Y57.303
G1X32.472Y57.022
G1X32.428Y56.729
G1X32.412Y56.426
G1X32.428Y56.122
G1X32.472Y55.830
G1X32.544Y55.549
G1X32.643Y55.279
G1X32.767Y55.022
G1X32.914Y54.780
G1X33.084Y54.552
G1X33.275Y54.343
G1X33.485Y54.152
G1X33.712Y53.982
G1X33.955Y53.834
G1X34.212Y53.711
G1X34.481Y53.612
G1X34.762Y53.540
G0Z5.080
G0X71.772Y33.963
G1Z-0.750F304.8
G1Y16.938F1016.0
G1X88.797
G1Y33.963
G1X71.772
G1Z-1.500F304.8
G1Y16.938F1016.0
G1X88.797
G1Y33.963
G1X71.772
G1Z-2.250F304.8
G1Y16.938F1016.0
G1X88.797
G1Y33.963
G1X71.772
G1Z-3.000F304.8
G1Y16.938F1016.0
G1X88.797
G1Y33.963
G1X71.772
G0Z5.080
G0X78.734Y53.612
G1Z-0.750F304.8
G1X79.015Y53.540F1016.0
G1X79.308Y53.495
G1X79.611Y53.480
G1X79.915Y53.495
G1X80.207Y53.540
G1X80.488Y53.612
G1X80.758Y53.711
G1X81.015Y53.834
G1X81.257Y53.982
G1X81.485Y54.152
G1X81.694Y54.343
G1X81.885Y54.552
G1X82.055Y54.780
G1X82.203Y55.022
G1X82.326Y55.279
G1X82.425Y55.549
G1X82.497Y55.830
G1X82.542Y56.122
G1X82.557Y56.426
G1X82.542Y56.729
G1X82.497Y57.022
G1X82.425Y57.303
G1X82.326Y57.573
G1X82.203Y57.830
G1X82.055Y58.072
G1X81.885Y58.300
G1X81.694Y58.509
G1X81.485Y58.700
G1X81.257Y58.870
G1X81.015Y59.017
G1X80.758Y59.141
G1X80.488Y59.240
G1X80.207Y59.312
G1X79.915Y59.357
G1X79.611Y59.372
G1X79.308Y59.357
G1X79.015Y59.312
G1X78.734Y59.240
G1X78.464Y59.141
G1X78.207Y59.017
G1X77.965Y58.870
G1X77.737Y58.700
G1X77.528Y58.509
G1X77.337Y58.300
G1X77.167Y58.072
G1X77.020Y57.830
G1X76.896Y57.573
G1X76.797Y57.303
G1X76.725Y57.022
G1X76.680Y56.729
G1X76.665Y56.426
G1X76.680Y56.122
G1X76.725Y55.830
G1X76.797Y55.549
G1X76.896Y55.279
G1X77.020Y55.022
G1X77.167Y54.780
G1X77.337Y54.552
G1X77.528Y54.343
G1X77.737Y54.152
G1X77.965Y53.982
G1X78.207Y53.834
G1X78.464Y53.711
G1X78.734Y53.612
G1Z-1.500F304.8
G1X79.015Y53.540F1016.0
G1X79.308Y53.495
G1X79.611Y53.480
G1X79.915Y53.495
G1X80.207Y53.540
G1X80.488Y53.612
G1X80.758Y53.711
G1X81.015Y53.834
G1X81.257Y53.982
G1X81.485Y54.152
G1X81.694Y54.343
G1X81.885Y54.552
G1X82.055Y54.780
G1X82.203Y55.022
G1X82.326Y55.279
G1X82.425Y55.549
G1X82.497Y55.830
G1X82.542Y56.122
G1X82.557Y56.426
G1X82.542Y56.729
G1X82.497Y57.022
G1X82.425Y57.303
G1X82.326Y57.573
G1X82.203Y57.830
G1X82.055Y58.072
G1X81.885Y58.300
G1X81.694Y58.509
G1X81.485Y58.700
G1X81.257Y58.870
G1X81.015Y59.017
G1X80.758Y59.141
G1X80.488Y59.240
G1X80.207Y59.312
G1X79.915Y59.357
G1X79.611Y59.372
G1X79.308Y59.357
G1X79.015Y59.312
G1X78.734Y59.240
G1X78.464Y59.141
G1X78.207Y59.017
G1X77.965Y58.870
G1X77.737Y58.700
G1X77.528Y58.509
G1X77.337Y58.300
G1X77.167Y58.072
G1X77.020Y57.830
G1X76.896Y57.573
G1X76.797Y57.303
G1X76.725Y57.022
G1X76.680Y56.729
G1X76.665Y56.426
G1X76.680Y56.122
G1X76.725Y55.830
G1X76.797Y55.549
G1X76.896Y55.279
G1X77.020Y55.022
G1X77.167Y54.780
G1X77.337Y54.552
G1X77.528Y54.343
G1X77.737Y54.152
G1X77.965Y53.982
G1X78.207Y53.834
G1X78.464Y53.711
G1X78.734Y53.612
G1Z-2.250F304.8
G1X79.015Y53.540F1016.0
G1X79.308Y53.495
G1X79.611Y53.480
G1X79.915Y53.495
G1X80.207Y53.540
G1X80.488Y53.612
G1X80.758Y53.711
G1X81.015Y53.834
G1X81.257Y53.982
G1X81.485Y54.152
G1X81.694Y54.343
G1X81.885Y54.552
G1X82.055Y54.780
G1X82.203Y55.022
G1X82.326Y55.279
G1X82.425Y55.549
G1X82.497Y55.830
G1X82.542Y56.122
G1X82.557Y56.426
G1X82.542Y56.729
G1X82.497Y57.022
G1X82.425Y57.303
G1X82.326Y57.573
G1X82.203Y57.830
G1X82.055Y58.072
G1X81.885Y58.300
G1X81.694Y58.509
G1X81.485Y58.700
G1X81.257Y58.870
G1X81.015Y59.017
G1X80.758Y59.141
G1X80.488Y59.240
G1X80.207Y59.312
G1X79.915Y59.357
G1X79.611Y59.372
G1X79.308Y59.357
G1X79.015Y59.312
G1X78.734Y59.240
G1X78.464Y59.141
G1X78.207Y59.017
G1X77.965Y58.870
G1X77.737Y58.700
G1X77.528Y58.509
G1X77.337Y58.300
G1X77.167Y58.072
G1X77.020Y57.830
G1X76.896Y57.573
G1X76.797Y57.303
G1X76.725Y57.022
G1X76.680Y56.729
G1X76.665Y56.426
G1X76.680Y56.122
G1X76.725Y55.830
G1X76.797Y55.549
G1X76.896Y55.279
G1X77.020Y55.022
G1X77.167Y54.780
G1X77.337Y54.552
G1X77.528Y54.343
G1X77.737Y54.152
G1X77.965Y53.982
G1X78.207Y53.834
G1X78.464Y53.711
G1X78.734Y53.612
G1Z-3.000F304.8
G1X79.015Y53.540F1016.0
G1X79.308Y53.495
G1X79.611Y53.480
G1X79.915Y53.495
G1X80.207Y53.540
G1X80.488Y53.612
G1X80.758Y53.711
G1X81.015Y53.834
G1X81.257Y53.982
G1X81.485Y54.152
G1X81.694Y54.343
G1X81.885Y54.552
G1X82.055Y54.780
G1X82.203Y55.022
G1X82.326Y55.279
G1X82.425Y55.549
G1X82.497Y55.830
G1X82.542Y56.122
G1X82.557Y56.426
G1X82.542Y56.729
G1X82.497Y57.022
G1X82.425Y57.303
G1X82.326Y57.573
G1X82.203Y57.830
G1X82.055Y58.072
G1X81.885Y58.300
G1X81.694Y58.509
G1X81.485Y58.700
G1X81.257Y58.870
G1X81.015Y59.017
G1X80.758Y59.141
G1X80.488Y59.240
G1X80.207Y59.312
G1X79.915Y59.357
G1X79.611Y59.372
G1X79.308Y59.357
G1X79.015Y59.312
G1X78.734Y59.240
G1X78.464Y59.141
G1X78.207Y59.017
G1X77.965Y58.870
G1X77.737Y58.700
G1X77.528Y58.509
G1X77.337Y58.300
G1X77.167Y58.072
G1X77.020Y57.830
G1X76.896Y57.573
G1X76.797Y57.303
G1X76.725Y57.022
G1X76.680Y56.729
G1X76.665Y56.426
G1X76.680Y56.122
G1X76.725Y55.830
G1X76.797Y55.549
G1X76.896Y55.279
G1X77.020Y55.022
G1X77.167Y54.780
G1X77.337Y54.552
G1X77.528Y54.343
G1X77.737Y54.152
G1X77.965Y53.982
G1X78.207Y53.834
G1X78.464Y53.711
G1X78.734Y53.612
G0Z5.080
G0X116.015Y33.922
G1Z-0.750F304.8
G1Y16.897F1016.0
G1X133.040
G1Y33.922
G1X116.015
G1Z-1.500F304.8
G1Y16.897F1016.0
G1X133.040
G1Y33.922
G1X116.015
G1Z-2.250F304.8
G1Y16.897F1016.0
G1X133.040
G1Y33.922
G1X116.015
G1Z-3.000F304.8
G1Y16.897F1016.0
G1X133.040
G1Y33.922
G1X116.015
G0Z5.080
G0X122.986Y53.612
G1Z-0.750F304.8
G1X123.267Y53.540F1016.0
G1X123.560Y53.495
G1X123.863Y53.480
G1X124.167Y53.495
G1X124.459Y53.540
G1X124.740Y53.612
G1X125.010Y53.711
G1X125.267Y53.834
G1X125.510Y53.982
G1X125.737Y54.152
G1X125.947Y54.343
G1X126.137Y54.552
G1X126.307Y54.780
G1X126.455Y55.022
G1X126.578Y55.279
G1X126.677Y55.549
G1X126.749Y55.830
G1X126.794Y56.122
G1X126.809Y56.426
G1X126.794Y56.729
G1X126.749Y57.022
G1X126.677Y57.303
G1X126.578Y57.573
G1X126.455Y57.830
G1X126.307Y58.072
G1X126.137Y58.300
G1X125.947Y58.509
G1X125.737Y58.700
G1X125.510Y58.870
G1X125.267Y59.017
G1X125.010Y59.141
G1X124.740Y59.240
G1X124.459Y59.312
G1X124.167Y59.357
G1X123.863Y59.372
G1X123.560Y59.357
G1X123.267Y59.312
G1X122.986Y59.240
G1X122.717Y59.141
G1X122.460Y59.017
G1X122.217Y58.870
G1X121.990Y58.700
G1X121.780Y58.509
G1X121.589Y58.300
G1X121.419Y58.072
G1X121.272Y57.830
G1X121.148Y57.573
G1X121.049Y57.303
G1X120.977Y57.022
G1X120.932Y56.729
G1X120.917Y56.426
G1X120.932Y56.122
G1X120.977Y55.830
G1X121.049Y55.549
G1X121.148Y55.279
G1X121.272Y55.022
G1X121.419Y54.780
G1X121.589Y54.552
G1X121.780Y54.343
G1X121.990Y54.152
G1X122.217Y53.982
G1X122.460Y53.834
G1X122.717Y53.711
G1X122.986Y53.612
G1Z-1.500F304.8
G1X123.267Y53.540F1016.0
G1X123.560Y53.495
G1X123.863Y53.480
G1X124.167Y53.495
G1X124.459Y53.540
G1X124.740Y53.612
G1X125.010Y53.711
G1X125.267Y53.834
G1X125.510Y53.982
G1X125.737Y54.152
G1X125.947Y54.343
G1X126.137Y54.552
G1X126.307Y54.780
G1X126.455Y55.022
G1X126.578Y55.279
G1X126.677Y55.549
G1X126.749Y55.830
G1X126.794Y56.122
G1X126.809Y56.426
G1X126.794Y56.729
G1X126.749Y57.022
G1X126.677Y57.303
G1X126.578Y57.573
G1X126.455Y57.830
G1X126.307Y58.072
G1X126.137Y58.300
G1X125.947Y58.509
G1X125.737Y58.700
G1X125.510Y58.870
G1X125.267Y59.017
G1X125.010Y59.141
G1X124.740Y59.240
G1X124.459Y59.312
G1X124.167Y59.357
G1X123.863Y59.372
G1X123.560Y59.357
G1X123.267Y59.312
G1X122.986Y59.240
G1X122.717Y59.141
G1X122.460Y59.017
G1X122.217Y58.870
G1X121.990Y58.700
G1X121.780Y58.509
G1X121.589Y58.300
G1X121.419Y58.072
G1X121.272Y57.830
G1X121.148Y57.573
G1X121.049Y57.303
G1X120.977Y57.022
G1X120.932Y56.729
G1X120.917Y56.426
G1X120.932Y56.122
G1X120.977Y55.830
G1X121.049Y55.549
G1X121.148Y55.279
G1X121.272Y55.022
G1X121.419Y54.780
G1X121.589Y54.552
G1X121.780Y54.343
G1X121.990Y54.152
G1X122.217Y53.982
G1X122.460Y53.834
G1X122.717Y53.711
G1X122.986Y53.612
G1Z-2.250F304.8
G1X123.267Y53.540F1016.0
G1X123.560Y53.495
G1X123.863Y53.480
G1X124.167Y53.495
G1X124.459Y53.540
G1X124.740Y53.612
G1X125.010Y53.711
G1X125.267Y53.834
G1X125.510Y53.982
G1X125.737Y54.152
G1X125.947Y54.343
G1X126.137Y54.552
G1X126.307Y54.780
G1X126.455Y55.022
G1X126.578Y55.279
G1X126.677Y55.549
G1X126.749Y55.830
G1X126.794Y56.122
G1X126.809Y56.426
G1X126.794Y56.729
G1X126.749Y57.022
G1X126.677Y57.303
G1X126.578Y57.573
G1X126.455Y57.830
G1X126.307Y58.072
G1X126.137Y58.300
G1X125.947Y58.509
G1X125.737Y58.700
G1X125.510Y58.870
G1X125.267Y59.017
G1X125.010Y59.141
G1X124.740Y59.240
G1X124.459Y59.312
G1X124.167Y59.357
G1X123.863Y59.372
G1X123.560Y59.357
G1X123.267Y59.312
G1X122.986Y59.240
G1X122.717Y59.141
G1X122.460Y59.017
G1X122.217Y58.870
G1X121.990Y58.700
G1X121.780Y58.509
G1X121.589Y58.300
G1X121.419Y58.072
G1X121.272Y57.830
G1X121.148Y57.573
G1X121.049Y57.303
G1X120.977Y57.022
G1X120.932Y56.729
G1X120.917Y56.426
G1X120.932Y56.122
G1X120.977Y55.830
G1X121.049Y55.549
G1X121.148Y55.279
G1X121.272Y55.022
G1X121.419Y54.780
G1X121.589Y54.552
G1X121.780Y54.343
G1X121.990Y54.152
G1X122.217Y53.982
G1X122.460Y53.834
G1X122.717Y53.711
G1X122.986Y53.612
G1Z-3.000F304.8
G1X123.267Y53.540F1016.0
G1X123.560Y53.495
G1X123.863Y53.480
G1X124.167Y53.495
G1X124.459Y53.540
G1X124.740Y53.612
G1X125.010Y53.711
G1X125.267Y53.834
G1X125.510Y53.982
G1X125.737Y54.152
G1X125.947Y54.343
G1X126.137Y54.552
G1X126.307Y54.780
G1X126.455Y55.022
G1X126.578Y55.279
G1X126.677Y55.549
G1X126.749Y55.830
G1X126.794Y56.122
G1X126.809Y56.426
G1X126.794Y56.729
G1X126.749Y57.022
G1X126.677Y57.303
G1X126.578Y57.573
G1X126.455Y57.830
G1X126.307Y58.072
G1X126.137Y58.300
G1X125.947Y58.509
G1X125.737Y58.700
G1X125.510Y58.870
G1X125.267Y59.017
G1X125.010Y59.141
G1X124.740Y59.240
G1X124.459Y59.312
G1X124.167Y59.357
G1X123.863Y59.372
G1X123.560Y59.357
G1X123.267Y59.312
G1X122.986Y59.240
G1X122.717Y59.141
G1X122.460Y59.017
G1X122.217Y58.870
G1X121.990Y58.700
G1X121.780Y58.509
G1X121.589Y58.300
G1X121.419Y58.072
G1X121.272Y57.830
G1X121.148Y57.573
G1X121.049Y57.303
G1X120.977Y57.022
G1X120.932Y56.729
G1X120.917Y56.426
G1X120.932Y56.122
G1X120.977Y55.830
G1X121.049Y55.549
G1X121.148Y55.279
G1X121.272Y55.022
G1X121.419Y54.780
G1X121.589Y54.552
G1X121.780Y54.343
G1X121.990Y54.152
G1X122.217Y53.982
G1X122.460Y53.834
G1X122.717Y53.711
G1X122.986Y53.612
G0Z5.080
G0X115.932Y85.088
G1Z-0.750F304.8
G1X132.957F1016.0
G1Y102.113
G1X115.932
G1Y85.088
G1Z-1.500F304.8
G1X132.957F1016.0
G1Y102.113
G1X115.932
G1Y85.088
G1Z-2.250F304.8
G1X132.957F1016.0
G1Y102.113
G1X115.932
G1Y85.088
G1Z-3.000F304.8
G1X132.957F1016.0
G1Y102.113
G1X115.932
G1Y85.088
G0Z5.080
G0X88.714Y85.130
G1Z-0.750F304.8
G1Y102.155F1016.0
G1X71.689
G1Y85.130
G1X88.714
G1Z-1.500F304.8
G1Y102.155F1016.0
G1X71.689
G1Y85.130
G1X88.714
G1Z-2.250F304.8
G1Y102.155F1016.0
G1X71.689
G1Y85.130
G1X88.714
G1Z-3.000F304.8
G1Y102.155F1016.0
G1X71.689
G1Y85.130
G1X88.714
G0Z5.080
G0X91.090Y116.928
G1Z-0.750F304.8
G1X91.142Y116.931F1016.0
G1Y127.988
G1X91.090Y127.992
G1X69.569
G1X69.518Y127.988
G1Y116.931
G1X69.569Y116.928
G1X91.090
G1Z-1.500F304.8
G1X91.142Y116.931F1016.0
G1Y127.988
G1X91.090Y127.992
G1X69.569
G1X69.518Y127.988
G1Y116.931
G1X69.569Y116.928
G1X91.090
G1Z-2.250F304.8
G1X91.142Y116.931F1016.0
G1Y127.988
G1X91.090Y127.992
G1X69.569
G1X69.518Y127.988
G1Y116.931
G1X69.569Y116.928
G1X91.090
G1Z-3.000F304.8
G1X91.142Y116.931F1016.0
G1Y127.988
G1X91.090Y127.992
G1X69.569
G1X69.518Y127.988
G1Y116.931
G1X69.569Y116.928
G1X91.090
G0Z5.080
G0X44.178Y102.298
G1Z-0.750F304.8
G1X27.153F1016.0
G1Y85.273
G1X44.178
G1Y102.298
G1Z-1.500F304.8
G1X27.153F1016.0
G1Y85.273
G1X44.178
G1Y102.298
G1Z-2.250F304.8
G1X27.153F1016.0
G1Y85.273
G1X44.178
G1Y102.298
G1Z-3.000F304.8
G1X27.153F1016.0
G1Y85.273
G1X44.178
G1Y102.298
G0Z5.080
M5
G0Z20.320
G0X0.000Y0.000
M2
