(VECTRIC POST REVISION)
(2410E23C85915A17A0D6BB4BFA509A68)
T1
G17
G21
G90
G0Z20.320
G0X0.000Y0.000
S16000M3
G0X32.094Y40.042
G0Z5.080
G1Z-0.500F381.0
G1X31.986Y39.714F889.0
G1X32.018
G1X32.115Y40.030
G1X32.094Y40.042
G0Z5.080
G0X32.454Y41.134
G1Z-0.500F381.0
G1X32.325Y40.741F889.0
G1X32.334
G1X32.454Y41.134
G0Z5.080
G0X32.866Y42.141
G1Z-0.500F381.0
G1X32.865Y42.138F889.0
G1X32.867
G1X32.866Y42.141
G1X32.898Y42.284
G1X32.834
G1X32.744Y42.011
G2X32.988I0.122J-0.119
G1X32.898Y42.284
G0Z5.080
G0X33.146Y40.400
G1Z-0.500F381.0
G1X32.586F889.0
G1X32.572Y40.353
G1X33.160
G1X33.146Y40.400
G0Z5.080
G0X33.278Y41.134
G1Z-0.500F381.0
G1X33.398Y40.741F889.0
G1X33.407
G1X33.278Y41.134
G0Z5.080
G0X33.642Y40.030
G1Z-0.500F381.0
G1X33.620Y40.021F889.0
G1X33.714Y39.714
G1X33.746
G1X33.642Y40.030
G0Z5.080
G0X32.912Y42.102
G1Z-1.000F381.0
G1X32.867Y42.240F889.0
G1X32.865
G1X32.819Y42.102
G1X32.912
G0Z5.080
G0X32.866Y42.139
G1Z-1.371F381.0
G1Y42.239Z-1.011F889.0
G1X32.930Y42.328Z0.000
G1X32.866Y42.239Z-1.011
G1X32.802Y42.328Z0.000
G1X32.866Y42.239Z-1.011
G1Y42.139Z-1.371
G1X32.769Y42.048Z-0.644
G1X32.748Y42.018Z-0.523
G1X32.712Y41.943Z-0.401
G1X32.331Y40.745Z-0.547
G1X32.264Y40.697Z0.250
G1X32.192Y40.645Z0.500
G1X32.142Y40.570
G1X32.080Y40.182
G1X32.078Y40.132Z0.250
G1X32.078Y40.120Z-0.038
G1X32.101Y40.024Z-0.636
G1X32.007Y39.729Z-0.672
G1X31.926Y39.670Z0.000
G1X32.007Y39.729Z-0.672
G1X32.050Y39.670Z0.000
G1X32.007Y39.729Z-0.672
G1X32.101Y40.024Z-0.636
G1X32.170Y40.061Z0.000
G1X32.101Y40.024Z-0.636
G1X32.078Y40.120Z-0.038
G1X32.078Y40.132Z0.250
G1X32.080Y40.182Z0.500
G1X32.146Y40.586
G1X32.192Y40.645
G1X32.264Y40.697Z0.250
G1X32.331Y40.745Z-0.547
G1X32.366Y40.697Z0.000
G1X32.331Y40.745Z-0.547
G1X32.712Y41.943Z-0.401
G1X32.748Y42.018Z-0.523
G1X32.804Y42.087Z-0.886
G1X32.866Y42.139Z-1.371
G1X32.963Y42.048Z-0.644
G1X32.984Y42.018Z-0.523
G1X33.020Y41.943Z-0.401
G1X33.401Y40.745Z-0.547
G1X33.366Y40.697Z0.000
G1X33.401Y40.745Z-0.547
G1X33.468Y40.697Z0.250
G1X33.563Y40.629Z0.500
G1X33.602Y40.570
G1X33.665Y40.115
G1X33.657Y40.075Z-0.173
G1X33.634Y40.014Z-0.637
G1X33.563Y40.055Z0.000
G1X33.634Y40.014Z-0.637
G1X33.725Y39.729Z-0.672
G1X33.682Y39.670Z0.000
G1X33.725Y39.729Z-0.672
G1X33.806Y39.670Z0.000
G1X33.725Y39.729Z-0.672
G1X33.634Y40.014Z-0.637
G1X33.657Y40.075Z-0.173
G1X33.665Y40.115Z0.500
G1X33.599Y40.582
G1X33.563Y40.629
G1X33.468Y40.697Z0.250
G1X33.401Y40.745Z-0.547
G1X33.020Y41.943Z-0.401
G1X32.984Y42.018Z-0.523
G1X32.928Y42.087Z-0.886
G1X32.866Y42.139Z-1.371
G0Z5.080
G0X33.129Y40.376
G1Z-0.769F381.0
G1X32.603F889.0
G1X32.554Y40.443Z0.000
G1X32.603Y40.376Z-0.769
G1X32.512Y40.309Z0.000
G1X32.603Y40.376Z-0.769
G1X33.129
G1X33.220Y40.309Z0.000
G1X33.129Y40.376Z-0.769
G1X33.178Y40.443Z0.000
G1X33.129Y40.376Z-0.769
G0Z5.080
G0X34.547Y41.914
G1Z-0.500F381.0
G1Y40.084F889.0
G1X34.571Y40.094
G1Y41.904
G1X34.547Y41.914
G0Z5.080
G0X35.923Y40.099
G1Z-0.500F381.0
G1X35.996Y40.315F889.0
G1X36.022Y40.590
G1Y41.406
G1X36.007Y41.620
G1X35.965Y41.797
G1X35.899Y41.943
G1X35.809Y42.063
G1X35.696Y42.158
G1X35.561Y42.226
G1X35.397Y42.269
G1X34.912Y42.284
G1Y42.237
G1X35.377Y42.225
G1X35.529Y42.185
G1X35.667Y42.116
G1X35.784Y42.017
G1X35.877Y41.895
G1X35.941Y41.753
G1X35.978Y41.597
G1X35.989Y40.565
G1X35.978Y40.401
G1X35.941Y40.245
G1X35.877Y40.103
G1X35.784Y39.981
G1X35.667Y39.882
G1X35.529Y39.813
G1X35.377Y39.773
G1X34.912Y39.761
G1Y39.714
G1X35.334Y39.721
G1X35.560Y39.773
G1X35.737Y39.870
G1X35.871Y40.011
G1X35.923Y40.099
G0Z5.080
G0X34.559Y41.895
G1Z-0.637F381.0
G1Y40.103F889.0
G1X34.514Y40.017Z-0.130
G1X34.503Y39.951Z0.000
G1X34.514Y40.017Z-0.130
G1X34.559Y40.103Z-0.637
G1X34.614Y40.057Z0.000
G1X34.559Y40.103Z-0.637
G1Y41.895
G1X34.614Y41.941Z0.000
G1X34.559Y41.895Z-0.637
G1X34.514Y41.981Z-0.130
G1X34.503Y42.047Z0.000
G1X34.514Y41.981Z-0.130
G1X34.559Y41.895Z-0.637
G0Z5.080
G0X35.721Y39.892
G1Z-0.811F381.0
G1X35.679Y39.862Z-0.784F889.0
G1X35.641Y39.839Z-0.805
G1X35.518Y39.785Z-0.775
G1X35.448Y39.765Z-0.789
G1X35.380Y39.751Z-0.758
G1X35.331Y39.745Z-0.778
G1X35.195Y39.737Z-0.769
G1X34.936
G1X34.868Y39.805Z0.000
G1X34.936Y39.737Z-0.769
G1X34.868Y39.670Z0.000
G1X34.936Y39.737Z-0.769
G1X35.227Y39.738Z-0.763
G1X35.331Y39.745Z-0.778
G1X35.398Y39.755Z-0.762
G1X35.448Y39.765Z-0.789
G1X35.524Y39.787Z-0.774
G1X35.641Y39.839Z-0.805
G1X35.679Y39.862Z-0.784
G1X35.721Y39.892Z-0.811
G1X35.815Y39.982Z-0.779
G1X35.850Y40.025Z-0.791
G1X35.894Y40.093Z-0.746
G1X35.946Y40.207Z-0.731
G1X35.962Y40.257Z-0.703
G1X35.978Y40.319Z-0.715
G1X35.994Y40.414Z-0.683
G1X35.998Y40.445Z-0.697
G1X36.005Y40.591Z-0.688
G1X36.004Y41.428Z-0.679
G1X35.994Y41.584Z-0.677
G1X35.990Y41.618Z-0.694
G1X35.961Y41.741Z-0.694
G1X35.946Y41.790Z-0.732
G1X35.903Y41.886Z-0.732
G1X35.879Y41.931Z-0.770
G1X35.815Y42.016Z-0.770
G1X35.785Y42.050Z-0.791
G1X35.682Y42.136Z-0.798
G1X35.552Y42.202Z-0.789
G1X35.518Y42.213Z-0.770
G1X35.393Y42.245Z-0.770
G1X35.363Y42.249Z-0.758
G1X35.194Y42.261Z-0.769
G1X34.936
G1X34.868Y42.328Z0.000
G1X34.936Y42.261Z-0.769
G1X34.868Y42.193Z0.000
G1X34.936Y42.261Z-0.769
G1X35.213Y42.260Z-0.761
G1X35.363Y42.249Z-0.758
G1X35.398Y42.244Z-0.770
G1X35.518Y42.213Z-0.770
G1X35.557Y42.200Z-0.788
G1X35.682Y42.136Z-0.798
G1X35.790Y42.046Z-0.792
G1X35.815Y42.016Z-0.770
G1X35.879Y41.931Z-0.770
G1X35.903Y41.886Z-0.732
G1X35.946Y41.790Z-0.732
G1X35.961Y41.741Z-0.694
G1X35.990Y41.618Z-0.694
G1X35.994Y41.584Z-0.677
G1X36.005Y41.405Z-0.688
G1X36.004Y40.558Z-0.682
G1X35.998Y40.445Z-0.697
G1X35.990Y40.384Z-0.683
G1X35.978Y40.319Z-0.715
G1X35.960Y40.251Z-0.702
G1X35.946Y40.207Z-0.731
G1X35.894Y40.093Z-0.746
G1X35.850Y40.025Z-0.791
G1X35.811Y39.976Z-0.778
G1X35.721Y39.892Z-0.811
G0Z5.080
G0X36.954Y40.604
G1Z-0.500F381.0
G1Y39.714F889.0
G1X36.978
G1Y40.604
G1X36.954
G0Z5.080
G0X37.539Y40.992
G1Z-0.500F381.0
G1X37.320F889.0
G1Y40.945
G1X37.502
G1X37.539Y40.992
G0Z5.080
G0X37.987Y40.617
G1Z-0.500F381.0
G1X37.953Y40.614F889.0
G1X38.359Y39.714
G1X38.413
G1X37.987Y40.617
G0Z5.080
G0X38.402Y41.616
G1Z-0.500F381.0
G1X38.382Y41.817F889.0
G1X38.325Y41.981
G1X38.238Y42.110
G1X38.125Y42.205
G1X37.985Y42.264
G1X37.807Y42.286
G1X37.320
G1Y42.239
G1X37.944Y42.228
G1X38.050Y42.192
G1X38.145Y42.131
G1X38.223Y42.050
G1X38.283Y41.955
G1X38.327Y41.843
G1X38.357Y41.616
G1X38.327Y41.389
G1X38.283Y41.277
G1X38.223Y41.182
G1X38.125Y41.088
G1X38.156Y41.054
G1X38.237Y41.121
G1X38.324Y41.251
G1X38.381Y41.416
G1X38.402Y41.616
G0Z5.080
G0X36.954Y41.334
G1Z-0.500F381.0
G1X36.978F889.0
G1Y41.898
G1X36.954
G1Y41.334
G0Z5.080
G0X38.375Y39.738
G1Z-0.778F381.0
G1X38.331Y39.670Z0.000F889.0
G1X38.375Y39.738Z-0.778
G1X38.482Y39.670Z0.000
G1X38.375Y39.738Z-0.778
G1X37.977Y40.600Z-0.688
G1X38.011Y40.670Z0.000
G1X37.977Y40.600Z-0.688
G1X37.887Y40.653Z0.000
G1X37.977Y40.600Z-0.688
G1X38.375Y39.738Z-0.778
G0Z5.080
G0X38.218Y42.092
G1Z-0.800F381.0
G1X38.159Y42.147Z-0.756F889.0
G1X38.111Y42.183Z-0.789
G1X38.051Y42.214Z-0.739
G1X37.979Y42.241Z-0.768
G1X37.927Y42.251Z-0.733
G1X37.832Y42.261Z-0.750
G1X37.805Y42.263Z-0.769
G1X37.343
G1X37.276Y42.330Z0.000
G1X37.343Y42.263Z-0.769
G1X37.276Y42.195Z0.000
G1X37.343Y42.263Z-0.769
G1X37.805
G1X37.851Y42.259Z-0.742
G1X37.931Y42.250Z-0.733
G1X37.979Y42.241Z-0.768
G1X38.051Y42.214Z-0.739
G1X38.111Y42.183Z-0.789
G1X38.159Y42.147Z-0.756
G1X38.218Y42.092Z-0.800
G1X38.252Y42.048Z-0.768
G1X38.302Y41.970Z-0.787
G1X38.342Y41.863Z-0.752
G1X38.357Y41.811Z-0.791
G1X38.378Y41.616Z-0.764
G1X38.357Y41.422Z-0.789
G1X38.342Y41.368Z-0.747
G1X38.302Y41.262Z-0.780
G1X38.248Y41.179Z-0.760
G1X38.217Y41.139Z-0.793
G1X38.159Y41.086Z-0.751
G1X38.046Y41.084Z-0.044
G1X38.015Y41.079Z0.500
G1X37.832Y41.039
G1X37.812Y41.036Z0.250
G1X37.533Y40.990Z-0.524
G1X37.488Y40.969Z-0.769
G1X37.343
G1X37.276Y41.036Z0.000
G1X37.343Y40.969Z-0.769
G1X37.276Y40.902Z0.000
G1X37.343Y40.969Z-0.769
G1X37.488
G1X37.531Y40.902Z0.000
G1X37.488Y40.969Z-0.769
G1X37.533Y40.990Z-0.524
G1X37.812Y41.036Z0.250
G1X37.832Y41.039Z0.500
G1X38.015Y41.079
G1X38.046Y41.084Z-0.044
G1X38.159Y41.086Z-0.751
G1X38.142Y40.987Z0.000
G1X38.159Y41.086Z-0.751
G1X38.217Y41.139Z-0.793
G1X38.251Y41.184Z-0.761
G1X38.302Y41.262Z-0.780
G1X38.342Y41.368Z-0.747
G1X38.357Y41.422Z-0.789
G1X38.378Y41.616Z-0.764
G1X38.357Y41.811Z-0.791
G1X38.342Y41.863Z-0.752
G1X38.302Y41.970Z-0.787
G1X38.249Y42.053Z-0.767
G1X38.218Y42.092Z-0.800
G0Z5.080
G0X36.966Y41.346
G1Z-0.637F381.0
G1X37.022Y41.290Z0.000F889.0
G1X36.966Y41.346Z-0.637
G1Y41.886
G1X37.022Y41.941Z0.000
G1X36.966Y41.886Z-0.637
G1X36.911Y41.947Z0.000
G1X36.966Y41.886Z-0.637
G1Y41.346
G1X36.911Y41.285Z0.250
G1X36.903Y41.276Z0.500
G1X36.863Y41.163
G1X36.873Y40.718
G1X36.903Y40.662
G1X36.943Y40.615Z-0.371
G1X36.966Y40.592Z-0.637
G1Y39.726
G1X36.911Y39.670Z0.000
G1X36.966Y39.726Z-0.637
G1X37.022Y39.670Z0.000
G1X36.966Y39.726Z-0.637
G1Y40.592
G1X37.022Y40.648Z0.000
G1X36.966Y40.592Z-0.637
G1X36.911Y40.653Z0.250
G1X36.903Y40.662Z0.500
G1X36.863Y40.775
G1X36.873Y41.220
G1X36.903Y41.276
G1X36.943Y41.323Z-0.371
G1X36.966Y41.346Z-0.637
G0Z5.080
G0X39.185Y42.093
G1Z-0.500F381.0
G1Y42.080F889.0
G1X39.288Y42.151
G2X39.555Y42.010I0.097J-0.141
G1Y39.714
G1X39.579
G1Y42.284
G1X39.441
G1X39.185Y42.093
G0Z5.080
G0X39.429Y42.220
G1Z-1.000F381.0
G1X39.536Y42.163F889.0
G1Y42.240
G1X39.456
G1X39.429Y42.220
G0Z5.080
G0X39.510Y42.215
G1Z-1.291F381.0
G1X39.553Y42.113Z-0.800F889.0
G1X39.567Y42.010Z-0.637
G1Y39.726
G1X39.512Y39.670Z0.000
G1X39.567Y39.726Z-0.637
G1X39.623Y39.670Z0.000
G1X39.567Y39.726Z-0.637
G1Y42.010
G1X39.553Y42.113Z-0.800
G1X39.510Y42.215Z-1.291
G1X39.623Y42.328Z0.000
G1X39.510Y42.215Z-1.291
G1X39.460Y42.226Z-1.163
G1X39.427Y42.328Z0.000
G1X39.460Y42.226Z-1.163
G1X39.362Y42.200Z-0.731
G1X39.284Y42.157Z-0.586
G1X39.190Y42.090Z-0.560
G1X39.141Y42.115Z0.000
G1X39.190Y42.090Z-0.560
G1X39.141Y41.997Z0.000
G1X39.190Y42.090Z-0.560
G1X39.284Y42.157Z-0.586
G1X39.362Y42.200Z-0.731
G1X39.460Y42.226Z-1.163
G1X39.510Y42.215Z-1.291
G0Z5.080
G0X48.431Y68.555
G1Z-0.500F381.0
G1X48.318Y68.199F889.0
G1X48.430
G1X48.511Y68.483
G1X48.431Y68.555
G0Z5.080
G0X49.216Y70.786
G1Z-0.500F381.0
G1X49.150Y70.578F889.0
G1X49.282Y70.578
G1X49.216Y70.786
G1X49.271Y70.863
G1X49.161
G1X48.645Y69.232
G1X48.723
G1X49.052Y70.388
G2X49.380I0.164J-0.047
G1X49.709Y69.232
G1X49.787
G1X49.271Y70.863
G0Z5.080
G0X50.009Y68.530
G1Z-0.500F381.0
G1X49.924Y68.475F889.0
G1X50.002Y68.199
G1X50.113
G1X50.009Y68.530
G0Z5.080
G0X48.450Y68.469
G1Z-1.000F381.0
G1X48.378Y68.242F889.0
G1X48.397
G1X48.459Y68.462
G1X48.450Y68.469
G0Z5.080
G0X49.219Y70.631
G1Z-1.000F381.0
G1X49.216Y70.641F889.0
G1X49.213Y70.631
G1X49.219
G1X49.333Y70.521
G1X49.239Y70.819
G1X49.193
G1X49.099Y70.521
G2X49.333Y70.521I0.117J-0.180
G0Z5.080
G0X49.986Y68.455
G1Z-1.000F381.0
G1X49.976Y68.449F889.0
G1X50.035Y68.242
G1X50.054
G1X49.986Y68.455
G0Z5.080
G0X49.264Y70.595
G1Z-1.500F381.0
G1X49.216Y70.746F889.0
G1X49.168Y70.595
G1X49.264
G0Z5.080
G0X49.216Y70.633
G1Z-1.888F381.0
G1Y70.788Z-1.355F889.0
G1X49.303Y70.906Z0.000
G1X49.216Y70.788Z-1.355
G1X49.129Y70.906Z0.000
G1X49.216Y70.788Z-1.355
G1Y70.633Z-1.888
G1X49.143Y70.571Z-1.305
G1X49.076Y70.488Z-0.868
G1X49.035Y70.398Z-0.722
G1X48.696Y69.269Z-0.920
G1X48.586Y69.188Z0.250
G1X48.579Y69.184Z0.500
G1X48.531Y69.138
G1X48.498Y69.061
G1X48.452Y68.767Z0.250
G1X48.430Y68.570Z-0.434
G1X48.453Y68.460Z-1.063
G1X48.390Y68.251Z-1.100
G1X48.259Y68.155Z0.000
G1X48.390Y68.251Z-1.100
G1X48.463Y68.155Z0.000
G1X48.390Y68.251Z-1.100
G1X48.453Y68.460Z-1.063
G1X48.565Y68.516Z0.000
G1X48.453Y68.460Z-1.063
G1X48.430Y68.570Z-0.434
G1X48.452Y68.767Z0.250
G1X48.498Y69.061Z0.500
G1X48.549Y69.158
G1X48.579Y69.184
G1X48.586Y69.188Z0.250
G1X48.696Y69.269Z-0.920
G1X48.756Y69.188Z0.000
G1X48.696Y69.269Z-0.920
G1X49.035Y70.398Z-0.722
G1X49.076Y70.488Z-0.868
G1X49.143Y70.571Z-1.305
G1X49.216Y70.633Z-1.888
G1X49.289Y70.571Z-1.305
G1X49.355Y70.488Z-0.868
G1X49.397Y70.398Z-0.722
G1X49.736Y69.269Z-0.920
G1X49.675Y69.188Z0.000
G1X49.736Y69.269Z-0.920
G1X49.877Y69.166Z0.500
G1X49.942Y69.082
G1X49.947Y69.061
G1X50.004Y68.689Z0.250
G1X50.012Y68.640Z-0.086
G1X50.014Y68.564Z-0.331
G1X49.983Y68.447Z-1.065
G1X49.867Y68.513Z0.000
G1X49.983Y68.447Z-1.065
G1X50.042Y68.251Z-1.100
G1X49.969Y68.155Z0.000
G1X50.042Y68.251Z-1.100
G1X50.173Y68.155Z0.000
G1X50.042Y68.251Z-1.100
G1X49.983Y68.447Z-1.065
G1X50.014Y68.564Z-0.331
G1X50.012Y68.640Z-0.086
G1X50.004Y68.689Z0.250
G1X49.947Y69.061Z0.500
G1X49.903Y69.143
G1X49.877Y69.166
G1X49.736Y69.269Z-0.920
G1X49.397Y70.398Z-0.722
G1X49.355Y70.488Z-0.868
G1X49.289Y70.571Z-1.305
G1X49.216Y70.633Z-1.888
G0Z5.080
G0X49.750Y68.930
G1Z-0.013F381.0
G0Z5.080
G0X51.284Y70.617
G1Z-0.500F381.0
G1X51.183F889.0
G1Y68.199
G1X51.284
G1Y70.617
G0Z5.080
G0X51.240Y70.573
G1Z-1.000F381.0
G1X51.227F889.0
G1Y68.242
G1X51.240
G1Y70.573
G0Z5.080
G0X51.233Y70.566
G1Z-1.076F381.0
G1X51.139Y70.660Z0.000F889.0
G1X51.233Y70.566Z-1.076
G1Y68.249
G1X51.139Y68.155Z0.000
G1X51.233Y68.249Z-1.076
G1X51.328Y68.155Z0.000
G1X51.233Y68.249Z-1.076
G1Y70.566
G1X51.328Y70.660Z0.000
G1X51.233Y70.566Z-1.076
G0Z5.080
G0X51.999Y70.780
G1Z-0.500F381.0
G1Y70.863F889.0
G1X50.468
G1Y70.780
G1X51.999
G0Z5.080
G0X51.958Y70.821
G1Z-0.970F381.0
G1X52.043Y70.906Z0.000F889.0
G1X51.958Y70.821Z-0.970
G1X50.509
G1X50.424Y70.906Z0.000
G1X50.509Y70.821Z-0.970
G1X50.424Y70.737Z0.000
G1X50.509Y70.821Z-0.970
G1X51.958
G1X52.043Y70.737Z0.000
G1X51.958Y70.821Z-0.970
G0Z5.080
G0X53.400Y70.617
G1Z-0.500F381.0
G1X53.300F889.0
G1Y68.199
G1X53.400
G1Y70.617
G0Z5.080
G0X53.357Y70.573
G1Z-1.000F381.0
G1X53.343F889.0
G1Y68.242
G1X53.357
G1Y70.573
G0Z5.080
G0X53.350Y70.566
G1Z-1.076F381.0
G1X53.256Y70.660Z0.000F889.0
G1X53.350Y70.566Z-1.076
G1Y68.249
G1X53.256Y68.155Z0.000
G1X53.350Y68.249Z-1.076
G1X53.444Y68.155Z0.000
G1X53.350Y68.249Z-1.076
G1Y70.566
G1X53.444Y70.660Z0.000
G1X53.350Y70.566Z-1.076
G0Z5.080
G0X54.116Y70.780
G1Z-0.500F381.0
G1Y70.863F889.0
G1X52.584
G1Y70.780
G1X54.116
G0Z5.080
G0X54.075Y70.821
G1Z-0.970F381.0
G1X54.159Y70.906Z0.000F889.0
G1X54.075Y70.821Z-0.970
G1X52.626
G1X52.541Y70.906Z0.000
G1X52.626Y70.821Z-0.970
G1X52.541Y70.737Z0.000
G1X52.626Y70.821Z-0.970
G1X54.075
G1X54.159Y70.737Z0.000
G1X54.075Y70.821Z-0.970
G0Z5.080
G0X61.654Y70.341
G1Z-0.500F381.0
G1X61.630Y70.099F889.0
G1X61.636Y68.834
G1X61.684Y68.619
G1X61.774Y68.447
G1X61.903Y68.316
G1X62.071Y68.223
G1X62.279Y68.174
G1X62.519
G1X62.726Y68.223
G1X62.894Y68.316
G1X63.023Y68.447
G1X63.114Y68.620
G1X63.163Y68.834
G1X63.163Y70.228
G1X63.114Y70.442
G1X63.022Y70.616
G1X62.895Y70.745
G1X62.726Y70.838
G1X62.519Y70.887
G1X62.279
G1X62.071Y70.838
G1X61.903Y70.746
G1X61.775Y70.615
G1X61.684Y70.443
G1X61.654Y70.341
G0Z5.080
G0X61.783Y70.380
G1Z-0.500F381.0
G1X61.839Y70.499F889.0
G1X61.919Y70.604
G1X62.019Y70.689
G1X62.135Y70.751
G1X62.263Y70.786
G1X62.399Y70.797
G1X62.536Y70.786
G1X62.664Y70.751
G1X62.781Y70.689
G1X62.880Y70.603
G1X62.959Y70.499
G1X63.016Y70.380
G1X63.048Y70.249
G1X63.048Y68.813
G1X63.016Y68.683
G1X62.960Y68.563
G1X62.880Y68.458
G1X62.781Y68.372
G1X62.664Y68.311
G1X62.536Y68.275
G1X62.399Y68.264
G1X62.263Y68.275
G1X62.135Y68.311
G1X62.019Y68.372
G1X61.919Y68.458
G1X61.839Y68.563
G1X61.783Y68.683
G1X61.751Y68.813
G1X61.751Y70.249
G1X61.783Y70.380
G0Z5.080
G0X61.697Y70.332
G1Z-1.000F381.0
G1X61.673Y70.098F889.0
G1X61.680Y68.839
G1X61.725Y68.634
G1X61.810Y68.473
G1X61.930Y68.351
G1X62.087Y68.264
G1X62.284Y68.218
G1X62.514
G1X62.710Y68.264
G1X62.868Y68.351
G1X62.987Y68.473
G1X63.073Y68.635
G1X63.119Y68.839
G1X63.119Y70.223
G1X63.073Y70.427
G1X62.987Y70.590
G1X62.869Y70.710
G1X62.710Y70.797
G1X62.514Y70.843
G1X62.284
G1X62.087Y70.797
G1X61.929Y70.711
G1X61.810Y70.589
G1X61.725Y70.428
G1X61.697Y70.332
G0Z5.080
G0X61.741Y70.394
G1Z-1.000F381.0
G1X61.802Y70.522F889.0
G1X61.887Y70.634
G1X61.994Y70.726
G1X62.119Y70.791
G1X62.255Y70.829
G1X62.399Y70.841
G1X62.544Y70.829
G1X62.681Y70.791
G1X62.806Y70.725
G1X62.912Y70.633
G1X62.997Y70.522
G1X63.057Y70.394
G1X63.091Y70.256
G1X63.102Y68.944
G1X63.091Y68.806
G1X63.057Y68.668
G1X62.997Y68.540
G1X62.912Y68.428
G1X62.806Y68.336
G1X62.681Y68.270
G1X62.544Y68.232
G1X62.399Y68.220
G1X62.255Y68.232
G1X62.119Y68.270
G1X61.994Y68.336
G1X61.887Y68.428
G1X61.801Y68.540
G1X61.741Y68.668
G1X61.707Y68.806
G1X61.697Y70.117
G1X61.707Y70.256
G1X61.741Y70.394
G0Z5.080
G0X61.824Y70.579
G1Z-1.194F381.0
G1X61.894Y70.660Z-1.173F889.0
G1X61.939Y70.698Z-1.177
G1X61.993Y70.737Z-1.137
G1X62.094Y70.789Z-1.111
G1X62.139Y70.805Z-1.089
G1X62.182Y70.818Z-1.095
G1X62.257Y70.834Z-1.057
G1X62.285Y70.838Z-1.066
G1X62.417Y70.844Z-1.050
G1X62.524Y70.836Z-1.061
G1X62.565Y70.829Z-1.062
G1X62.616Y70.818Z-1.093
G1X62.666Y70.803Z-1.085
G1X62.788Y70.748Z-1.135
G1X62.832Y70.719Z-1.143
G1X62.860Y70.698Z-1.171
G1X62.937Y70.625Z-1.173
G1X62.973Y70.580Z-1.188
G1X63.007Y70.530Z-1.160
G1X63.021Y70.506Z-1.170
G1X63.061Y70.420Z-1.159
G1X63.075Y70.377Z-1.145
G1X63.088Y70.328Z-1.158
G1X63.102Y70.258Z-1.129
G1X63.107Y70.222Z-1.143
G1X63.114Y70.097Z-1.136
G1X63.112Y68.935Z-1.131
G1X63.105Y68.823Z-1.134
G1X63.098Y68.786Z-1.134
G1X63.088Y68.735Z-1.158
G1X63.072Y68.676Z-1.144
G1X63.060Y68.640Z-1.162
G1X63.020Y68.554Z-1.171
G1X62.995Y68.513Z-1.167
G1X62.974Y68.482Z-1.187
G1X62.905Y68.403Z-1.165
G1X62.859Y68.363Z-1.167
G1X62.807Y68.325Z-1.128
G1X62.788Y68.313Z-1.135
G1X62.660Y68.256Z-1.086
G1X62.616Y68.243Z-1.093
G1X62.543Y68.228Z-1.056
G1X62.514Y68.223Z-1.066
G1X62.381Y68.217Z-1.050
G1X62.275Y68.225Z-1.062
G1X62.234Y68.232Z-1.064
G1X62.182Y68.244Z-1.095
G1X62.134Y68.258Z-1.088
G1X62.009Y68.314Z-1.142
G1X61.968Y68.341Z-1.147
G1X61.939Y68.363Z-1.174
G1X61.861Y68.437Z-1.175
G1X61.823Y68.483Z-1.193
G1X61.792Y68.530Z-1.170
G1X61.777Y68.556Z-1.181
G1X61.726Y68.677Z-1.149
G1X61.711Y68.734Z-1.161
G1X61.697Y68.804Z-1.131
G1X61.692Y68.840Z-1.144
G1X61.685Y68.964Z-1.135
G1X61.686Y70.126Z-1.131
G1X61.694Y70.239Z-1.136
G1X61.700Y70.276Z-1.135
G1X61.711Y70.329Z-1.161
G1X61.726Y70.386Z-1.148
G1X61.739Y70.423Z-1.167
G1X61.778Y70.508Z-1.178
G1X61.804Y70.550Z-1.175
G1X61.824Y70.579Z-1.194
G0Z5.080
G1Z-1.194F381.0
G1X61.791Y70.532Z-1.169F889.0
G1X61.776Y70.506Z-1.180
G1X61.726Y70.386Z-1.148
G1X61.711Y70.329Z-1.161
G1X61.697Y70.258Z-1.131
G1X61.692Y70.222Z-1.144
G1X61.685Y70.098Z-1.135
G1X61.686Y68.935Z-1.131
G1X61.694Y68.823Z-1.136
G1X61.700Y68.785Z-1.135
G1X61.711Y68.734Z-1.161
G1X61.726Y68.677Z-1.149
G1X61.739Y68.639Z-1.168
G1X61.777Y68.556Z-1.181
G1X61.803Y68.513Z-1.175
G1X61.823Y68.483Z-1.193
G1X61.895Y68.401Z-1.169
G1X61.939Y68.363Z-1.174
G1X61.992Y68.325Z-1.136
G1X62.010Y68.313Z-1.142
G1X62.134Y68.258Z-1.088
G1X62.182Y68.244Z-1.095
G1X62.257Y68.228Z-1.057
G1X62.285Y68.224Z-1.066
G1X62.417Y68.217Z-1.050
G1X62.524Y68.225Z-1.061
G1X62.565Y68.232Z-1.063
G1X62.616Y68.243Z-1.093
G1X62.666Y68.258Z-1.085
G1X62.788Y68.313Z-1.135
G1X62.832Y68.343Z-1.141
G1X62.859Y68.363Z-1.167
G1X62.938Y68.437Z-1.170
G1X62.974Y68.482Z-1.187
G1X63.007Y68.531Z-1.162
G1X63.021Y68.555Z-1.171
G1X63.061Y68.643Z-1.159
G1X63.075Y68.685Z-1.145
G1X63.088Y68.735Z-1.158
G1X63.102Y68.803Z-1.129
G1X63.107Y68.840Z-1.143
G1X63.114Y68.964Z-1.136
G1X63.112Y70.126Z-1.131
G1X63.105Y70.239Z-1.135
G1X63.098Y70.276Z-1.134
G1X63.088Y70.328Z-1.158
G1X63.072Y70.387Z-1.144
G1X63.060Y70.422Z-1.161
G1X63.007Y70.530Z-1.160
G1X62.973Y70.580Z-1.188
G1X62.905Y70.659Z-1.169
G1X62.860Y70.698Z-1.171
G1X62.806Y70.737Z-1.129
G1X62.707Y70.789Z-1.109
G1X62.660Y70.805Z-1.086
G1X62.616Y70.818Z-1.093
G1X62.543Y70.834Z-1.056
G1X62.514Y70.838Z-1.066
G1X62.381Y70.844Z-1.050
G1X62.275Y70.837Z-1.062
G1X62.234Y70.829Z-1.064
G1X62.182Y70.818Z-1.095
G1X62.134Y70.804Z-1.088
G1X62.009Y70.747Z-1.142
G1X61.968Y70.720Z-1.149
G1X61.939Y70.698Z-1.177
G1X61.861Y70.626Z-1.178
G1X61.824Y70.579Z-1.194
G0Z5.080
G0X64.027Y69.871
G1Z-0.500F381.0
G1X64.128Y69.875F889.0
G1Y70.439
G1X64.027Y70.443
G1Y69.871
G0Z5.080
G0Y69.116
G1Z-0.500F381.0
G1Y68.199F889.0
G1X64.128
G1Y69.112
G1X64.027Y69.116
G0Z5.080
G0X64.071Y69.919
G1Z-1.000F381.0
G1X64.084F889.0
G1Y70.395
G1X64.071
G1Y69.919
G0Z5.080
G0Y69.068
G1Z-1.000F381.0
G1Y68.242F889.0
G1X64.084
G1Y69.068
G1X64.071
G0Z5.080
G0X64.078Y69.925
G1Z-1.076F381.0
G1X64.172Y69.831Z0.000F889.0
G1X64.078Y69.925Z-1.076
G1Y70.388
G1X64.172Y70.483Z0.000
G1X64.078Y70.388Z-1.076
G1X63.987Y70.505Z-0.040
G1X63.984Y70.513Z0.000
G1X64.013Y70.462Z-0.338
G1X64.078Y70.388Z-1.076
G1Y69.925
G1X63.987Y69.809Z-0.040
G1X63.974Y69.778Z0.500
G1X63.961Y69.704
G1Y69.283
G1X63.974Y69.209
G1X63.987Y69.178Z-0.040
G1X64.078Y69.061Z-1.076
G1Y68.249
G1X63.984Y68.155Z0.000
G1X64.078Y68.249Z-1.076
G1X64.172Y68.155Z0.000
G1X64.078Y68.249Z-1.076
G1Y69.061
G1X64.172Y69.156Z0.000
G1X64.078Y69.061Z-1.076
G1X63.987Y69.178Z-0.040
G1X63.974Y69.209Z0.500
G1X63.961Y69.283
G1Y69.704
G1X63.974Y69.778
G1X63.987Y69.809Z-0.040
G1X64.078Y69.925Z-1.076
G0Z5.080
G0X66.113Y69.871
G1Z-0.500F381.0
G1X66.214Y69.875F889.0
G1Y70.439
G1X66.113Y70.443
G1Y69.871
G0Z5.080
G0Y69.116
G1Z-0.500F381.0
G1Y68.199F889.0
G1X66.214
G1Y69.112
G1X66.113Y69.116
G0Z5.080
G0X66.157Y69.919
G1Z-1.000F381.0
G1X66.170F889.0
G1Y70.395
G1X66.157
G1Y69.919
G0Z5.080
G0Y69.068
G1Z-1.000F381.0
G1Y68.242F889.0
G1X66.170
G1Y69.068
G1X66.157
G0Z5.080
G0X66.163Y69.925
G1Z-1.076F381.0
G1X66.258Y69.831Z0.000F889.0
G1X66.163Y69.925Z-1.076
G1Y70.388
G1X66.258Y70.483Z0.000
G1X66.163Y70.388Z-1.076
G1X66.073Y70.505Z-0.040
G1X66.069Y70.513Z0.000
G1X66.099Y70.462Z-0.338
G1X66.163Y70.388Z-1.076
G1Y69.925
G1X66.073Y69.809Z-0.040
G1X66.060Y69.778Z0.500
G1X66.047Y69.704
G1Y69.283
G1X66.060Y69.209
G1X66.073Y69.178Z-0.040
G1X66.163Y69.061Z-1.076
G1Y68.249
G1X66.069Y68.155Z0.000
G1X66.163Y68.249Z-1.076
G1X66.258Y68.155Z0.000
G1X66.163Y68.249Z-1.076
G1Y69.061
G1X66.258Y69.156Z0.000
G1X66.163Y69.061Z-1.076
G1X66.073Y69.178Z-0.040
G1X66.060Y69.209Z0.500
G1X66.047Y69.283
G1Y69.704
G1X66.060Y69.778
G1X66.073Y69.809Z-0.040
G1X66.163Y69.925Z-1.076
G0Z5.080
G0X76.623Y76.685
G1Z-0.500F381.0
G1X76.757Y76.759F889.0
G1X76.642Y76.989
G1X76.622
G1Y76.684
G1X76.623Y76.685
G1X76.679Y76.634
G2X76.889Y76.666I0.125J-0.116
G1X76.688Y77.064
G1X76.547
G1Y74.402
G1X76.633Y74.402
G1Y76.314
G1X76.598Y76.382
G2X76.625Y76.576I0.152J0.078
G1X76.679Y76.634
G0Z5.080
G0X77.716Y74.950
G1Z-0.500F381.0
G1Y75.021F889.0
G1X76.975Y76.495
G1Y76.396
G1X77.716Y74.950
G0Z5.080
G0X78.061Y74.721
G1Z-0.500F381.0
G1X77.952Y74.657F889.0
G1X78.044Y74.477
G1X78.069
G1Y74.728
G1X78.061Y74.721
G1X78.008Y74.774
G2X77.827Y74.735I-0.121J0.121
G1X77.998Y74.402
G1X78.144
G1Y77.064
G1X78.058
G1Y75.102
G1X78.095Y75.027
G2X78.064Y74.830I-0.153J-0.077
G1X78.008Y74.774
G0Z5.080
G0X78.025Y74.640
G1Z-1.000F381.0
G1X78.013Y74.634F889.0
G1X78.025Y74.610
G1Y74.640
G1X78.039Y74.743
G1X77.904Y74.681
G1X78.024Y74.446
G1X78.101
G1Y74.805
G1X78.039Y74.743
G0Z5.080
G0X76.666Y76.773
G1Z-1.000F381.0
G1X76.695Y76.786F889.0
G1X76.666Y76.843
G1Y76.773
G1X76.647Y76.663
G2X76.807Y76.732I0.157J-0.146
G1X76.661Y77.020
G1X76.591
G1Y76.603
G1X76.647Y76.663
G0Z5.080
G0X77.969Y74.650
G1Z-1.500F381.0
G1X78.051Y74.490F889.0
G1X78.057
G1Y74.700
G1X77.969Y74.650
G0Z5.080
G0X76.634Y76.712
G1Z-1.500F381.0
G1X76.740Y76.768F889.0
G1X76.635Y76.976
G1X76.634
G1Y76.712
G0Z5.080
G0X76.678Y76.792
G1Z-2.000F381.0
G1X76.678Y76.793F889.0
G1Y76.792
G0Z5.080
G1X76.678Y76.792Z-2.001F381.0
G1X76.783Y76.746Z-1.170F889.0
G1X76.880Y76.675Z-0.546
G1X76.902Y76.651Z-0.442
G1X76.944Y76.588Z-0.338
G1X76.969Y76.518Z-0.439
G1X76.997Y76.402Z-0.754
G1X77.700Y75.017Z-0.685
G1X77.730Y74.895Z-0.347
G1X77.755Y74.827Z-0.248
G1X77.797Y74.766Z-0.352
G1X77.855Y74.712Z-0.666
G1X77.915Y74.675Z-1.085
G1X78.020Y74.631Z-1.922
G1X78.053Y74.493Z-1.540
G1X77.971Y74.358Z0.000
G1X78.053Y74.493Z-1.540
G1X78.188Y74.358Z0.000
G1X78.053Y74.493Z-1.540
G1X78.020Y74.631Z-1.922
G1X78.097Y74.797Z-1.040
G1X78.113Y74.842Z-0.857
G1X78.129Y74.951Z-0.675
G1X78.119Y75.039Z-0.795
G1X78.101Y75.112Z-0.994
G1Y77.021
G1X78.188Y77.108Z0.000
G1X78.101Y77.021Z-0.994
G1X78.014Y77.108Z0.000
G1X78.101Y77.021Z-0.994
G1Y75.112
G1X78.119Y75.039Z-0.795
G1X78.129Y74.951Z-0.675
G1X78.113Y74.842Z-0.857
G1X78.064Y74.718Z-1.413
G1X78.020Y74.631Z-1.922
G1X77.915Y74.675Z-1.085
G1X77.819Y74.742Z-0.457
G1X77.797Y74.766Z-0.352
G1X77.755Y74.827Z-0.248
G1X77.730Y74.895Z-0.347
G1X77.700Y75.017Z-0.685
G1X76.997Y76.402Z-0.754
G1X76.969Y76.518Z-0.439
G1X76.944Y76.588Z-0.338
G1X76.902Y76.651Z-0.442
G1X76.844Y76.706Z-0.754
G1X76.783Y76.746Z-1.170
G1X76.678Y76.792Z-2.001
G1X76.634Y76.976Z-1.501
G1X76.715Y77.108Z0.000
G1X76.634Y76.976Z-1.501
G1X76.503Y77.108Z0.000
G1X76.634Y76.976Z-1.501
G1X76.678Y76.792Z-2.001
G1X76.623Y76.685Z-1.370
G1X76.578Y76.563Z-0.851
G1X76.563Y76.460Z-0.687
G1X76.574Y76.369Z-0.811
G1X76.590Y76.303Z-0.994
G1Y74.445
G1X76.503Y74.358Z0.000
G1X76.590Y74.445Z-0.994
G1X76.677Y74.358Z0.000
G1X76.590Y74.445Z-0.994
G1Y76.303
G1X76.574Y76.369Z-0.811
G1X76.563Y76.460Z-0.687
G1X76.578Y76.563Z-0.851
G1X76.623Y76.685Z-1.370
G1X76.678Y76.792Z-2.001
G0Z5.080
G0X78.983Y74.756
G1Z-0.500F381.0
G1X78.871Y74.400F889.0
G1X78.982
G1X79.063Y74.685
G1X78.983Y74.756
G0Z5.080
G0X79.768Y76.987
G1Z-0.500F381.0
G1X79.703Y76.780F889.0
G1X79.834Y76.780
G1X79.768Y76.987
G1X79.713Y77.064
G1X79.198Y75.434
G1X79.276
G1X79.604Y76.589
G2X79.932I0.164J-0.047
G1X80.261Y75.434
G1X80.339
G1X79.823Y77.064
G1X79.713
G0Z5.080
G0X80.561Y74.732
G1Z-0.500F381.0
G1X80.476Y74.677F889.0
G1X80.554Y74.400
G1X80.666
G1X80.561Y74.732
G0Z5.080
G0X79.002Y74.670
G1Z-1.000F381.0
G1X78.930Y74.444F889.0
G1X78.949
G1X79.011Y74.664
G1X79.002Y74.670
G0Z5.080
G0X79.765Y76.832
G1Z-1.000F381.0
G1X79.771F889.0
G1X79.768Y76.842
G1X79.765Y76.832
G1X79.651Y76.722
G2X79.885Y76.722I0.117J-0.180
G1X79.791Y77.020
G1X79.745
G1X79.651Y76.722
G0Z5.080
G0X80.539Y74.656
G1Z-1.000F381.0
G1X80.529Y74.651F889.0
G1X80.588Y74.444
G1X80.606
G1X80.539Y74.656
G0Z5.080
G0X79.816Y76.796
G1Z-1.500F381.0
G1X79.768Y76.947F889.0
G1X79.720Y76.796
G1X79.816
G0Z5.080
G0X79.768Y76.835
G1Z-1.888F381.0
G1Y76.989Z-1.355F889.0
G1X79.855Y77.108Z0.000
G1X79.768Y76.989Z-1.355
G1X79.681Y77.108Z0.000
G1X79.768Y76.989Z-1.355
G1Y76.835Z-1.888
G1X79.695Y76.772Z-1.305
G1X79.629Y76.690Z-0.868
G1X79.587Y76.600Z-0.722
G1X79.248Y75.470Z-0.920
G1X79.138Y75.390Z0.250
G1X79.132Y75.385Z0.500
G1X79.083Y75.339
G1X79.050Y75.263
G1X79.005Y74.968Z0.250
G1X78.982Y74.771Z-0.434
G1X79.005Y74.661Z-1.063
G1X78.942Y74.453Z-1.100
G1X78.811Y74.356Z0.000
G1X78.942Y74.453Z-1.100
G1X79.015Y74.356Z0.000
G1X78.942Y74.453Z-1.100
G1X79.005Y74.661Z-1.063
G1X79.117Y74.717Z0.000
G1X79.005Y74.661Z-1.063
G1X78.982Y74.771Z-0.434
G1X79.005Y74.968Z0.250
G1X79.050Y75.263Z0.500
G1X79.101Y75.359
G1X79.132Y75.385
G1X79.138Y75.390Z0.250
G1X79.248Y75.470Z-0.920
G1X79.309Y75.390Z0.000
G1X79.248Y75.470Z-0.920
G1X79.587Y76.600Z-0.722
G1X79.629Y76.690Z-0.868
G1X79.695Y76.772Z-1.305
G1X79.768Y76.835Z-1.888
G1X79.841Y76.772Z-1.305
G1X79.908Y76.690Z-0.868
G1X79.949Y76.600Z-0.722
G1X80.289Y75.470Z-0.920
G1X80.228Y75.390Z0.000
G1X80.289Y75.470Z-0.920
G1X80.430Y75.367Z0.500
G1X80.494Y75.283
G1X80.499Y75.263
G1X80.557Y74.890Z0.250
G1X80.564Y74.841Z-0.086
G1X80.566Y74.765Z-0.331
G1X80.535Y74.648Z-1.065
G1X80.420Y74.714Z0.000
G1X80.535Y74.648Z-1.065
G1X80.594Y74.452Z-1.100
G1X80.521Y74.356Z0.000
G1X80.594Y74.452Z-1.100
G1X80.725Y74.356Z0.000
G1X80.594Y74.452Z-1.100
G1X80.535Y74.648Z-1.065
G1X80.566Y74.765Z-0.331
G1X80.564Y74.841Z-0.086
G1X80.557Y74.890Z0.250
G1X80.499Y75.263Z0.500
G1X80.456Y75.345
G1X80.430Y75.367
G1X80.289Y75.470Z-0.920
G1X79.949Y76.600Z-0.722
G1X79.908Y76.690Z-0.868
G1X79.841Y76.772Z-1.305
G1X79.768Y76.835Z-1.888
G0Z5.080
G0X80.302Y75.131
G1Z-0.013F381.0
G0Z5.080
G0X81.881Y74.475
G1Z-0.500F381.0
G1X81.956Y74.749F889.0
G2X81.755I-0.100J0.225
G1X81.831Y74.475
G1X81.881
G1X81.939Y74.400
G1X82.672Y77.064
G1X82.557
G1X82.021Y74.932
G2X81.690I-0.166J0.042
G1X81.154Y77.064
G1X81.040
G1X81.773Y74.400
G1X81.939
G0Z5.080
G0X81.856Y74.551
G1Z-1.000F381.0
G1X81.893Y74.685F889.0
G1X81.819
G1X81.856Y74.551
G1X81.905Y74.444
G1X82.010Y74.824
G2X81.702Y74.824I-0.154J0.149
G1X81.806Y74.444
G1X81.905
G0Z5.080
G0X82.352Y76.069
G1Z-1.000F381.0
G1X82.614Y77.020F889.0
G1X82.592
G1X82.352Y76.069
G0Z5.080
G0X81.359Y76.069
G1Z-1.000F381.0
G1X81.120Y77.020F889.0
G1X81.098
G1X81.359Y76.069
G0Z5.080
G0X81.773Y74.729
G1Z-1.500F381.0
G1X81.840Y74.488F889.0
G1X81.872
G1X81.938Y74.729
G1X81.773
G0Z5.080
G0X81.834Y74.672
G1Z-2.000F381.0
G1X81.856Y74.594F889.0
G1X81.877Y74.672
G1X81.834Y74.672
G0Z5.080
G0X81.856Y74.655
G1Z-2.186F381.0
G1Y74.509Z-1.742F889.0
G1X81.740Y74.356Z0.000
G1X81.856Y74.509Z-1.742
G1X81.972Y74.356Z0.000
G1X81.856Y74.509Z-1.742
G1Y74.655Z-2.186
G1X81.936Y74.726Z-1.518
G1X82.007Y74.819Z-1.017
G1X82.050Y74.920Z-0.850
G1X82.600Y77.010Z-1.123
G1X82.729Y77.108Z0.000
G1X82.600Y77.010Z-1.123
G1X82.523Y77.108Z0.000
G1X82.600Y77.010Z-1.123
G1X82.050Y74.920Z-0.850
G1X82.007Y74.819Z-1.017
G1X81.936Y74.726Z-1.518
G1X81.856Y74.655Z-2.186
G1X81.776Y74.726Z-1.518
G1X81.705Y74.819Z-1.017
G1X81.662Y74.920Z-0.850
G1X81.112Y77.010Z-1.123
G1X81.188Y77.108Z0.000
G1X81.112Y77.010Z-1.123
G1X80.983Y77.108Z0.000
G1X81.112Y77.010Z-1.123
G1X81.662Y74.920Z-0.850
G1X81.705Y74.819Z-1.017
G1X81.776Y74.726Z-1.518
G1X81.856Y74.655Z-2.186
G0Z5.080
G0X92.684Y68.555
G1Z-0.500F381.0
G1X92.571Y68.199F889.0
G1X92.682
G1X92.763Y68.483
G1X92.684Y68.555
G0Z5.080
G0X94.261Y68.530
G1Z-0.500F381.0
G1X94.176Y68.475F889.0
G1X94.255Y68.199
G1X94.366
G1X94.261Y68.530
G0Z5.080
G0X93.469Y70.786
G1Z-0.500F381.0
G1X93.403Y70.578F889.0
G1X93.534Y70.578
G1X93.469Y70.786
G1X93.414Y70.863
G1X92.898Y69.232
G1X92.976
G1X93.304Y70.388
G2X93.633I0.164J-0.047
G1X93.961Y69.232
G1X94.039
G1X93.523Y70.863
G1X93.414
G0Z5.080
G0X92.702Y68.469
G1Z-1.000F381.0
G1X92.631Y68.242F889.0
G1X92.649
G1X92.712Y68.462
G1X92.702Y68.469
G0Z5.080
G0X94.239Y68.455
G1Z-1.000F381.0
G1X94.229Y68.449F889.0
G1X94.288Y68.242
G1X94.307
G1X94.239Y68.455
G0Z5.080
G0X93.466Y70.631
G1Z-1.000F381.0
G1X93.472F889.0
G1X93.469Y70.641
G1X93.466Y70.631
G1X93.352Y70.521
G2X93.586Y70.521I0.117J-0.180
G1X93.491Y70.819
G1X93.446
G1X93.352Y70.521
G0Z5.080
G0X93.516Y70.595
G1Z-1.500F381.0
G1X93.469Y70.746F889.0
G1X93.421Y70.595
G1X93.516
G0Z5.080
G0X93.469Y70.633
G1Z-1.888F381.0
G1Y70.788Z-1.355F889.0
G1X93.555Y70.906Z0.000
G1X93.469Y70.788Z-1.355
G1X93.382Y70.906Z0.000
G1X93.469Y70.788Z-1.355
G1Y70.633Z-1.888
G1X93.395Y70.571Z-1.305
G1X93.329Y70.488Z-0.868
G1X93.287Y70.398Z-0.722
G1X92.948Y69.269Z-0.920
G1X92.838Y69.188Z0.250
G1X92.832Y69.184Z0.500
G1X92.784Y69.138
G1X92.750Y69.061
G1X92.705Y68.767Z0.250
G1X92.683Y68.570Z-0.434
G1X92.705Y68.460Z-1.063
G1X92.643Y68.251Z-1.100
G1X92.511Y68.155Z0.000
G1X92.643Y68.251Z-1.100
G1X92.715Y68.155Z0.000
G1X92.643Y68.251Z-1.100
G1X92.705Y68.460Z-1.063
G1X92.818Y68.516Z0.000
G1X92.705Y68.460Z-1.063
G1X92.683Y68.570Z-0.434
G1X92.705Y68.767Z0.250
G1X92.750Y69.061Z0.500
G1X92.801Y69.158
G1X92.832Y69.184
G1X92.838Y69.188Z0.250
G1X92.948Y69.269Z-0.920
G1X93.009Y69.188Z0.000
G1X92.948Y69.269Z-0.920
G1X93.287Y70.398Z-0.722
G1X93.329Y70.488Z-0.868
G1X93.395Y70.571Z-1.305
G1X93.469Y70.633Z-1.888
G1X93.542Y70.571Z-1.305
G1X93.608Y70.488Z-0.868
G1X93.650Y70.398Z-0.722
G1X93.989Y69.269Z-0.920
G1X93.928Y69.188Z0.000
G1X93.989Y69.269Z-0.920
G1X94.130Y69.166Z0.500
G1X94.195Y69.082
G1X94.200Y69.061
G1X94.257Y68.689Z0.250
G1X94.265Y68.640Z-0.086
G1X94.266Y68.564Z-0.331
G1X94.236Y68.447Z-1.065
G1X94.120Y68.513Z0.000
G1X94.236Y68.447Z-1.065
G1X94.295Y68.251Z-1.100
G1X94.222Y68.155Z0.000
G1X94.295Y68.251Z-1.100
G1X94.426Y68.155Z0.000
G1X94.295Y68.251Z-1.100
G1X94.236Y68.447Z-1.065
G1X94.266Y68.564Z-0.331
G1X94.265Y68.640Z-0.086
G1X94.257Y68.689Z0.250
G1X94.200Y69.061Z0.500
G1X94.156Y69.143
G1X94.130Y69.166
G1X93.989Y69.269Z-0.920
G1X93.650Y70.398Z-0.722
G1X93.608Y70.488Z-0.868
G1X93.542Y70.571Z-1.305
G1X93.469Y70.633Z-1.888
G0Z5.080
G0X94.003Y68.930
G1Z-0.013F381.0
G0Z5.080
G0X95.537Y70.617
G1Z-0.500F381.0
G1X95.436F889.0
G1Y68.199
G1X95.537
G1Y70.617
G0Z5.080
G0X95.493Y70.573
G1Z-1.000F381.0
G1X95.479F889.0
G1Y68.242
G1X95.493
G1Y70.573
G0Z5.080
G0X95.486Y70.566
G1Z-1.076F381.0
G1X95.392Y70.660Z0.000F889.0
G1X95.486Y70.566Z-1.076
G1Y68.249
G1X95.392Y68.155Z0.000
G1X95.486Y68.249Z-1.076
G1X95.580Y68.155Z0.000
G1X95.486Y68.249Z-1.076
G1Y70.566
G1X95.580Y70.660Z0.000
G1X95.486Y70.566Z-1.076
G0Z5.080
G0X96.252Y70.780
G1Z-0.500F381.0
G1Y70.863F889.0
G1X94.720
G1Y70.780
G1X96.252
G0Z5.080
G0X96.211Y70.821
G1Z-0.970F381.0
G1X96.295Y70.906Z0.000F889.0
G1X96.211Y70.821Z-0.970
G1X94.762
G1X94.677Y70.906Z0.000
G1X94.762Y70.821Z-0.970
G1X94.677Y70.737Z0.000
G1X94.762Y70.821Z-0.970
G1X96.211
G1X96.295Y70.737Z0.000
G1X96.211Y70.821Z-0.970
G0Z5.080
G0X97.653Y70.617
G1Z-0.500F381.0
G1X97.552F889.0
G1Y68.199
G1X97.653
G1Y70.617
G0Z5.080
G0X97.609Y70.573
G1Z-1.000F381.0
G1X97.596F889.0
G1Y68.242
G1X97.609
G1Y70.573
G0Z5.080
G0X97.603Y70.566
G1Z-1.076F381.0
G1X97.509Y70.660Z0.000F889.0
G1X97.603Y70.566Z-1.076
G1Y68.249
G1X97.509Y68.155Z0.000
G1X97.603Y68.249Z-1.076
G1X97.697Y68.155Z0.000
G1X97.603Y68.249Z-1.076
G1Y70.566
G1X97.697Y70.660Z0.000
G1X97.603Y70.566Z-1.076
G0Z5.080
G0X98.368Y70.780
G1Z-0.500F381.0
G1Y70.863F889.0
G1X96.837
G1Y70.780
G1X98.368
G0Z5.080
G0X98.327Y70.821
G1Z-0.970F381.0
G1X98.412Y70.906Z0.000F889.0
G1X98.327Y70.821Z-0.970
G1X96.878
G1X96.793Y70.906Z0.000
G1X96.878Y70.821Z-0.970
G1X96.793Y70.737Z0.000
G1X96.878Y70.821Z-0.970
G1X98.327
G1X98.412Y70.737Z0.000
G1X98.327Y70.821Z-0.970
G0Z5.080
G0X105.906Y70.341
G1Z-0.500F381.0
G1X105.882Y70.099F889.0
G1X105.888Y68.834
G1X105.936Y68.619
G1X106.027Y68.447
G1X106.155Y68.316
G1X106.324Y68.223
G1X106.531Y68.174
G1X106.771
G1X106.978Y68.223
G1X107.147Y68.316
G1X107.275Y68.447
G1X107.366Y68.620
G1X107.415Y68.834
G1Y70.228
G1X107.366Y70.442
G1X107.275Y70.616
G1X107.147Y70.745
G1X106.978Y70.838
G1X106.771Y70.887
G1X106.531
G1X106.324Y70.838
G1X106.155Y70.746
G1X106.027Y70.615
G1X105.936Y70.443
G1X105.906Y70.341
G0Z5.080
G0X106.035Y70.380
G1Z-0.500F381.0
G1X106.091Y70.499F889.0
G1X106.171Y70.604
G1X106.271Y70.689
G1X106.387Y70.751
G1X106.515Y70.786
G1X106.651Y70.797
G1X106.788Y70.786
G1X106.917Y70.751
G1X107.033Y70.689
G1X107.132Y70.603
G1X107.212Y70.499
G1X107.268Y70.380
G1X107.300Y70.249
G1X107.300Y68.813
G1X107.268Y68.683
G1X107.212Y68.563
G1X107.132Y68.458
G1X107.033Y68.372
G1X106.917Y68.311
G1X106.788Y68.275
G1X106.651Y68.264
G1X106.515Y68.275
G1X106.387Y68.311
G1X106.271Y68.372
G1X106.171Y68.458
G1X106.091Y68.563
G1X106.035Y68.683
G1X106.003Y68.813
G1X106.003Y70.249
G1X106.035Y70.380
G0Z5.080
G0X105.949Y70.332
G1Z-1.000F381.0
G1X105.925Y70.098F889.0
G1X105.932Y68.839
G1X105.977Y68.634
G1X106.062Y68.473
G1X106.182Y68.351
G1X106.339Y68.264
G1X106.536Y68.218
G1X106.767
G1X106.962Y68.264
G1X107.120Y68.351
G1X107.239Y68.473
G1X107.325Y68.635
G1X107.371Y68.839
G1Y70.223
G1X107.325Y70.427
G1X107.239Y70.590
G1X107.121Y70.710
G1X106.962Y70.797
G1X106.767Y70.843
G1X106.536
G1X106.339Y70.797
G1X106.181Y70.711
G1X106.062Y70.589
G1X105.977Y70.428
G1X105.949Y70.332
G0Z5.080
G0X105.994Y70.394
G1Z-1.000F381.0
G1X106.054Y70.522F889.0
G1X106.139Y70.634
G1X106.246Y70.726
G1X106.371Y70.791
G1X106.508Y70.829
G1X106.651Y70.841
G1X106.796Y70.829
G1X106.933Y70.791
G1X107.058Y70.725
G1X107.164Y70.633
G1X107.249Y70.522
G1X107.309Y70.394
G1X107.344Y70.256
G1X107.354Y68.944
G1X107.344Y68.806
G1X107.309Y68.668
G1X107.249Y68.540
G1X107.164Y68.428
G1X107.058Y68.336
G1X106.933Y68.270
G1X106.796Y68.232
G1X106.651Y68.220
G1X106.508Y68.232
G1X106.371Y68.270
G1X106.246Y68.336
G1X106.139Y68.428
G1X106.054Y68.540
G1X105.994Y68.668
G1X105.959Y68.806
G1X105.949Y70.117
G1X105.959Y70.256
G1X105.994Y70.394
G0Z5.080
G0X106.076Y70.579
G1Z-1.194F381.0
G1X106.147Y70.660Z-1.173F889.0
G1X106.191Y70.698Z-1.177
G1X106.245Y70.737Z-1.137
G1X106.346Y70.789Z-1.111
G1X106.391Y70.805Z-1.089
G1X106.434Y70.818Z-1.095
G1X106.509Y70.834Z-1.057
G1X106.537Y70.838Z-1.066
G1X106.669Y70.844Z-1.050
G1X106.776Y70.836Z-1.061
G1X106.817Y70.829Z-1.062
G1X106.868Y70.818Z-1.093
G1X106.918Y70.803Z-1.085
G1X107.040Y70.748Z-1.135
G1X107.085Y70.719Z-1.143
G1X107.112Y70.698Z-1.171
G1X107.189Y70.625Z-1.173
G1X107.226Y70.580Z-1.188
G1X107.259Y70.530Z-1.160
G1X107.273Y70.506Z-1.170
G1X107.313Y70.420Z-1.159
G1X107.327Y70.377Z-1.145
G1X107.340Y70.328Z-1.158
G1X107.354Y70.258Z-1.129
G1X107.359Y70.222Z-1.143
G1X107.366Y70.097Z-1.135
G1X107.365Y68.935Z-1.131
G1X107.357Y68.823Z-1.134
G1X107.351Y68.786Z-1.134
G1X107.340Y68.735Z-1.158
G1X107.324Y68.676Z-1.144
G1X107.312Y68.640Z-1.162
G1X107.273Y68.554Z-1.171
G1X107.247Y68.513Z-1.167
G1X107.226Y68.482Z-1.187
G1X107.157Y68.403Z-1.165
G1X107.111Y68.363Z-1.167
G1X107.059Y68.325Z-1.128
G1X107.040Y68.313Z-1.135
G1X106.912Y68.256Z-1.086
G1X106.868Y68.243Z-1.093
G1X106.795Y68.228Z-1.056
G1X106.766Y68.223Z-1.066
G1X106.633Y68.217Z-1.050
G1X106.527Y68.225Z-1.062
G1X106.486Y68.232Z-1.064
G1X106.434Y68.244Z-1.095
G1X106.386Y68.258Z-1.088
G1X106.262Y68.314Z-1.142
G1X106.220Y68.341Z-1.147
G1X106.191Y68.363Z-1.174
G1X106.113Y68.437Z-1.175
G1X106.076Y68.483Z-1.193
G1X106.044Y68.530Z-1.170
G1X106.029Y68.556Z-1.181
G1X105.978Y68.677Z-1.149
G1X105.963Y68.734Z-1.161
G1X105.949Y68.804Z-1.131
G1X105.944Y68.840Z-1.144
G1X105.937Y68.964Z-1.136
G1X105.938Y70.126Z-1.131
G1X105.946Y70.239Z-1.136
G1X105.952Y70.276Z-1.135
G1X105.963Y70.328Z-1.161
G1X105.978Y70.386Z-1.148
G1X105.991Y70.423Z-1.167
G1X106.030Y70.508Z-1.178
G1X106.056Y70.550Z-1.175
G1X106.076Y70.579Z-1.194
G0Z5.080
G1Z-1.194F381.0
G1X106.044Y70.532Z-1.169F889.0
G1X106.029Y70.506Z-1.180
G1X105.978Y70.386Z-1.148
G1X105.963Y70.328Z-1.161
G1X105.949Y70.258Z-1.131
G1X105.944Y70.222Z-1.144
G1X105.937Y70.098Z-1.136
G1X105.938Y68.935Z-1.131
G1X105.946Y68.823Z-1.136
G1X105.952Y68.785Z-1.135
G1X105.963Y68.734Z-1.161
G1X105.978Y68.677Z-1.149
G1X105.991Y68.639Z-1.168
G1X106.029Y68.556Z-1.181
G1X106.055Y68.513Z-1.175
G1X106.076Y68.483Z-1.193
G1X106.147Y68.401Z-1.169
G1X106.191Y68.363Z-1.174
G1X106.244Y68.325Z-1.136
G1X106.262Y68.313Z-1.142
G1X106.386Y68.258Z-1.088
G1X106.434Y68.244Z-1.095
G1X106.509Y68.228Z-1.057
G1X106.537Y68.224Z-1.066
G1X106.669Y68.217Z-1.050
G1X106.776Y68.225Z-1.061
G1X106.817Y68.232Z-1.063
G1X106.868Y68.243Z-1.093
G1X106.918Y68.258Z-1.085
G1X107.040Y68.313Z-1.135
G1X107.084Y68.343Z-1.141
G1X107.111Y68.363Z-1.167
G1X107.190Y68.437Z-1.170
G1X107.226Y68.482Z-1.187
G1X107.259Y68.531Z-1.162
G1X107.273Y68.555Z-1.171
G1X107.313Y68.643Z-1.159
G1X107.327Y68.685Z-1.145
G1X107.340Y68.735Z-1.158
G1X107.354Y68.803Z-1.129
G1X107.359Y68.840Z-1.143
G1X107.366Y68.964Z-1.135
G1X107.365Y70.126Z-1.131
G1X107.357Y70.239Z-1.135
G1X107.351Y70.276Z-1.134
G1X107.340Y70.328Z-1.158
G1X107.324Y70.387Z-1.143
G1X107.312Y70.422Z-1.161
G1X107.259Y70.530Z-1.160
G1X107.226Y70.580Z-1.188
G1X107.157Y70.659Z-1.169
G1X107.112Y70.698Z-1.171
G1X107.058Y70.737Z-1.129
G1X106.959Y70.789Z-1.109
G1X106.912Y70.805Z-1.086
G1X106.868Y70.818Z-1.093
G1X106.795Y70.834Z-1.056
G1X106.766Y70.838Z-1.066
G1X106.633Y70.844Z-1.050
G1X106.527Y70.837Z-1.062
G1X106.486Y70.829Z-1.064
G1X106.434Y70.818Z-1.095
G1X106.386Y70.804Z-1.088
G1X106.261Y70.747Z-1.142
G1X106.220Y70.720Z-1.149
G1X106.191Y70.698Z-1.177
G1X106.113Y70.626Z-1.178
G1X106.076Y70.579Z-1.194
G0Z5.080
G0X108.280Y69.871
G1Z-0.500F381.0
G1X108.380Y69.875F889.0
G1Y70.439
G1X108.280Y70.443
G1Y69.871
G0Z5.080
G0Y69.116
G1Z-0.500F381.0
G1Y68.199F889.0
G1X108.380
G1Y69.112
G1X108.280Y69.116
G0Z5.080
G0X108.323Y69.919
G1Z-1.000F381.0
G1X108.337F889.0
G1Y70.395
G1X108.323
G1Y69.919
G0Z5.080
G0Y69.068
G1Z-1.000F381.0
G1Y68.242F889.0
G1X108.337
G1Y69.068
G1X108.323
G0Z5.080
G0X108.330Y69.925
G1Z-1.076F381.0
G1X108.424Y69.831Z0.000F889.0
G1X108.330Y69.925Z-1.076
G1Y70.388
G1X108.424Y70.483Z0.000
G1X108.330Y70.388Z-1.076
G1X108.239Y70.505Z-0.040
G1X108.236Y70.513Z0.000
G1X108.265Y70.462Z-0.338
G1X108.330Y70.388Z-1.076
G1Y69.925
G1X108.239Y69.809Z-0.040
G1X108.226Y69.778Z0.500
G1X108.213Y69.704
G1Y69.283
G1X108.226Y69.209
G1X108.239Y69.178Z-0.040
G1X108.330Y69.061Z-1.076
G1Y68.249
G1X108.236Y68.155Z0.000
G1X108.330Y68.249Z-1.076
G1X108.424Y68.155Z0.000
G1X108.330Y68.249Z-1.076
G1Y69.061
G1X108.424Y69.156Z0.000
G1X108.330Y69.061Z-1.076
G1X108.239Y69.178Z-0.040
G1X108.226Y69.209Z0.500
G1X108.213Y69.283
G1Y69.704
G1X108.226Y69.778
G1X108.239Y69.809Z-0.040
G1X108.330Y69.925Z-1.076
G0Z5.080
G0X110.365Y69.871
G1Z-0.500F381.0
G1X110.466Y69.875F889.0
G1Y70.439
G1X110.365Y70.443
G1Y69.871
G0Z5.080
G0Y68.199
G1Z-0.500F381.0
G1X110.466F889.0
G1Y69.112
G1X110.365Y69.116
G1Y68.199
G0Z5.080
G0X110.409Y69.919
G1Z-1.000F381.0
G1X110.422F889.0
G1Y70.395
G1X110.409
G1Y69.919
G0Z5.080
G0Y68.242
G1Z-1.000F381.0
G1X110.422F889.0
G1Y69.068
G1X110.409
G1Y68.242
G0Z5.080
G0X110.416Y68.249
G1Z-1.076F381.0
G1X110.510Y68.155Z0.000F889.0
G1X110.416Y68.249Z-1.076
G1Y69.061
G1X110.510Y69.156Z0.000
G1X110.416Y69.061Z-1.076
G1X110.325Y69.178Z-0.040
G1X110.312Y69.209Z0.500
G1X110.299Y69.283
G1Y69.704
G1X110.312Y69.778
G1X110.325Y69.809Z-0.040
G1X110.416Y69.925Z-1.076
G1X110.510Y69.831Z0.000
G1X110.416Y69.925Z-1.076
G1Y70.388
G1X110.510Y70.483Z0.000
G1X110.416Y70.388Z-1.076
G1X110.325Y70.505Z-0.040
G1X110.321Y70.513Z0.000
G1X110.351Y70.462Z-0.338
G1X110.416Y70.388Z-1.076
G1Y69.925
G1X110.325Y69.809Z-0.040
G1X110.312Y69.778Z0.500
G1X110.299Y69.704
G1Y69.283
G1X110.312Y69.209
G1X110.325Y69.178Z-0.040
G1X110.416Y69.061Z-1.076
G1Y68.249
G1X110.321Y68.155Z0.000
G1X110.416Y68.249Z-1.076
G0Z5.080
G0X120.876Y76.685
G1Z-0.500F381.0
G1X121.010Y76.759F889.0
G1X120.894Y76.989
G1X120.874
G1Y76.684
G1X120.876Y76.685
G1X120.931Y76.634
G2X121.141Y76.666I0.125J-0.116
G1X120.941Y77.064
G1X120.799
G1Y74.402
G1X120.885Y74.402
G1Y76.314
G1X120.851Y76.382
G2X120.877Y76.576I0.152J0.078
G1X120.931Y76.634
G0Z5.080
G0X121.969Y74.950
G1Z-0.500F381.0
G1Y75.021F889.0
G1X121.227Y76.495
G1Y76.396
G1X121.969Y74.950
G0Z5.080
G0X122.313Y74.721
G1Z-0.500F381.0
G1X122.204Y74.657F889.0
G1X122.296Y74.477
G1X122.321
G1Y74.728
G1X122.313Y74.721
G1X122.260Y74.774
G2X122.079Y74.735I-0.121J0.121
G1X122.250Y74.402
G1X122.396
G1Y77.064
G1X122.310
G1Y75.102
G1X122.348Y75.027
G2X122.316Y74.830I-0.153J-0.077
G1X122.260Y74.774
G0Z5.080
G0X122.277Y74.640
G1Z-1.000F381.0
G1X122.265Y74.634F889.0
G1X122.277Y74.610
G1Y74.640
G1X122.291Y74.743
G1X122.156Y74.681
G1X122.277Y74.446
G1X122.353
G1Y74.805
G1X122.291Y74.743
G0Z5.080
G0X120.918Y76.773
G1Z-1.000F381.0
G1X120.947Y76.786F889.0
G1X120.918Y76.843
G1Y76.773
G1X120.899Y76.663
G2X121.059Y76.732I0.157J-0.146
G1X120.914Y77.020
G1X120.843
G1Y76.603
G1X120.899Y76.663
G0Z5.080
G0X122.221Y74.650
G1Z-1.500F381.0
G1X122.303Y74.490F889.0
G1X122.309
G1Y74.700
G1X122.221Y74.650
G0Z5.080
G0X120.887Y76.712
G1Z-1.500F381.0
G1X120.992Y76.768F889.0
G1X120.887Y76.976
G1X120.887Y76.712
G0Z5.080
G0X120.930Y76.792
G1Z-2.000F381.0
G1X120.931Y76.792F889.0
G1X120.930Y76.793
G1Y76.792
G0Z5.080
G1X120.930Y76.792Z-2.001F381.0
G1X121.035Y76.746Z-1.170F889.0
G1X121.132Y76.675Z-0.546
G1X121.154Y76.651Z-0.442
G1X121.196Y76.588Z-0.338
G1X121.222Y76.518Z-0.439
G1X121.249Y76.402Z-0.754
G1X121.952Y75.017Z-0.685
G1X121.982Y74.895Z-0.347
G1X122.007Y74.827Z-0.248
G1X122.049Y74.766Z-0.352
G1X122.107Y74.712Z-0.666
G1X122.167Y74.675Z-1.085
G1X122.272Y74.631Z-1.922
G1X122.305Y74.493Z-1.540
G1X122.223Y74.358Z0.000
G1X122.305Y74.493Z-1.540
G1X122.440Y74.358Z0.000
G1X122.305Y74.493Z-1.540
G1X122.272Y74.631Z-1.922
G1X122.349Y74.797Z-1.040
G1X122.365Y74.842Z-0.857
G1X122.381Y74.951Z-0.675
G1X122.371Y75.039Z-0.795
G1X122.353Y75.112Z-0.994
G1Y77.021
G1X122.440Y77.108Z0.000
G1X122.353Y77.021Z-0.994
G1X122.266Y77.108Z0.000
G1X122.353Y77.021Z-0.994
G1Y75.112
G1X122.371Y75.039Z-0.795
G1X122.381Y74.951Z-0.675
G1X122.365Y74.842Z-0.857
G1X122.317Y74.718Z-1.413
G1X122.272Y74.631Z-1.922
G1X122.167Y74.675Z-1.085
G1X122.071Y74.742Z-0.457
G1X122.049Y74.766Z-0.352
G1X122.007Y74.827Z-0.248
G1X121.982Y74.895Z-0.347
G1X121.952Y75.017Z-0.685
G1X121.249Y76.402Z-0.754
G1X121.222Y76.518Z-0.439
G1X121.196Y76.588Z-0.338
G1X121.154Y76.651Z-0.442
G1X121.096Y76.706Z-0.754
G1X121.035Y76.746Z-1.170
G1X120.930Y76.792Z-2.001
G1X120.887Y76.976Z-1.501
G1X120.968Y77.108Z0.000
G1X120.887Y76.976Z-1.501
G1X120.755Y77.108Z0.000
G1X120.887Y76.976Z-1.501
G1X120.930Y76.792Z-2.001
G1X120.875Y76.685Z-1.370
G1X120.830Y76.563Z-0.851
G1X120.815Y76.460Z-0.687
G1X120.826Y76.369Z-0.811
G1X120.842Y76.303Z-0.994
G1Y74.445
G1X120.755Y74.358Z0.000
G1X120.842Y74.445Z-0.994
G1X120.929Y74.358Z0.000
G1X120.842Y74.445Z-0.994
G1Y76.303
G1X120.826Y76.369Z-0.811
G1X120.815Y76.460Z-0.687
G1X120.830Y76.563Z-0.851
G1X120.875Y76.685Z-1.370
G1X120.930Y76.792Z-2.001
G0Z5.080
G0X124.020Y76.987
G1Z-0.500F381.0
G1X123.955Y76.780F889.0
G1X124.086Y76.780
G1X124.020Y76.987
G1X124.075Y77.064
G1X123.966
G1X123.450Y75.434
G1X123.528
G1X123.856Y76.589
G2X124.185I0.164J-0.047
G1X124.513Y75.434
G1X124.591
G1X124.075Y77.064
G0Z5.080
G0X124.813Y74.732
G1Z-0.500F381.0
G1X124.728Y74.677F889.0
G1X124.807Y74.400
G1X124.918
G1X124.813Y74.732
G0Z5.080
G0X123.235Y74.756
G1Z-0.500F381.0
G1X123.123Y74.400F889.0
G1X123.234
G1X123.315Y74.685
G1X123.235Y74.756
G0Z5.080
G0X124.023Y76.832
G1Z-1.000F381.0
G1X124.020Y76.842F889.0
G1X124.017Y76.832
G1X124.023
G1X124.137Y76.722
G1X124.043Y77.020
G1X123.998
G1X123.903Y76.722
G2X124.137Y76.722I0.117J-0.180
G0Z5.080
G0X124.791Y74.656
G1Z-1.000F381.0
G1X124.781Y74.651F889.0
G1X124.840Y74.444
G1X124.858
G1X124.791Y74.656
G0Z5.080
G0X123.254Y74.670
G1Z-1.000F381.0
G1X123.182Y74.444F889.0
G1X123.201
G1X123.263Y74.664
G1X123.254Y74.670
G0Z5.080
G0X124.068Y76.796
G1Z-1.500F381.0
G1X124.020Y76.947F889.0
G1X123.973Y76.796
G1X124.068
G0Z5.080
G0X124.020Y76.835
G1Z-1.888F381.0
G1Y76.989Z-1.355F889.0
G1X124.107Y77.108Z0.000
G1X124.020Y76.989Z-1.355
G1X123.934Y77.108Z0.000
G1X124.020Y76.989Z-1.355
G1Y76.835Z-1.888
G1X123.947Y76.772Z-1.305
G1X123.881Y76.690Z-0.868
G1X123.839Y76.600Z-0.722
G1X123.500Y75.470Z-0.920
G1X123.390Y75.390Z0.250
G1X123.384Y75.385Z0.500
G1X123.336Y75.339
G1X123.302Y75.263
G1X123.257Y74.968Z0.250
G1X123.234Y74.771Z-0.434
G1X123.257Y74.661Z-1.063
G1X123.194Y74.452Z-1.100
G1X123.063Y74.356Z0.000
G1X123.194Y74.452Z-1.100
G1X123.267Y74.356Z0.000
G1X123.194Y74.452Z-1.100
G1X123.257Y74.661Z-1.063
G1X123.370Y74.717Z0.000
G1X123.257Y74.661Z-1.063
G1X123.234Y74.771Z-0.434
G1X123.257Y74.968Z0.250
G1X123.302Y75.263Z0.500
G1X123.353Y75.359
G1X123.384Y75.385
G1X123.390Y75.390Z0.250
G1X123.500Y75.470Z-0.920
G1X123.561Y75.390Z0.000
G1X123.500Y75.470Z-0.920
G1X123.839Y76.600Z-0.722
G1X123.881Y76.690Z-0.868
G1X123.947Y76.772Z-1.305
G1X124.020Y76.835Z-1.888
G1X124.094Y76.772Z-1.305
G1X124.160Y76.690Z-0.868
G1X124.202Y76.600Z-0.722
G1X124.541Y75.470Z-0.920
G1X124.480Y75.390Z0.000
G1X124.541Y75.470Z-0.920
G1X124.682Y75.367Z0.500
G1X124.746Y75.283
G1X124.751Y75.263
G1X124.809Y74.890Z0.250
G1X124.816Y74.841Z-0.086
G1X124.818Y74.765Z-0.331
G1X124.788Y74.648Z-1.065
G1X124.672Y74.714Z0.000
G1X124.788Y74.648Z-1.065
G1X124.846Y74.453Z-1.100
G1X124.774Y74.356Z0.000
G1X124.846Y74.453Z-1.100
G1X124.978Y74.356Z0.000
G1X124.846Y74.453Z-1.100
G1X124.788Y74.648Z-1.065
G1X124.818Y74.765Z-0.331
G1X124.816Y74.841Z-0.086
G1X124.809Y74.890Z0.250
G1X124.751Y75.263Z0.500
G1X124.708Y75.345
G1X124.682Y75.367
G1X124.541Y75.470Z-0.920
G1X124.202Y76.600Z-0.722
G1X124.160Y76.690Z-0.868
G1X124.094Y76.772Z-1.305
G1X124.020Y76.835Z-1.888
G0Z5.080
G0X124.554Y75.131
G1Z-0.013F381.0
G0Z5.080
G0X126.083Y74.475
G1Z-0.500F381.0
G1X126.133F889.0
G1X126.209Y74.749
G2X126.008I-0.100J0.225
G1X126.083Y74.475
G1X126.025Y74.400
G1X126.191
G1X126.924Y77.064
G1X126.810
G1X126.274Y74.932
G2X125.942I-0.166J0.042
G1X125.406Y77.064
G1X125.292
G1X126.025Y74.400
G0Z5.080
G0X126.108Y74.551
G1Z-1.000F381.0
G1X126.145Y74.685F889.0
G1X126.071
G1X126.108Y74.551
G1X126.059Y74.444
G1X126.158
G1X126.262Y74.824
G2X125.954Y74.824I-0.154J0.149
G1X126.059Y74.444
G0Z5.080
G0X125.611Y76.069
G1Z-1.000F381.0
G1X125.372Y77.020F889.0
G1X125.350
G1X125.611Y76.069
G0Z5.080
G0X126.605Y76.069
G1Z-1.000F381.0
G1X126.866Y77.020F889.0
G1X126.844
G1X126.605Y76.069
G0Z5.080
G0X126.026Y74.729
G1Z-1.500F381.0
G1X126.092Y74.488F889.0
G1X126.124
G1X126.191Y74.729
G1X126.026
G0Z5.080
G0X126.087Y74.672
G1Z-2.000F381.0
G1X126.108Y74.594F889.0
G1X126.130Y74.672
G1X126.087Y74.672
G0Z5.080
G0X126.108Y74.655
G1Z-2.186F381.0
G1Y74.509Z-1.742F889.0
G1X125.992Y74.356Z0.000
G1X126.108Y74.509Z-1.742
G1X126.224Y74.356Z0.000
G1X126.108Y74.509Z-1.742
G1Y74.655Z-2.186
G1X126.188Y74.726Z-1.518
G1X126.259Y74.819Z-1.017
G1X126.302Y74.920Z-0.850
G1X126.852Y77.010Z-1.123
G1X126.981Y77.108Z0.000
G1X126.852Y77.010Z-1.123
G1X126.776Y77.108Z0.000
G1X126.852Y77.010Z-1.123
G1X126.302Y74.920Z-0.850
G1X126.259Y74.819Z-1.017
G1X126.188Y74.726Z-1.518
G1X126.108Y74.655Z-2.186
G1X126.028Y74.726Z-1.518
G1X125.957Y74.819Z-1.017
G1X125.914Y74.920Z-0.850
G1X125.364Y77.010Z-1.123
G1X125.441Y77.108Z0.000
G1X125.364Y77.010Z-1.123
G1X125.235Y77.108Z0.000
G1X125.364Y77.010Z-1.123
G1X125.914Y74.920Z-0.850
G1X125.957Y74.819Z-1.017
G1X126.028Y74.726Z-1.518
G1X126.108Y74.655Z-2.186
G0Z5.080
G0X137.721Y70.786
G1Z-0.500F381.0
G1X137.655Y70.578F889.0
G1X137.786Y70.578
G1X137.721Y70.786
G1X137.776Y70.863
G1X137.666
G1X137.150Y69.232
G1X137.228
G1X137.557Y70.388
G2X137.885I0.164J-0.047
G1X138.213Y69.232
G1X138.291
G1X137.776Y70.863
G0Z5.080
G0X138.513Y68.530
G1Z-0.500F381.0
G1X138.428Y68.475F889.0
G1X138.507Y68.199
G1X138.618
G1X138.513Y68.530
G0Z5.080
G0X136.936Y68.555
G1Z-0.500F381.0
G1X136.823Y68.199F889.0
G1X136.935
G1X137.015Y68.483
G1X136.936Y68.555
G0Z5.080
G0X137.724Y70.631
G1Z-1.000F381.0
G1X137.721Y70.641F889.0
G1X137.718Y70.631
G1X137.724
G1X137.838Y70.521
G1X137.744Y70.819
G1X137.698
G1X137.604Y70.521
G2X137.838Y70.521I0.117J-0.180
G0Z5.080
G0X138.491Y68.455
G1Z-1.000F381.0
G1X138.481Y68.449F889.0
G1X138.540Y68.242
G1X138.559
G1X138.491Y68.455
G0Z5.080
G0X136.955Y68.469
G1Z-1.000F381.0
G1X136.883Y68.242F889.0
G1X136.901
G1X136.964Y68.462
G1X136.955Y68.469
G0Z5.080
G0X137.769Y70.595
G1Z-1.500F381.0
G1X137.721Y70.746F889.0
G1X137.673Y70.595
G1X137.769
G0Z5.080
G0X137.721Y70.633
G1Z-1.888F381.0
G1Y70.788Z-1.355F889.0
G1X137.808Y70.906Z0.000
G1X137.721Y70.788Z-1.355
G1X137.634Y70.906Z0.000
G1X137.721Y70.788Z-1.355
G1Y70.633Z-1.888
G1X137.648Y70.571Z-1.305
G1X137.581Y70.488Z-0.868
G1X137.540Y70.398Z-0.722
G1X137.200Y69.269Z-0.920
G1X137.091Y69.188Z0.250
G1X137.084Y69.184Z0.500
G1X137.036Y69.138
G1X137.003Y69.061
G1X136.957Y68.767Z0.250
G1X136.935Y68.570Z-0.434
G1X136.958Y68.460Z-1.063
G1X136.895Y68.251Z-1.100
G1X136.764Y68.155Z0.000
G1X136.895Y68.251Z-1.100
G1X136.968Y68.155Z0.000
G1X136.895Y68.251Z-1.100
G1X136.958Y68.460Z-1.063
G1X137.070Y68.516Z0.000
G1X136.958Y68.460Z-1.063
G1X136.935Y68.570Z-0.434
G1X136.957Y68.767Z0.250
G1X137.003Y69.061Z0.500
G1X137.054Y69.158
G1X137.084Y69.184
G1X137.091Y69.188Z0.250
G1X137.200Y69.269Z-0.920
G1X137.261Y69.188Z0.000
G1X137.200Y69.269Z-0.920
G1X137.540Y70.398Z-0.722
G1X137.581Y70.488Z-0.868
G1X137.648Y70.571Z-1.305
G1X137.721Y70.633Z-1.888
G1X137.794Y70.571Z-1.305
G1X137.860Y70.488Z-0.868
G1X137.902Y70.398Z-0.722
G1X138.241Y69.269Z-0.920
G1X138.180Y69.188Z0.000
G1X138.241Y69.269Z-0.920
G1X138.382Y69.166Z0.500
G1X138.447Y69.082
G1X138.452Y69.061
G1X138.509Y68.689Z0.250
G1X138.517Y68.640Z-0.086
G1X138.518Y68.564Z-0.331
G1X138.488Y68.447Z-1.065
G1X138.372Y68.513Z0.000
G1X138.488Y68.447Z-1.065
G1X138.547Y68.251Z-1.100
G1X138.474Y68.155Z0.000
G1X138.547Y68.251Z-1.100
G1X138.678Y68.155Z0.000
G1X138.547Y68.251Z-1.100
G1X138.488Y68.447Z-1.065
G1X138.518Y68.564Z-0.331
G1X138.517Y68.640Z-0.086
G1X138.509Y68.689Z0.250
G1X138.452Y69.061Z0.500
G1X138.408Y69.143
G1X138.382Y69.166
G1X138.241Y69.269Z-0.920
G1X137.902Y70.398Z-0.722
G1X137.860Y70.488Z-0.868
G1X137.794Y70.571Z-1.305
G1X137.721Y70.633Z-1.888
G0Z5.080
G0X138.255Y68.930
G1Z-0.013F381.0
G0Z5.080
G0X139.789Y70.617
G1Z-0.500F381.0
G1X139.688F889.0
G1Y68.199
G1X139.789
G1Y70.617
G0Z5.080
G0X139.745Y70.573
G1Z-1.000F381.0
G1X139.732F889.0
G1Y68.242
G1X139.745
G1Y70.573
G0Z5.080
G0X139.738Y70.566
G1Z-1.076F381.0
G1X139.644Y70.660Z0.000F889.0
G1X139.738Y70.566Z-1.076
G1Y68.249
G1X139.644Y68.155Z0.000
G1X139.738Y68.249Z-1.076
G1X139.832Y68.155Z0.000
G1X139.738Y68.249Z-1.076
G1Y70.566
G1X139.832Y70.660Z0.000
G1X139.738Y70.566Z-1.076
G0Z5.080
G0X140.504Y70.780
G1Z-0.500F381.0
G1Y70.863F889.0
G1X138.973
G1Y70.780
G1X140.504
G0Z5.080
G0X140.463Y70.821
G1Z-0.970F381.0
G1X140.548Y70.906Z0.000F889.0
G1X140.463Y70.821Z-0.970
G1X139.014
G1X138.929Y70.906Z0.000
G1X139.014Y70.821Z-0.970
G1X138.929Y70.737Z0.000
G1X139.014Y70.821Z-0.970
G1X140.463
G1X140.548Y70.737Z0.000
G1X140.463Y70.821Z-0.970
G0Z5.080
G0X141.905Y70.617
G1Z-0.500F381.0
G1X141.805F889.0
G1Y68.199
G1X141.905
G1Y70.617
G0Z5.080
G0X141.862Y70.573
G1Z-1.000F381.0
G1X141.848F889.0
G1Y68.242
G1X141.862
G1Y70.573
G0Z5.080
G0X141.855Y70.566
G1Z-1.076F381.0
G1X141.761Y70.660Z0.000F889.0
G1X141.855Y70.566Z-1.076
G1Y68.249
G1X141.761Y68.155Z0.000
G1X141.855Y68.249Z-1.076
G1X141.949Y68.155Z0.000
G1X141.855Y68.249Z-1.076
G1Y70.566
G1X141.949Y70.660Z0.000
G1X141.855Y70.566Z-1.076
G0Z5.080
G0X142.621Y70.780
G1Z-0.500F381.0
G1Y70.863F889.0
G1X141.089
G1Y70.780
G1X142.621
G0Z5.080
G0X142.579Y70.821
G1Z-0.970F381.0
G1X142.664Y70.906Z0.000F889.0
G1X142.579Y70.821Z-0.970
G1X141.130
G1X141.046Y70.906Z0.000
G1X141.130Y70.821Z-0.970
G1X141.046Y70.737Z0.000
G1X141.130Y70.821Z-0.970
G1X142.579
G1X142.664Y70.737Z0.000
G1X142.579Y70.821Z-0.970
G0Z5.080
G0X125.024Y42.379
G1Z-0.500F381.0
G1X124.923F889.0
G1Y39.713
G1X125.024
G1Y42.379
G0Z5.080
G0X124.980Y42.336
G1Z-1.000F381.0
G1X124.967F889.0
G1Y39.757
G1X124.980
G1Y42.336
G0Z5.080
G0X124.974Y42.329
G1Z-1.076F381.0
G1X124.879Y42.423Z0.000F889.0
G1X124.974Y42.329Z-1.076
G1Y39.764
G1X124.879Y39.669Z0.000
G1X124.974Y39.764Z-1.076
G1X125.068Y39.669Z0.000
G1X124.974Y39.764Z-1.076
G1Y42.329
G1X125.068Y42.423Z0.000
G1X124.974Y42.329Z-1.076
G0Z5.080
G0X123.633Y42.327
G1Z-0.500F381.0
G1X123.475Y42.364F889.0
G1X122.846Y42.377
G1Y42.295
G1X123.429Y42.286
G1X123.557Y42.255
G1X123.673Y42.201
G1X123.774Y42.124
G1X123.855Y42.027
G1X123.912Y41.912
G1X123.944Y41.787
G1X123.944Y40.303
G1X123.912Y40.178
G1X123.855Y40.063
G1X123.774Y39.964
G1X123.672Y39.887
G1X123.556Y39.834
G1X123.429Y39.804
G1X122.846Y39.796
G1Y39.713
G1X123.277
G1X123.535Y39.738
G1X123.724Y39.803
G1X123.870Y39.905
G1X123.974Y40.042
G1X124.040Y40.216
G1X124.065Y40.453
G1Y41.640
G1X124.051Y41.821
G1X124.013Y41.968
G1X123.952Y42.088
G1X123.869Y42.188
G1X123.763Y42.268
G1X123.633Y42.327
G0Z5.080
G0X123.619Y42.285
G1Z-1.000F381.0
G1X123.573Y42.296F889.0
G1X123.696Y42.239
G1X123.804Y42.156
G1X123.892Y42.051
G1X123.953Y41.928
G1X123.987Y41.794
G1X123.998Y40.429
G1X123.987Y40.296
G1X123.953Y40.163
G1X123.892Y40.039
G1X123.804Y39.932
G1X123.695Y39.849
G1X123.516Y39.780
G1X123.705Y39.842
G1X123.840Y39.936
G1X123.935Y40.063
G1X123.997Y40.225
G1X124.021Y40.455
G1Y41.639
G1X124.008Y41.814
G1X123.972Y41.952
G1X123.916Y42.064
G1X123.839Y42.156
G1X123.741Y42.230
G1X123.619Y42.285
G0Z5.080
G0X123.904Y42.056
G1Z-1.163F381.0
G1X123.959Y41.947Z-1.159F889.0
G1X123.970Y41.909Z-1.139
G1X123.996Y41.812Z-1.141
G1X124.000Y41.776Z-1.125
G1X124.009Y41.638Z-1.136
G1Y40.456
G1X123.997Y40.308Z-1.098
G1X123.984Y40.228Z-1.152
G1X123.968Y40.172Z-1.140
G1X123.923Y40.070Z-1.161
G1X123.902Y40.034Z-1.142
G1X123.880Y40.003Z-1.158
G1X123.830Y39.944Z-1.140
G1X123.790Y39.909Z-1.116
G1X123.772Y39.894Z-1.122
G1X123.675Y39.835Z-1.058
G1X123.618Y39.810Z-1.047
G1X123.550Y39.788Z-1.004
G1X123.527Y39.782Z-1.009
G1X123.418Y39.765Z-0.938
G1X123.275Y39.754Z-0.970
G1X122.887
G1X122.802Y39.839Z0.000
G1X122.887Y39.754Z-0.970
G1X122.802Y39.669Z0.000
G1X122.887Y39.754Z-0.970
G1X123.293Y39.755Z-0.960
G1X123.423Y39.766Z-0.938
G1X123.527Y39.782Z-1.009
G1X123.557Y39.789Z-1.004
G1X123.618Y39.810Z-1.047
G1X123.718Y39.858Z-1.081
G1X123.772Y39.894Z-1.122
G1X123.797Y39.915Z-1.115
G1X123.831Y39.945Z-1.141
G1X123.880Y40.003Z-1.158
G1X123.902Y40.034Z-1.142
G1X123.923Y40.070Z-1.161
G1X123.971Y40.181Z-1.141
G1X123.984Y40.228Z-1.152
G1X123.998Y40.314Z-1.099
G1X124.009Y40.456Z-1.136
G1X124.009Y41.653Z-1.129
G1X124.000Y41.776Z-1.125
G1X123.995Y41.816Z-1.141
G1X123.970Y41.910Z-1.139
G1X123.955Y41.954Z-1.158
G1X123.904Y42.056Z-1.163
G1X123.830Y42.146Z-1.152
G1X123.792Y42.179Z-1.118
G1X123.736Y42.221Z-1.114
G1X123.676Y42.254Z-1.057
G1X123.617Y42.281Z-1.054
G1X123.550Y42.302Z-0.997
G1X123.468Y42.321Z-0.995
G1X123.418Y42.327Z-0.963
G1X123.280Y42.336Z-0.970
G1X122.887
G1X122.802Y42.421Z0.000
G1X122.887Y42.336Z-0.970
G1X122.802Y42.251Z0.000
G1X122.887Y42.336Z-0.970
G1X123.308Y42.335Z-0.962
G1X123.418Y42.327Z-0.963
G1X123.468Y42.321Z-0.995
G1X123.550Y42.302Z-0.997
G1X123.617Y42.281Z-1.054
G1X123.676Y42.254Z-1.057
G1X123.736Y42.221Z-1.114
G1X123.792Y42.179Z-1.118
G1X123.830Y42.146Z-1.152
G1X123.904Y42.056Z-1.163
G0Z5.080
G0X122.668Y42.377
G1Z-0.500F381.0
G1X122.567F889.0
G1Y39.713
G1X122.668
G1Y42.377
G0Z5.080
G0X122.624Y42.334
G1Z-1.000F381.0
G1X122.611F889.0
G1Y39.757
G1X122.624
G1Y42.334
G0Z5.080
G0X122.617Y42.327
G1Z-1.076F381.0
G1X122.523Y42.421Z0.000F889.0
G1X122.617Y42.327Z-1.076
G1Y39.764
G1X122.523Y39.669Z0.000
G1X122.617Y39.764Z-1.076
G1X122.711Y39.669Z0.000
G1X122.617Y39.764Z-1.076
G1Y42.327
G1X122.711Y42.421Z0.000
G1X122.617Y42.327Z-1.076
G0Z5.080
G0X120.902Y42.300
G1Z-0.500F381.0
G1X120.836Y42.093F889.0
G1X120.967
G1X120.902Y42.300
G1X120.956Y42.377
G1X120.847
G1X120.331Y40.747
G1X120.409
G1X120.737Y41.902
G2X121.066I0.164J-0.047
G1X121.394Y40.747
G1X121.472
G1X120.956Y42.377
G0Z5.080
G0X121.694Y40.045
G1Z-0.500F381.0
G1X121.609Y39.990F889.0
G1X121.688Y39.713
G1X121.799
G1X121.694Y40.045
G0Z5.080
G0X120.117Y40.070
G1Z-0.500F381.0
G1X120.004Y39.713F889.0
G1X120.115
G1X120.196Y39.998
G1X120.117Y40.070
G0Z5.080
G0X120.905Y42.145
G1Z-1.000F381.0
G1X120.902Y42.155F889.0
G1X120.898Y42.145
G1X120.905
G1X121.019Y42.035
G1X120.924Y42.334
G1X120.879
G1X120.784Y42.035
G2X121.019Y42.035I0.117J-0.180
G0Z5.080
G0X121.672Y39.970
G1Z-1.000F381.0
G1X121.662Y39.964F889.0
G1X121.721Y39.757
G1X121.739
G1X121.672Y39.970
G0Z5.080
G0X120.135Y39.983
G1Z-1.000F381.0
G1X120.064Y39.757F889.0
G1X120.082
G1X120.145Y39.977
G1X120.135Y39.983
G0Z5.080
G0X120.949Y42.109
G1Z-1.500F381.0
G1X120.902Y42.260F889.0
G1X120.854Y42.109
G1X120.949
G0Z5.080
G0X120.902Y42.148
G1Z-1.888F381.0
G1Y42.302Z-1.355F889.0
G1X120.988Y42.421Z0.000
G1X120.902Y42.302Z-1.355
G1X120.815Y42.421Z0.000
G1X120.902Y42.302Z-1.355
G1Y42.148Z-1.888
G1X120.828Y42.085Z-1.305
G1X120.762Y42.003Z-0.868
G1X120.720Y41.913Z-0.722
G1X120.381Y40.784Z-0.920
G1X120.271Y40.703Z0.250
G1X120.265Y40.698Z0.500
G1X120.217Y40.652
G1X120.183Y40.576
G1X120.138Y40.282Z0.250
G1X120.115Y40.085Z-0.434
G1X120.138Y39.974Z-1.063
G1X120.076Y39.766Z-1.100
G1X119.944Y39.669Z0.000
G1X120.076Y39.766Z-1.100
G1X120.148Y39.669Z0.000
G1X120.076Y39.766Z-1.100
G1X120.138Y39.974Z-1.063
G1X120.251Y40.030Z0.000
G1X120.138Y39.974Z-1.063
G1X120.115Y40.085Z-0.434
G1X120.138Y40.282Z0.250
G1X120.183Y40.576Z0.500
G1X120.234Y40.672
G1X120.265Y40.698
G1X120.271Y40.703Z0.250
G1X120.381Y40.784Z-0.920
G1X120.442Y40.703Z0.000
G1X120.381Y40.784Z-0.920
G1X120.720Y41.913Z-0.722
G1X120.762Y42.003Z-0.868
G1X120.828Y42.085Z-1.305
G1X120.902Y42.148Z-1.888
G1X120.975Y42.085Z-1.305
G1X121.041Y42.003Z-0.868
G1X121.083Y41.913Z-0.722
G1X121.422Y40.784Z-0.920
G1X121.361Y40.703Z0.000
G1X121.422Y40.784Z-0.920
G1X121.563Y40.680Z0.500
G1X121.628Y40.596
G1X121.632Y40.576
G1X121.690Y40.203Z0.250
G1X121.698Y40.154Z-0.086
G1X121.699Y40.078Z-0.331
G1X121.669Y39.961Z-1.065
G1X121.553Y40.027Z0.000
G1X121.669Y39.961Z-1.065
G1X121.727Y39.766Z-1.100
G1X121.655Y39.669Z0.000
G1X121.727Y39.766Z-1.100
G1X121.859Y39.669Z0.000
G1X121.727Y39.766Z-1.100
G1X121.669Y39.961Z-1.065
G1X121.699Y40.078Z-0.331
G1X121.698Y40.154Z-0.086
G1X121.690Y40.203Z0.250
G1X121.632Y40.576Z0.500
G1X121.589Y40.658
G1X121.563Y40.680
G1X121.422Y40.784Z-0.920
G1X121.083Y41.913Z-0.722
G1X121.041Y42.003Z-0.868
G1X120.975Y42.085Z-1.305
G1X120.902Y42.148Z-1.888
G0Z5.080
G0X121.435Y40.444
G1Z-0.013F381.0
G0Z5.080
G0X125.763Y40.976
G1Z-0.500F381.0
G1X125.968Y40.997F889.0
G1X126.127Y41.055
G1X126.250Y41.145
G1X126.342Y41.266
G1X126.402Y41.421
G1X126.423Y41.743
G1X126.402Y41.940
G1X126.343Y42.092
G1X126.252Y42.211
G1X126.127Y42.300
G1X125.968Y42.358
G1X125.763Y42.379
G1X125.118
G1Y42.297
G1X125.801
G1X125.989Y42.263
G1X126.090Y42.207
G1X126.175Y42.129
G1X126.276Y41.954
G1X126.306Y41.748
G1Y41.597
G1X126.275Y41.395
G1X126.174Y41.221
G1X126.087Y41.144
G1X125.986Y41.090
G1X125.801Y41.056
G1X125.118
G1Y40.976
G1X125.763
G0Z5.080
G0X125.971Y42.311
G1Z-1.000F381.0
G1X125.958Y42.315F889.0
G1X125.930Y42.318
G1X125.971Y42.311
G0Z5.080
G0X126.045Y41.072
G1Z-1.000F381.0
G1X126.106Y41.094F889.0
G1X126.219Y41.177
G1X126.304Y41.287
G1X126.359Y41.431
G1X126.380Y41.740
G1X126.359Y41.929
G1X126.304Y42.070
G1X126.221Y42.180
G1X126.107Y42.261
G1X126.034Y42.288
G1X126.115Y42.242
G1X126.209Y42.157
G1X126.318Y41.968
G1X126.350Y41.751
G1Y41.593
G1X126.317Y41.380
G1X126.208Y41.192
G1X126.112Y41.108
G1X126.045Y41.072
G0Z5.080
G0X126.287Y42.061
G1Z-1.220F381.0
G1X126.221Y42.158Z-1.144F889.0
G1X126.212Y42.170Z-1.147
G1X126.118Y42.246Z-1.067
G1X126.104Y42.256Z-1.071
G1X126.003Y42.300Z-0.985
G1X125.958Y42.314Z-1.013
G1X125.808Y42.335Z-0.949
G1X125.761Y42.338Z-0.970
G1X125.159
G1X125.074Y42.423Z0.000
G1X125.159Y42.338Z-0.970
G1X125.074Y42.253Z0.000
G1X125.159Y42.338Z-0.970
G1X125.761
G1X125.824Y42.333Z-0.952
G1X125.958Y42.314Z-1.013
G1X126.003Y42.300Z-0.985
G1X126.104Y42.256Z-1.071
G1X126.138Y42.231Z-1.075
G1X126.212Y42.170Z-1.147
G1X126.238Y42.135Z-1.155
G1X126.287Y42.061Z-1.220
G1X126.324Y41.980Z-1.158
G1X126.342Y41.925Z-1.199
G1X126.365Y41.736Z-1.171
G1X126.364Y41.610Z-1.162
G1X126.361Y41.575Z-1.155
G1X126.342Y41.435Z-1.189
G1X126.323Y41.372Z-1.138
G1X126.288Y41.296Z-1.199
G1X126.219Y41.194Z-1.121
G1X126.212Y41.185Z-1.123
G1X126.133Y41.120Z-1.058
G1X126.103Y41.098Z-1.057
G1X126.001Y41.054Z-0.973
G1X125.958Y41.040Z-1.000
G1X125.807Y41.019Z-0.937
G1X125.761Y41.016Z-0.958
G1X125.158
G1X125.074Y41.100Z0.000
G1X125.158Y41.016Z-0.958
G1X125.074Y40.932Z0.000
G1X125.158Y41.016Z-0.958
G1X125.761
G1X125.823Y41.021Z-0.940
G1X125.958Y41.040Z-1.000
G1X126.001Y41.054Z-0.973
G1X126.103Y41.098Z-1.057
G1X126.133Y41.120Z-1.058
G1X126.212Y41.185Z-1.123
G1X126.235Y41.217Z-1.131
G1X126.288Y41.296Z-1.199
G1X126.323Y41.372Z-1.138
G1X126.342Y41.435Z-1.189
G1X126.362Y41.585Z-1.154
G1X126.365Y41.624Z-1.171
G1X126.362Y41.769Z-1.166
G1X126.342Y41.925Z-1.199
G1X126.324Y41.980Z-1.158
G1X126.287Y42.061Z-1.220
G0Z5.080
G0X126.305Y39.713
G1Z-0.500F381.0
G1X126.439Y39.713F889.0
G1X125.946Y40.797
G1X125.847Y40.776
G1X126.305Y39.713
G0Z5.080
G0X126.334Y39.757
G1Z-1.000F381.0
G1X126.371Y39.757F889.0
G1X125.921Y40.747
G1X125.908Y40.744
G1X126.334Y39.757
G0Z5.080
G0X126.345Y39.773
G1Z-1.188F381.0
G1X126.507Y39.670Z0.000F889.0
G1X126.345Y39.773Z-1.188
G1X125.917Y40.740Z-1.072
G1X125.971Y40.848Z0.000
G1X125.917Y40.740Z-1.072
G1X125.786Y40.807Z0.000
G1X125.917Y40.740Z-1.072
G1X126.345Y39.773Z-1.188
G1X126.277Y39.670Z0.000
G1X126.345Y39.773Z-1.188
G0Z5.080
G0X127.346Y39.855
G1Z-0.500F381.0
G1Y39.789F889.0
G1X127.501Y39.789
G2X127.426Y39.973I0.172J0.177
G1X127.346Y39.855
G1X127.269Y39.878
G1Y39.713
G1X128.499Y39.713
G1Y39.795
G1X127.673
G2X127.531Y40.061I0.000J0.171
G1X128.247Y41.133
G1X128.356Y41.321
G1X128.431Y41.500
G1X128.476Y41.666
G1X128.490Y41.819
G1X128.479Y41.966
G1X128.449Y42.085
G1X128.402Y42.181
G1X128.338Y42.258
G1X128.256Y42.321
G1X128.154Y42.367
G1X128.026Y42.397
G1X127.873Y42.407
G1X127.732Y42.396
G1X127.615Y42.364
G1X127.516Y42.313
G1X127.431Y42.242
G1X127.359Y42.151
G1X127.303Y42.038
G1X127.263Y41.900
G1X127.382
G1X127.396Y41.978
G1X127.497Y42.153
G1X127.582Y42.231
G1X127.682Y42.287
G1X127.879Y42.324
G1X128.081Y42.293
G1X128.247Y42.189
G1X128.348Y42.021
G1X128.375Y41.803
G1X128.359Y41.650
G1X128.309Y41.480
G1X128.232Y41.309
G1X128.132Y41.138
G1X127.269Y39.878
G0Z5.080
G0X127.838Y42.361
G1Z-1.000F381.0
G1X127.631Y42.323F889.0
G1X127.540Y42.277
G1X127.462Y42.212
G1X127.397Y42.128
G1X127.322Y41.944
G1X127.346
G1X127.355Y41.993
G1X127.462Y42.181
G1X127.556Y42.266
G1X127.667Y42.329
G1X127.838Y42.361
G0Z5.080
G0X127.389Y39.841
G1Z-1.000F381.0
G1Y39.832F889.0
G1X127.416
G1X127.403Y39.862
G1X127.389Y39.841
G1X127.313Y39.865
G1Y39.757
G1X127.626Y39.757
G2X127.495Y40.085I0.047J0.209
G1X128.210Y41.156
G1X128.316Y41.340
G1X128.390Y41.514
G1X128.432Y41.674
G1X128.446Y41.819
G1X128.436Y41.959
G1X128.408Y42.070
G1X128.365Y42.157
G1X128.307Y42.227
G1X128.233Y42.283
G1X128.140Y42.326
G1X127.939Y42.359
G1X128.097Y42.335
G1X128.279Y42.220
G1X128.390Y42.035
G1X128.419Y41.801
G1X128.402Y41.641
G1X128.350Y41.465
G1X128.271Y41.289
G1X128.169Y41.114
G1X127.313Y39.865
G0Z5.080
G0X127.416Y39.938
G1Z-1.500F381.0
G1X127.357Y39.851F889.0
G1Y39.801
G1X127.475Y39.801
G1X127.416Y39.938
G0Z5.080
G0X127.401Y39.842
G1Z-1.972F381.0
G1X127.226Y39.892Z0.000F889.0
G1X127.395Y39.839Z-1.940
G1X127.226Y39.669Z0.000
G1X127.401Y39.842Z-1.972
G1X127.480Y39.798Z-1.471
G1X127.577Y39.765Z-1.095
G1X127.673Y39.754Z-0.970
G1X128.458Y39.754Z-0.970
G1X128.543Y39.669Z0.000
G1X128.458Y39.754Z-0.970
G1X128.543Y39.839Z0.000
G1X128.458Y39.754Z-0.970
G1X127.673Y39.754Z-0.970
G1X127.577Y39.765Z-1.095
G1X127.480Y39.798Z-1.471
G1X127.401Y39.842Z-1.972
G1X127.413Y39.924Z-1.559
G1X127.442Y40.015Z-1.249
G1X127.484Y40.092Z-1.145
G1X128.177Y41.118Z-1.067
G1X128.204Y41.160Z-1.083
G1X128.283Y41.297Z-1.083
G1X128.307Y41.345Z-1.115
G1X128.364Y41.477Z-1.108
G1X128.378Y41.518Z-1.137
G1X128.408Y41.625Z-1.123
G1X128.419Y41.676Z-1.154
G1X128.433Y41.820Z-1.155
G1X128.430Y41.853Z-1.155
G1X128.419Y41.956Z-1.197
G1X128.406Y42.019Z-1.166
G1X128.348Y42.146Z-1.233
G1X128.296Y42.216Z-1.175
G1X128.260Y42.247Z-1.146
G1X128.226Y42.271Z-1.162
G1X128.070Y42.340Z-1.020
G1X128.019Y42.350Z-1.039
G1X127.896Y42.363Z-0.984
G1X127.843Y42.361Z-0.997
G1X127.741Y42.348Z-1.058
G1X127.684Y42.335Z-1.036
G1X127.633Y42.317Z-1.074
G1X127.545Y42.269Z-1.109
G1X127.471Y42.204Z-1.131
G1X127.454Y42.184Z-1.123
G1X127.410Y42.119Z-1.174
G1X127.343Y41.981Z-1.118
G1X127.336Y41.955Z-1.127
G1X127.213Y41.856Z0.000
G1X127.336Y41.955Z-1.127
G1X127.418Y41.856Z0.000
G1X127.336Y41.955Z-1.127
G1X127.343Y41.981Z-1.118
G1X127.410Y42.119Z-1.174
G1X127.454Y42.184Z-1.123
G1X127.480Y42.212Z-1.126
G1X127.545Y42.269Z-1.109
G1X127.633Y42.317Z-1.074
G1X127.684Y42.335Z-1.036
G1X127.741Y42.348Z-1.058
G1X127.873Y42.364Z-0.991
G1X127.914Y42.362Z-0.988
G1X128.019Y42.350Z-1.039
G1X128.070Y42.340Z-1.020
G1X128.226Y42.271Z-1.162
G1X128.260Y42.247Z-1.146
G1X128.320Y42.185Z-1.191
G1X128.348Y42.146Z-1.233
G1X128.406Y42.019Z-1.166
G1X128.419Y41.956Z-1.197
G1X128.433Y41.820Z-1.155
G1X128.433Y41.819Z-1.156
G1X128.419Y41.676Z-1.154
G1X128.407Y41.620Z-1.124
G1X128.378Y41.518Z-1.137
G1X128.352Y41.448Z-1.100
G1X128.307Y41.345Z-1.115
G1X128.271Y41.275Z-1.077
G1X128.204Y41.160Z-1.083
G1X128.169Y41.105Z-1.065
G1X127.484Y40.092Z-1.145
G1X127.442Y40.015Z-1.249
G1X127.413Y39.924Z-1.559
G1X127.401Y39.842Z-1.972
G0Z5.080
G0X84.089Y39.836
G1Z-0.500F381.0
G1X84.155Y39.916F889.0
G1X84.204Y40.014
G1X84.235Y40.134
G1X84.240Y40.582
G1X84.198Y40.735
G1X84.120Y40.849
G1X83.983Y40.933
G1X84.019Y40.898
G1X84.110Y40.725
G1X84.137Y40.521
G1Y40.277
G1X84.106Y40.082
G1X83.996Y39.908
G1X83.821Y39.801
G1X83.613Y39.769
G1X83.402Y39.801
G1X83.234Y39.906
G1X83.162Y40.000
G1X83.102Y40.163
G1X82.988
G1X83.058Y39.949
G1X83.142Y39.836
G1X83.253Y39.756
G1X83.417Y39.702
G1X83.625Y39.683
G1X83.775Y39.693
G1X83.901Y39.724
G1X84.005Y39.771
G1X84.089Y39.836
G0Z5.080
G0X83.839Y41.029
G1Z-0.500F381.0
G2X83.835Y41.186I0.150J0.082F889.0
G1X83.602Y41.147
G1Y41.065
G1X83.839Y41.029
G0Z5.080
G0X83.991Y41.313
G1Z-0.500F381.0
G1X84.040Y41.343F889.0
G1X84.126Y41.435
G1X84.177Y41.539
G1X84.197Y41.670
G1X84.186Y41.994
G1X84.158Y42.105
G1X84.113Y42.194
G1X84.053Y42.268
G1X83.977Y42.327
G1X83.884Y42.370
G1X83.768Y42.398
G1X83.628Y42.408
G1X83.485Y42.397
G1X83.368Y42.367
G1X83.272Y42.320
G1X83.193Y42.255
G1X83.127Y42.169
G1X83.074Y42.057
G1X83.037Y41.921
G1X83.150
G1X83.163Y41.988
G1X83.259Y42.169
G1X83.420Y42.286
G1X83.614Y42.322
G1X83.806Y42.293
G1X83.962Y42.195
G1X84.060Y42.039
G1X84.087Y41.865
G1Y41.629
G1X84.064Y41.450
G1X83.991Y41.313
G0Z5.080
G0X83.558Y39.733
G1Z-1.000F381.0
G1X83.386Y39.759F889.0
G1X83.204Y39.873
G1X83.124Y39.977
G1X83.066Y40.120
G1X83.041
G1X83.130Y39.916
G1X83.271Y39.796
G1X83.426Y39.745
G1X83.558Y39.733
G0Z5.080
G0X83.621Y39.727
G1Z-1.000F381.0
G1X83.768Y39.737F889.0
G1X83.887Y39.765
G1X83.982Y39.809
G1X84.058Y39.868
G1X84.118Y39.940
G1X84.163Y40.029
G1X84.191Y40.141
G1X84.197Y40.576
G1X84.155Y40.722
G1X84.181Y40.524
G1Y40.274
G1X84.148Y40.067
G1X84.028Y39.876
G1X83.837Y39.759
G1X83.621Y39.727
G0Z5.080
G0X83.776Y41.088
G1Z-1.000F381.0
G1X83.775Y41.124F889.0
G1X83.677Y41.106
G1X83.776Y41.088
G0Z5.080
G0X84.116Y41.514
G1Z-1.000F381.0
G1X84.153Y41.673F889.0
G1X84.143Y41.987
G1X84.116Y42.089
G1X84.076Y42.170
G1X83.954Y42.289
G1X83.869Y42.329
G1X83.761Y42.355
G1X83.622Y42.364
G1X83.821Y42.335
G1X83.993Y42.226
G1X84.102Y42.055
G1X84.131Y41.868
G1Y41.627
G1X84.116Y41.514
G0Z5.080
G0X83.580Y42.360
G1Z-1.000F381.0
G1X83.383Y42.326F889.0
G1X83.295Y42.282
G1X83.224Y42.224
G1X83.165Y42.146
G1X83.094Y41.965
G1X83.114
G1X83.225Y42.198
G1X83.402Y42.327
G1X83.580Y42.360
G0Z5.080
G0X84.101Y39.952
G1Z-1.240F381.0
G1X84.164Y40.087Z-1.153F889.0
G1X84.176Y40.143Z-1.179
G1X84.192Y40.287Z-1.124
G1X84.191Y40.510Z-1.114
G1X84.185Y40.575Z-1.129
G1X84.173Y40.650Z-1.099
G1X84.129Y40.774Z-0.954
G1X84.096Y40.825Z-0.884
G1X84.002Y40.920Z-0.556
G1X83.936Y40.961Z-0.372
G1X83.913Y40.974Z-0.345
G1X83.911Y40.975Z-0.345
G1X83.861Y41.011Z-0.412
G1X83.814Y41.051Z-0.667
G1X83.760Y41.106Z-1.169
G1X83.794Y41.144Z-0.809
G1X83.855Y41.206Z-0.421
G1X83.895Y41.241Z-0.373
G1X83.939Y41.270Z-0.394
G1X83.997Y41.320Z-0.529
G1X84.030Y41.355Z-0.673
G1X84.071Y41.412Z-0.779
G1X84.105Y41.476Z-0.926
G1X84.129Y41.555Z-1.078
G1X84.140Y41.641Z-1.096
G1X84.142Y41.674Z-1.123
G1X84.139Y41.886Z-1.124
G1X84.128Y41.984Z-1.169
G1X84.117Y42.034Z-1.147
G1X84.060Y42.159Z-1.229
G1X84.011Y42.224Z-1.190
G1X83.978Y42.252Z-1.168
G1X83.946Y42.275Z-1.184
G1X83.864Y42.319Z-1.114
G1X83.796Y42.342Z-1.047
G1X83.760Y42.349Z-1.060
G1X83.601Y42.362Z-0.994
G1X83.493Y42.349Z-1.054
G1X83.435Y42.336Z-1.034
G1X83.358Y42.305Z-1.089
G1X83.303Y42.271Z-1.153
G1X83.233Y42.216Z-1.138
G1X83.213Y42.191Z-1.125
G1X83.177Y42.139Z-1.167
G1X83.126Y42.037Z-1.136
G1X83.110Y41.989Z-1.104
G1X83.106Y41.974Z-1.107
G1X82.986Y41.877Z0.000
G1X83.106Y41.974Z-1.107
G1X83.186Y41.877Z0.000
G1X83.106Y41.974Z-1.107
G1X83.110Y41.989Z-1.104
G1X83.126Y42.037Z-1.137
G1X83.177Y42.139Z-1.167
G1X83.213Y42.191Z-1.125
G1X83.258Y42.237Z-1.135
G1X83.303Y42.271Z-1.153
G1X83.385Y42.320Z-1.071
G1X83.435Y42.336Z-1.034
G1X83.493Y42.349Z-1.054
G1X83.601Y42.362Z-0.994
G1X83.760Y42.349Z-1.060
G1X83.796Y42.342Z-1.047
G1X83.866Y42.319Z-1.118
G1X83.946Y42.275Z-1.184
G1X83.978Y42.252Z-1.168
G1X84.034Y42.195Z-1.199
G1X84.060Y42.159Z-1.229
G1X84.117Y42.034Z-1.147
G1X84.128Y41.984Z-1.169
G1X84.141Y41.868Z-1.120
G1X84.142Y41.674Z-1.123
G1X84.136Y41.612Z-1.083
G1X84.129Y41.555Z-1.078
G1X84.098Y41.454Z-0.890
G1X84.071Y41.412Z-0.779
G1X84.030Y41.355Z-0.673
G1X83.997Y41.320Z-0.529
G1X83.939Y41.270Z-0.394
G1X83.895Y41.241Z-0.373
G1X83.855Y41.206Z-0.421
G1X83.794Y41.144Z-0.809
G1X83.760Y41.106Z-1.169
G1X83.682Y41.106Z-1.009
G1X83.644Z-0.970
G1X83.643
G1X83.558Y41.191Z0.000
G1X83.643Y41.106Z-0.970
G1X83.558Y41.021Z0.000
G1X83.643Y41.106Z-0.970
G1X83.644
G1X83.683Y41.106Z-1.012
G1X83.760Y41.106Z-1.169
G1X83.814Y41.051Z-0.667
G1X83.861Y41.011Z-0.412
G1X83.911Y40.975Z-0.345
G1X83.913Y40.974Z-0.345
G1X83.946Y40.955Z-0.399
G1X84.059Y40.871Z-0.754
G1X84.096Y40.825Z-0.884
G1X84.161Y40.701Z-1.033
G1X84.173Y40.650Z-1.099
G1X84.185Y40.575Z-1.129
G1X84.191Y40.510Z-1.114
G1X84.191Y40.274Z-1.122
G1X84.176Y40.143Z-1.179
G1X84.164Y40.087Z-1.153
G1X84.101Y39.952Z-1.240
G1X84.047Y39.880Z-1.191
G1X84.012Y39.851Z-1.165
G1X83.973Y39.823Z-1.187
G1X83.878Y39.773Z-1.109
G1X83.813Y39.752Z-1.047
G1X83.767Y39.742Z-1.065
G1X83.593Y39.729Z-0.990
G1X83.427Y39.749Z-1.046
G1X83.394Y39.759Z-1.031
G1X83.346Y39.778Z-1.066
G1X83.277Y39.810Z-1.169
G1X83.230Y39.839Z-1.173
G1X83.203Y39.860Z-1.159
G1X83.143Y39.926Z-1.183
G1X83.102Y39.993Z-1.150
G1X83.067Y40.079Z-1.110
G1X83.057Y40.109Z-1.123
G1X83.138Y40.207Z0.000
G1X83.057Y40.109Z-1.123
G1X82.938Y40.207Z0.000
G1X83.057Y40.109Z-1.123
G1X83.073Y40.062Z-1.115
G1X83.115Y39.967Z-1.163
G1X83.143Y39.926Z-1.183
G1X83.203Y39.860Z-1.159
G1X83.230Y39.839Z-1.173
G1X83.277Y39.810Z-1.169
G1X83.346Y39.778Z-1.066
G1X83.394Y39.759Z-1.031
G1X83.427Y39.749Z-1.046
G1X83.593Y39.729Z-0.990
G1X83.625Y39.727Z-1.004
G1X83.624Y39.639Z0.000
G1X83.625Y39.727Z-1.004
G1X83.767Y39.742Z-1.065
G1X83.813Y39.752Z-1.047
G1X83.883Y39.775Z-1.119
G1X83.973Y39.823Z-1.187
G1X84.012Y39.851Z-1.165
G1X84.070Y39.909Z-1.201
G1X84.101Y39.952Z-1.240
G0Z5.080
G0X82.071Y39.713
G1Z-0.500F381.0
G1X82.205Y39.713F889.0
G1X81.712Y40.797
G1X81.613Y40.776
G1X82.071Y39.713
G0Z5.080
G0X82.100Y39.757
G1Z-1.000F381.0
G1X82.137Y39.757F889.0
G1X81.687Y40.747
G1X81.674Y40.744
G1X82.100Y39.757
G0Z5.080
G0X82.111Y39.773
G1Z-1.188F381.0
G1X82.272Y39.670Z0.000F889.0
G1X82.111Y39.773Z-1.188
G1X81.683Y40.740Z-1.072
G1X81.737Y40.848Z0.000
G1X81.683Y40.740Z-1.072
G1X81.552Y40.807Z0.000
G1X81.683Y40.740Z-1.072
G1X82.111Y39.773Z-1.188
G1X82.043Y39.670Z0.000
G1X82.111Y39.773Z-1.188
G0Z5.080
G0X81.529Y40.976
G1Z-0.500F381.0
G1X81.734Y40.997F889.0
G1X81.892Y41.055
G1X82.016Y41.145
G1X82.108Y41.266
G1X82.167Y41.421
G1X82.189Y41.743
G1X82.168Y41.940
G1X82.108Y42.092
G1X82.018Y42.211
G1X81.893Y42.300
G1X81.734Y42.358
G1X81.529Y42.379
G1X80.883
G1Y42.297
G1X81.567
G1X81.754Y42.263
G1X81.856Y42.207
G1X81.941Y42.129
G1X82.042Y41.954
G1X82.072Y41.748
G1Y41.597
G1X82.041Y41.395
G1X81.940Y41.221
G1X81.853Y41.144
G1X81.752Y41.090
G1X81.567Y41.056
G1X80.883
G1Y40.976
G1X81.529
G0Z5.080
G0X81.737Y42.311
G1Z-1.000F381.0
G1X81.724Y42.315F889.0
G1X81.696Y42.318
G1X81.737Y42.311
G0Z5.080
G0X81.811Y41.072
G1Z-1.000F381.0
G1X81.872Y41.094F889.0
G1X81.985Y41.177
G1X82.070Y41.287
G1X82.125Y41.431
G1X82.146Y41.740
G1X82.125Y41.929
G1X82.070Y42.070
G1X81.987Y42.180
G1X81.873Y42.261
G1X81.800Y42.288
G1X81.881Y42.242
G1X81.975Y42.157
G1X82.084Y41.968
G1X82.116Y41.751
G1Y41.593
G1X82.083Y41.380
G1X81.974Y41.192
G1X81.878Y41.108
G1X81.811Y41.072
G0Z5.080
G0X82.053Y42.061
G1Z-1.220F381.0
G1X81.987Y42.158Z-1.144F889.0
G1X81.978Y42.170Z-1.147
G1X81.884Y42.246Z-1.067
G1X81.870Y42.256Z-1.071
G1X81.769Y42.300Z-0.985
G1X81.724Y42.314Z-1.013
G1X81.573Y42.335Z-0.949
G1X81.527Y42.338Z-0.970
G1X80.925
G1X80.840Y42.423Z0.000
G1X80.925Y42.338Z-0.970
G1X80.840Y42.253Z0.000
G1X80.925Y42.338Z-0.970
G1X81.527
G1X81.590Y42.333Z-0.952
G1X81.724Y42.314Z-1.013
G1X81.769Y42.300Z-0.985
G1X81.870Y42.256Z-1.071
G1X81.904Y42.231Z-1.075
G1X81.978Y42.170Z-1.147
G1X82.004Y42.135Z-1.155
G1X82.053Y42.061Z-1.220
G1X82.090Y41.980Z-1.158
G1X82.108Y41.925Z-1.199
G1X82.131Y41.736Z-1.171
G1X82.130Y41.610Z-1.162
G1X82.127Y41.575Z-1.155
G1X82.108Y41.435Z-1.189
G1X82.089Y41.372Z-1.138
G1X82.054Y41.296Z-1.199
G1X81.985Y41.194Z-1.121
G1X81.978Y41.185Z-1.123
G1X81.899Y41.120Z-1.058
G1X81.869Y41.098Z-1.057
G1X81.767Y41.054Z-0.973
G1X81.724Y41.040Z-1.000
G1X81.573Y41.019Z-0.937
G1X81.527Y41.016Z-0.958
G1X80.924
G1X80.840Y41.100Z0.000
G1X80.924Y41.016Z-0.958
G1X80.840Y40.932Z0.000
G1X80.924Y41.016Z-0.958
G1X81.527
G1X81.589Y41.021Z-0.940
G1X81.724Y41.040Z-1.000
G1X81.767Y41.054Z-0.973
G1X81.869Y41.098Z-1.057
G1X81.899Y41.120Z-1.058
G1X81.978Y41.185Z-1.123
G1X82.001Y41.217Z-1.131
G1X82.054Y41.296Z-1.199
G1X82.089Y41.372Z-1.138
G1X82.108Y41.435Z-1.189
G1X82.128Y41.585Z-1.154
G1X82.131Y41.624Z-1.171
G1X82.128Y41.769Z-1.166
G1X82.108Y41.925Z-1.199
G1X82.090Y41.980Z-1.158
G1X82.053Y42.061Z-1.220
G0Z5.080
G0X80.790Y42.379
G1Z-0.500F381.0
G1X80.689F889.0
G1Y39.713
G1X80.790
G1Y42.379
G0Z5.080
G0X80.746Y42.336
G1Z-1.000F381.0
G1X80.733F889.0
G1Y39.757
G1X80.746
G1Y42.336
G0Z5.080
G0X80.740Y42.329
G1Z-1.076F381.0
G1X80.645Y42.423Z0.000F889.0
G1X80.740Y42.329Z-1.076
G1Y39.764
G1X80.645Y39.669Z0.000
G1X80.740Y39.764Z-1.076
G1X80.834Y39.669Z0.000
G1X80.740Y39.764Z-1.076
G1Y42.329
G1X80.834Y42.423Z0.000
G1X80.740Y42.329Z-1.076
G0Z5.080
G0X79.399Y42.327
G1Z-0.500F381.0
G1X79.241Y42.364F889.0
G1X78.612Y42.377
G1Y42.295
G1X79.195Y42.286
G1X79.323Y42.255
G1X79.439Y42.201
G1X79.540Y42.124
G1X79.621Y42.027
G1X79.678Y41.912
G1X79.710Y41.787
G1X79.710Y40.303
G1X79.678Y40.178
G1X79.621Y40.063
G1X79.540Y39.964
G1X79.438Y39.887
G1X79.322Y39.834
G1X79.195Y39.804
G1X78.612Y39.796
G1Y39.713
G1X79.043
G1X79.301Y39.738
G1X79.490Y39.803
G1X79.636Y39.905
G1X79.740Y40.042
G1X79.806Y40.216
G1X79.831Y40.453
G1Y41.640
G1X79.817Y41.821
G1X79.779Y41.968
G1X79.718Y42.088
G1X79.635Y42.188
G1X79.529Y42.268
G1X79.399Y42.327
G0Z5.080
G0X79.385Y42.285
G1Z-1.000F381.0
G1X79.339Y42.296F889.0
G1X79.462Y42.239
G1X79.570Y42.156
G1X79.658Y42.051
G1X79.719Y41.928
G1X79.753Y41.794
G1X79.763Y40.429
G1X79.753Y40.296
G1X79.719Y40.163
G1X79.658Y40.039
G1X79.570Y39.932
G1X79.460Y39.849
G1X79.282Y39.780
G1X79.471Y39.842
G1X79.605Y39.936
G1X79.701Y40.063
G1X79.763Y40.225
G1X79.787Y40.455
G1Y41.639
G1X79.774Y41.814
G1X79.738Y41.952
G1X79.682Y42.064
G1X79.605Y42.156
G1X79.507Y42.230
G1X79.385Y42.285
G0Z5.080
G0X79.670Y42.056
G1Z-1.163F381.0
G1X79.725Y41.947Z-1.159F889.0
G1X79.736Y41.909Z-1.139
G1X79.761Y41.812Z-1.141
G1X79.766Y41.776Z-1.125
G1X79.775Y41.638Z-1.136
G1Y40.456
G1X79.763Y40.308Z-1.098
G1X79.749Y40.228Z-1.152
G1X79.734Y40.172Z-1.140
G1X79.689Y40.070Z-1.161
G1X79.668Y40.034Z-1.142
G1X79.646Y40.003Z-1.158
G1X79.596Y39.944Z-1.140
G1X79.556Y39.909Z-1.116
G1X79.538Y39.894Z-1.122
G1X79.441Y39.835Z-1.058
G1X79.384Y39.810Z-1.047
G1X79.316Y39.788Z-1.004
G1X79.293Y39.782Z-1.009
G1X79.184Y39.765Z-0.938
G1X79.041Y39.754Z-0.970
G1X78.653
G1X78.568Y39.839Z0.000
G1X78.653Y39.754Z-0.970
G1X78.568Y39.669Z0.000
G1X78.653Y39.754Z-0.970
G1X79.059Y39.755Z-0.960
G1X79.189Y39.766Z-0.938
G1X79.293Y39.782Z-1.009
G1X79.323Y39.789Z-1.004
G1X79.384Y39.810Z-1.047
G1X79.484Y39.858Z-1.081
G1X79.538Y39.894Z-1.122
G1X79.563Y39.915Z-1.115
G1X79.597Y39.945Z-1.141
G1X79.646Y40.003Z-1.158
G1X79.668Y40.034Z-1.142
G1X79.689Y40.070Z-1.161
G1X79.737Y40.181Z-1.141
G1X79.749Y40.228Z-1.152
G1X79.763Y40.314Z-1.099
G1X79.775Y40.456Z-1.136
G1X79.775Y41.653Z-1.129
G1X79.766Y41.776Z-1.125
G1X79.761Y41.816Z-1.141
G1X79.736Y41.910Z-1.139
G1X79.721Y41.954Z-1.158
G1X79.670Y42.056Z-1.163
G1X79.596Y42.146Z-1.152
G1X79.558Y42.179Z-1.118
G1X79.501Y42.221Z-1.114
G1X79.442Y42.254Z-1.057
G1X79.383Y42.281Z-1.054
G1X79.316Y42.302Z-0.997
G1X79.234Y42.321Z-0.995
G1X79.184Y42.327Z-0.963
G1X79.046Y42.336Z-0.970
G1X78.653
G1X78.568Y42.421Z0.000
G1X78.653Y42.336Z-0.970
G1X78.568Y42.251Z0.000
G1X78.653Y42.336Z-0.970
G1X79.074Y42.335Z-0.962
G1X79.184Y42.327Z-0.963
G1X79.234Y42.321Z-0.995
G1X79.316Y42.302Z-0.997
G1X79.383Y42.281Z-1.054
G1X79.442Y42.254Z-1.057
G1X79.501Y42.221Z-1.114
G1X79.558Y42.179Z-1.118
G1X79.596Y42.146Z-1.152
G1X79.670Y42.056Z-1.163
G0Z5.080
G0X78.434Y42.377
G1Z-0.500F381.0
G1X78.333F889.0
G1Y39.713
G1X78.434
G1Y42.377
G0Z5.080
G0X78.390Y42.334
G1Z-1.000F381.0
G1X78.376F889.0
G1Y39.757
G1X78.390
G1Y42.334
G0Z5.080
G0X78.383Y42.327
G1Z-1.076F381.0
G1X78.289Y42.421Z0.000F889.0
G1X78.383Y42.327Z-1.076
G1Y39.764
G1X78.289Y39.669Z0.000
G1X78.383Y39.764Z-1.076
G1X78.477Y39.669Z0.000
G1X78.383Y39.764Z-1.076
G1Y42.327
G1X78.477Y42.421Z0.000
G1X78.383Y42.327Z-1.076
G0Z5.080
G0X76.667Y42.300
G1Z-0.500F381.0
G1X76.602Y42.093F889.0
G1X76.733
G1X76.667Y42.300
G1X76.722Y42.377
G1X76.613
G1X76.097Y40.747
G1X76.175
G1X76.503Y41.902
G2X76.832I0.164J-0.047
G1X77.160Y40.747
G1X77.238
G1X76.722Y42.377
G0Z5.080
G0X77.460Y40.045
G1Z-0.500F381.0
G1X77.375Y39.990F889.0
G1X77.454Y39.713
G1X77.565
G1X77.460Y40.045
G0Z5.080
G0X75.883Y40.070
G1Z-0.500F381.0
G1X75.770Y39.713F889.0
G1X75.881
G1X75.962Y39.998
G1X75.883Y40.070
G0Z5.080
G0X76.671Y42.145
G1Z-1.000F381.0
G1X76.667Y42.155F889.0
G1X76.664Y42.145
G1X76.671
G1X76.785Y42.035
G1X76.690Y42.334
G1X76.645
G1X76.550Y42.035
G2X76.785Y42.035I0.117J-0.180
G0Z5.080
G0X77.438Y39.970
G1Z-1.000F381.0
G1X77.428Y39.964F889.0
G1X77.487Y39.757
G1X77.505
G1X77.438Y39.970
G0Z5.080
G0X75.901Y39.983
G1Z-1.000F381.0
G1X75.830Y39.757F889.0
G1X75.848
G1X75.911Y39.977
G1X75.901Y39.983
G0Z5.080
G0X76.715Y42.109
G1Z-1.500F381.0
G1X76.667Y42.260F889.0
G1X76.620Y42.109
G1X76.715
G0Z5.080
G0X76.667Y42.148
G1Z-1.888F381.0
G1Y42.302Z-1.355F889.0
G1X76.754Y42.421Z0.000
G1X76.667Y42.302Z-1.355
G1X76.581Y42.421Z0.000
G1X76.667Y42.302Z-1.355
G1Y42.148Z-1.888
G1X76.594Y42.085Z-1.305
G1X76.528Y42.003Z-0.868
G1X76.486Y41.913Z-0.722
G1X76.147Y40.784Z-0.920
G1X76.037Y40.703Z0.250
G1X76.031Y40.698Z0.500
G1X75.983Y40.652
G1X75.949Y40.576
G1X75.904Y40.282Z0.250
G1X75.881Y40.085Z-0.434
G1X75.904Y39.974Z-1.063
G1X75.841Y39.766Z-1.100
G1X75.710Y39.669Z0.000
G1X75.841Y39.766Z-1.100
G1X75.914Y39.669Z0.000
G1X75.841Y39.766Z-1.100
G1X75.904Y39.974Z-1.063
G1X76.017Y40.030Z0.000
G1X75.904Y39.974Z-1.063
G1X75.881Y40.085Z-0.434
G1X75.904Y40.282Z0.250
G1X75.949Y40.576Z0.500
G1X76.000Y40.672
G1X76.031Y40.698
G1X76.037Y40.703Z0.250
G1X76.147Y40.784Z-0.920
G1X76.208Y40.703Z0.000
G1X76.147Y40.784Z-0.920
G1X76.486Y41.913Z-0.722
G1X76.528Y42.003Z-0.868
G1X76.594Y42.085Z-1.305
G1X76.667Y42.148Z-1.888
G1X76.741Y42.085Z-1.305
G1X76.807Y42.003Z-0.868
G1X76.849Y41.913Z-0.722
G1X77.188Y40.784Z-0.920
G1X77.127Y40.703Z0.000
G1X77.188Y40.784Z-0.920
G1X77.329Y40.680Z0.500
G1X77.394Y40.596
G1X77.398Y40.576
G1X77.456Y40.203Z0.250
G1X77.463Y40.154Z-0.086
G1X77.465Y40.078Z-0.331
G1X77.435Y39.961Z-1.065
G1X77.319Y40.027Z0.000
G1X77.435Y39.961Z-1.065
G1X77.493Y39.766Z-1.100
G1X77.421Y39.669Z0.000
G1X77.493Y39.766Z-1.100
G1X77.625Y39.669Z0.000
G1X77.493Y39.766Z-1.100
G1X77.435Y39.961Z-1.065
G1X77.465Y40.078Z-0.331
G1X77.463Y40.154Z-0.086
G1X77.456Y40.203Z0.250
G1X77.398Y40.576Z0.500
G1X77.355Y40.658
G1X77.329Y40.680
G1X77.188Y40.784Z-0.920
G1X76.849Y41.913Z-0.722
G1X76.807Y42.003Z-0.868
G1X76.741Y42.085Z-1.305
G1X76.667Y42.148Z-1.888
G0Z5.080
G0X77.201Y40.444
G1Z-0.013F381.0
G0Z5.080
G0X37.578Y74.475
G1Z-0.500F381.0
G1X37.628F889.0
G1X37.704Y74.749
G2X37.503I-0.100J0.225
G1X37.578Y74.475
G1X37.520Y74.400
G1X37.686
G1X38.419Y77.064
G1X38.305
G1X37.769Y74.932
G2X37.438I-0.166J0.042
G1X36.902Y77.064
G1X36.787
G1X37.520Y74.400
G0Z5.080
G0X37.603Y74.551
G1Z-1.000F381.0
G1X37.640Y74.685F889.0
G1X37.566
G1X37.603Y74.551
G1X37.554Y74.444
G1X37.653
G1X37.757Y74.824
G2X37.449I-0.154J0.149
G1X37.554Y74.444
G0Z5.080
G0X38.100Y76.069
G1Z-1.000F381.0
G1X38.361Y77.020F889.0
G1X38.339
G1X38.100Y76.069
G0Z5.080
G0X37.107
G1Z-1.000F381.0
G1X36.867Y77.020F889.0
G1X36.845
G1X37.107Y76.069
G0Z5.080
G0X37.521Y74.729
G1Z-1.500F381.0
G1X37.587Y74.488F889.0
G1X37.619
G1X37.686Y74.729
G1X37.521
G0Z5.080
G0X37.582Y74.672
G1Z-2.000F381.0
G1X37.603Y74.594F889.0
G1X37.625Y74.672
G1X37.582
G0Z5.080
G0X37.603Y74.655
G1Z-2.186F381.0
G1Y74.509Z-1.742F889.0
G1X37.487Y74.356Z0.000
G1X37.603Y74.509Z-1.742
G1X37.719Y74.356Z0.000
G1X37.603Y74.509Z-1.742
G1Y74.655Z-2.186
G1X37.683Y74.726Z-1.518
G1X37.754Y74.819Z-1.017
G1X37.797Y74.920Z-0.850
G1X38.347Y77.010Z-1.123
G1X38.476Y77.108Z0.000
G1X38.347Y77.010Z-1.123
G1X38.271Y77.108Z0.000
G1X38.347Y77.010Z-1.123
G1X37.797Y74.920Z-0.850
G1X37.754Y74.819Z-1.017
G1X37.683Y74.726Z-1.518
G1X37.603Y74.655Z-2.186
G1X37.523Y74.726Z-1.518
G1X37.452Y74.819Z-1.017
G1X37.409Y74.920Z-0.850
G1X36.859Y77.010Z-1.123
G1X36.936Y77.108Z0.000
G1X36.859Y77.010Z-1.123
G1X36.730Y77.108Z0.000
G1X36.859Y77.010Z-1.123
G1X37.409Y74.920Z-0.850
G1X37.452Y74.819Z-1.017
G1X37.523Y74.726Z-1.518
G1X37.603Y74.655Z-2.186
G0Z5.080
G0X34.731Y74.756
G1Z-0.500F381.0
G1X34.618Y74.400F889.0
G1X34.729
G1X34.810Y74.685
G1X34.731Y74.756
G0Z5.080
G0X35.515Y76.987
G1Z-0.500F381.0
G1X35.450Y76.780F889.0
G1X35.581Y76.780
G1X35.515Y76.987
G1X35.570Y77.064
G1X35.461
G1X34.945Y75.434
G1X35.023
G1X35.351Y76.589
G2X35.680I0.164J-0.047
G1X36.008Y75.434
G1X36.086
G1X35.570Y77.064
G0Z5.080
G0X36.308Y74.732
G1Z-0.500F381.0
G1X36.223Y74.677F889.0
G1X36.302Y74.400
G1X36.413
G1X36.308Y74.732
G0Z5.080
G0X34.749Y74.670
G1Z-1.000F381.0
G1X34.678Y74.444F889.0
G1X34.696
G1X34.759Y74.664
G1X34.749Y74.670
G0Z5.080
G0X35.512Y76.832
G1Z-1.000F381.0
G1X35.519F889.0
G1X35.515Y76.842
G1X35.512Y76.832
G1X35.398Y76.722
G2X35.633Y76.722I0.117J-0.180
G1X35.538Y77.020
G1X35.493
G1X35.398Y76.722
G0Z5.080
G0X36.286Y74.656
G1Z-1.000F381.0
G1X36.276Y74.651F889.0
G1X36.335Y74.444
G1X36.353
G1X36.286Y74.656
G0Z5.080
G0X35.563Y76.796
G1Z-1.500F381.0
G1X35.515Y76.947F889.0
G1X35.468Y76.796
G1X35.563
G0Z5.080
G0X35.515Y76.835
G1Z-1.888F381.0
G1Y76.989Z-1.355F889.0
G1X35.602Y77.108Z0.000
G1X35.515Y76.989Z-1.355
G1X35.429Y77.108Z0.000
G1X35.515Y76.989Z-1.355
G1Y76.835Z-1.888
G1X35.442Y76.772Z-1.305
G1X35.376Y76.690Z-0.868
G1X35.334Y76.600Z-0.722
G1X34.995Y75.470Z-0.920
G1X34.885Y75.390Z0.250
G1X34.879Y75.385Z0.500
G1X34.831Y75.339
G1X34.797Y75.263
G1X34.752Y74.968Z0.250
G1X34.729Y74.771Z-0.434
G1X34.752Y74.661Z-1.063
G1X34.689Y74.452Z-1.100
G1X34.558Y74.356Z0.000
G1X34.689Y74.452Z-1.100
G1X34.762Y74.356Z0.000
G1X34.689Y74.452Z-1.100
G1X34.752Y74.661Z-1.063
G1X34.865Y74.717Z0.000
G1X34.752Y74.661Z-1.063
G1X34.729Y74.771Z-0.434
G1X34.752Y74.968Z0.250
G1X34.797Y75.263Z0.500
G1X34.848Y75.359
G1X34.879Y75.385
G1X34.885Y75.390Z0.250
G1X34.995Y75.470Z-0.920
G1X35.056Y75.390Z0.000
G1X34.995Y75.470Z-0.920
G1X35.334Y76.600Z-0.722
G1X35.376Y76.690Z-0.868
G1X35.442Y76.772Z-1.305
G1X35.515Y76.835Z-1.888
G1X35.589Y76.772Z-1.305
G1X35.655Y76.690Z-0.868
G1X35.697Y76.600Z-0.722
G1X36.036Y75.470Z-0.920
G1X35.975Y75.390Z0.000
G1X36.036Y75.470Z-0.920
G1X36.177Y75.367Z0.500
G1X36.242Y75.283
G1X36.246Y75.263
G1X36.304Y74.890Z0.250
G1X36.311Y74.841Z-0.086
G1X36.313Y74.765Z-0.331
G1X36.283Y74.648Z-1.065
G1X36.167Y74.714Z0.000
G1X36.283Y74.648Z-1.065
G1X36.341Y74.452Z-1.100
G1X36.269Y74.356Z0.000
G1X36.341Y74.452Z-1.100
G1X36.473Y74.356Z0.000
G1X36.341Y74.452Z-1.100
G1X36.283Y74.648Z-1.065
G1X36.313Y74.765Z-0.331
G1X36.311Y74.841Z-0.086
G1X36.304Y74.890Z0.250
G1X36.246Y75.263Z0.500
G1X36.203Y75.345
G1X36.177Y75.367
G1X36.036Y75.470Z-0.920
G1X35.697Y76.600Z-0.722
G1X35.655Y76.690Z-0.868
G1X35.589Y76.772Z-1.305
G1X35.515Y76.835Z-1.888
G0Z5.080
G0X36.049Y75.131
G1Z-0.013F381.0
G0Z5.080
G0X33.808Y74.721
G1Z-0.500F381.0
G1X33.699Y74.657F889.0
G1X33.791Y74.477
G1X33.816
G1Y74.728
G1X33.808Y74.721
G1X33.755Y74.774
G2X33.574Y74.735I-0.121J0.121
G1X33.745Y74.402
G1X33.892
G1Y77.064
G1X33.805
G1Y75.102
G1X33.843Y75.027
G2X33.811Y74.830I-0.153J-0.077
G1X33.755Y74.774
G0Z5.080
G0X32.722Y76.495
G1Z-0.500F381.0
G1Y76.396F889.0
G1X33.464Y74.950
G1Y75.021
G1X32.722Y76.495
G0Z5.080
G0X32.371Y76.685
G1Z-0.500F381.0
G1X32.505Y76.759F889.0
G1X32.389Y76.989
G1X32.370
G1Y76.684
G1X32.371Y76.685
G1X32.426Y76.634
G2X32.636Y76.666I0.125J-0.116
G1X32.436Y77.064
G1X32.294
G1Y74.402
G1X32.381Y74.402
G1Y76.313
G1X32.346Y76.382
G2X32.372Y76.576I0.152J0.078
G1X32.426Y76.634
G0Z5.080
G0X33.772Y74.640
G1Z-1.000F381.0
G1X33.760Y74.634F889.0
G1X33.772Y74.610
G1Y74.640
G1X33.786Y74.743
G1X33.651Y74.681
G1X33.772Y74.446
G1X33.848
G1Y74.805
G1X33.786Y74.743
G0Z5.080
G0X32.413Y76.772
G1Z-1.000F381.0
G1X32.442Y76.786F889.0
G1X32.413Y76.843
G1Y76.772
G1X32.394Y76.663
G2X32.554Y76.732I0.157J-0.146
G1X32.409Y77.020
G1X32.338
G1Y76.603
G1X32.394Y76.663
G0Z5.080
G0X33.716Y74.650
G1Z-1.500F381.0
G1X33.798Y74.490F889.0
G1X33.804
G1Y74.700
G1X33.716Y74.650
G0Z5.080
G0X32.487Y76.768
G1Z-1.500F381.0
G1X32.382Y76.976F889.0
G1X32.382Y76.712
G1X32.487Y76.768
G0Z5.080
G0X32.425Y76.792
G1Z-2.000F381.0
G1X32.426Y76.792F889.0
G1X32.425Y76.793
G1Y76.792
G0Z5.080
G1X32.425Y76.792Z-2.001F381.0
G1X32.530Y76.746Z-1.169F889.0
G1X32.627Y76.675Z-0.546
G1X32.649Y76.651Z-0.442
G1X32.691Y76.588Z-0.338
G1X32.717Y76.518Z-0.439
G1X32.744Y76.401Z-0.754
G1X33.448Y75.017Z-0.684
G1X33.477Y74.895Z-0.347
G1X33.502Y74.827Z-0.248
G1X33.544Y74.766Z-0.352
G1X33.602Y74.712Z-0.666
G1X33.663Y74.675Z-1.085
G1X33.767Y74.631Z-1.922
G1X33.801Y74.493Z-1.540
G1X33.718Y74.358Z0.000
G1X33.801Y74.493Z-1.540
G1X33.935Y74.358Z0.000
G1X33.801Y74.493Z-1.540
G1X33.767Y74.631Z-1.922
G1X33.844Y74.797Z-1.040
G1X33.860Y74.842Z-0.857
G1X33.876Y74.951Z-0.675
G1X33.866Y75.039Z-0.795
G1X33.848Y75.112Z-0.994
G1Y77.021
G1X33.935Y77.108Z0.000
G1X33.848Y77.021Z-0.994
G1X33.761Y77.108Z0.000
G1X33.848Y77.021Z-0.994
G1Y75.112
G1X33.866Y75.039Z-0.795
G1X33.876Y74.951Z-0.675
G1X33.860Y74.842Z-0.857
G1X33.812Y74.718Z-1.413
G1X33.767Y74.631Z-1.922
G1X33.663Y74.675Z-1.085
G1X33.566Y74.742Z-0.457
G1X33.544Y74.766Z-0.352
G1X33.502Y74.827Z-0.248
G1X33.477Y74.895Z-0.347
G1X33.448Y75.017Z-0.684
G1X32.744Y76.401Z-0.754
G1X32.717Y76.518Z-0.439
G1X32.691Y76.588Z-0.338
G1X32.649Y76.651Z-0.442
G1X32.591Y76.706Z-0.754
G1X32.530Y76.746Z-1.169
G1X32.425Y76.792Z-2.001
G1X32.382Y76.976Z-1.501
G1X32.463Y77.108Z0.000
G1X32.382Y76.976Z-1.501
G1X32.250Y77.108Z0.000
G1X32.382Y76.976Z-1.501
G1X32.425Y76.792Z-2.001
G1X32.370Y76.686Z-1.372
G1X32.325Y76.564Z-0.852
G1X32.310Y76.460Z-0.687
G1X32.321Y76.369Z-0.811
G1X32.337Y76.303Z-0.994
G1Y74.445
G1X32.250Y74.358Z0.000
G1X32.337Y74.445Z-0.994
G1X32.424Y74.358Z0.000
G1X32.337Y74.445Z-0.994
G1Y76.303
G1X32.321Y76.369Z-0.811
G1X32.310Y76.460Z-0.687
G1X32.325Y76.564Z-0.852
G1X32.370Y76.686Z-1.372
G1X32.425Y76.792Z-2.001
G0Z5.080
G0X21.860Y69.871
G1Z-0.500F381.0
G1X21.961Y69.875F889.0
G1Y70.439
G1X21.860Y70.443
G1Y69.871
G0Z5.080
G0Y69.116
G1Z-0.500F381.0
G1Y68.199F889.0
G1X21.961
G1Y69.112
G1X21.860Y69.116
G0Z5.080
G0X21.904Y69.919
G1Z-1.000F381.0
G1X21.917F889.0
G1Y70.395
G1X21.904
G1Y69.919
G0Z5.080
G0Y69.068
G1Z-1.000F381.0
G1Y68.242F889.0
G1X21.917
G1Y69.068
G1X21.904
G0Z5.080
G0X21.911Y68.249
G1Z-1.076F381.0
G1X22.005Y68.155Z0.000F889.0
G1X21.911Y68.249Z-1.076
G1Y69.061
G1X22.005Y69.156Z0.000
G1X21.911Y69.061Z-1.076
G1X21.820Y69.178Z-0.040
G1X21.807Y69.209Z0.500
G1X21.794Y69.283
G1Y69.704
G1X21.807Y69.778
G1X21.820Y69.809Z-0.040
G1X21.911Y69.925Z-1.076
G1X22.005Y69.831Z0.000
G1X21.911Y69.925Z-1.076
G1Y70.388
G1X22.005Y70.483Z0.000
G1X21.911Y70.388Z-1.076
G1X21.820Y70.505Z-0.040
G1X21.817Y70.513Z0.000
G1X21.846Y70.462Z-0.338
G1X21.911Y70.388Z-1.076
G1Y69.925
G1X21.820Y69.809Z-0.040
G1X21.807Y69.778Z0.500
G1X21.794Y69.704
G1Y69.283
G1X21.807Y69.209
G1X21.820Y69.178Z-0.040
G1X21.911Y69.061Z-1.076
G1Y68.249
G1X21.817Y68.155Z0.000
G1X21.911Y68.249Z-1.076
G0Z5.080
G0X19.775Y69.871
G1Z-0.500F381.0
G1X19.875Y69.875F889.0
G1Y70.439
G1X19.775Y70.443
G1Y69.871
G0Z5.080
G0Y69.116
G1Z-0.500F381.0
G1Y68.199F889.0
G1X19.875
G1Y69.112
G1X19.775Y69.116
G0Z5.080
G0X19.818Y69.919
G1Z-1.000F381.0
G1X19.832F889.0
G1Y70.395
G1X19.818
G1Y69.919
G0Z5.080
G0Y69.068
G1Z-1.000F381.0
G1Y68.242F889.0
G1X19.832
G1Y69.068
G1X19.818
G0Z5.080
G0X19.825Y69.925
G1Z-1.076F381.0
G1X19.919Y69.831Z0.000F889.0
G1X19.825Y69.925Z-1.076
G1Y70.388
G1X19.919Y70.483Z0.000
G1X19.825Y70.388Z-1.076
G1X19.734Y70.505Z-0.040
G1X19.731Y70.513Z0.000
G1X19.760Y70.462Z-0.338
G1X19.825Y70.388Z-1.076
G1Y69.925
G1X19.734Y69.809Z-0.040
G1X19.721Y69.778Z0.500
G1X19.708Y69.704
G1Y69.283
G1X19.721Y69.209
G1X19.734Y69.178Z-0.040
G1X19.825Y69.061Z-1.076
G1Y68.249
G1X19.731Y68.155Z0.000
G1X19.825Y68.249Z-1.076
G1X19.919Y68.155Z0.000
G1X19.825Y68.249Z-1.076
G1Y69.061
G1X19.919Y69.156Z0.000
G1X19.825Y69.061Z-1.076
G1X19.734Y69.178Z-0.040
G1X19.721Y69.209Z0.500
G1X19.708Y69.283
G1Y69.704
G1X19.721Y69.778
G1X19.734Y69.809Z-0.040
G1X19.825Y69.925Z-1.076
G0Z5.080
G0X17.401Y70.341
G1Z-0.500F381.0
G1X17.377Y70.099F889.0
G1X17.383Y68.834
G1X17.431Y68.619
G1X17.522Y68.447
G1X17.651Y68.316
G1X17.819Y68.223
G1X18.026Y68.174
G1X18.267
G1X18.473Y68.223
G1X18.642Y68.316
G1X18.770Y68.447
G1X18.861Y68.620
G1X18.910Y68.834
G1X18.910Y70.228
G1X18.862Y70.442
G1X18.770Y70.616
G1X18.642Y70.745
G1X18.473Y70.838
G1X18.267Y70.887
G1X18.026
G1X17.819Y70.838
G1X17.650Y70.746
G1X17.522Y70.615
G1X17.431Y70.443
G1X17.401Y70.341
G0Z5.080
G0X17.530Y70.380
G1Z-0.500F381.0
G1X17.587Y70.499F889.0
G1X17.666Y70.604
G1X17.766Y70.689
G1X17.883Y70.751
G1X18.010Y70.786
G1X18.147Y70.797
G1X18.283Y70.786
G1X18.412Y70.751
G1X18.528Y70.689
G1X18.627Y70.603
G1X18.707Y70.499
G1X18.763Y70.380
G1X18.795Y70.249
G1X18.795Y68.813
G1X18.763Y68.683
G1X18.707Y68.563
G1X18.627Y68.458
G1X18.528Y68.372
G1X18.412Y68.311
G1X18.283Y68.275
G1X18.147Y68.264
G1X18.010Y68.275
G1X17.883Y68.311
G1X17.766Y68.372
G1X17.666Y68.458
G1X17.586Y68.563
G1X17.530Y68.683
G1X17.498Y68.813
G1X17.498Y70.249
G1X17.530Y70.380
G0Z5.080
G0X17.444Y70.332
G1Z-1.000F381.0
G1X17.421Y70.098F889.0
G1X17.427Y68.839
G1X17.472Y68.634
G1X17.557Y68.473
G1X17.677Y68.351
G1X17.834Y68.264
G1X18.031Y68.218
G1X18.262
G1X18.457Y68.264
G1X18.615Y68.351
G1X18.734Y68.473
G1X18.820Y68.635
G1X18.866Y68.839
G1X18.866Y70.223
G1X18.820Y70.427
G1X18.734Y70.590
G1X18.616Y70.710
G1X18.457Y70.797
G1X18.262Y70.843
G1X18.031
G1X17.834Y70.797
G1X17.676Y70.711
G1X17.557Y70.589
G1X17.472Y70.428
G1X17.444Y70.332
G0Z5.080
G0X17.489Y70.394
G1Z-1.000F381.0
G1X17.549Y70.522F889.0
G1X17.635Y70.634
G1X17.742Y70.726
G1X17.866Y70.791
G1X18.003Y70.829
G1X18.147Y70.841
G1X18.291Y70.829
G1X18.428Y70.791
G1X18.553Y70.725
G1X18.659Y70.633
G1X18.744Y70.522
G1X18.804Y70.394
G1X18.839Y70.256
G1X18.849Y68.944
G1X18.839Y68.806
G1X18.804Y68.668
G1X18.745Y68.540
G1X18.659Y68.428
G1X18.553Y68.336
G1X18.428Y68.270
G1X18.291Y68.232
G1X18.147Y68.220
G1X18.003Y68.232
G1X17.866Y68.270
G1X17.742Y68.336
G1X17.634Y68.428
G1X17.549Y68.540
G1X17.489Y68.668
G1X17.454Y68.806
G1X17.444Y70.117
G1X17.454Y70.256
G1X17.489Y70.394
G0Z5.080
G0X17.571Y70.579
G1Z-1.194F381.0
G1X17.642Y70.660Z-1.173F889.0
G1X17.686Y70.698Z-1.177
G1X17.740Y70.737Z-1.138
G1X17.841Y70.789Z-1.111
G1X17.886Y70.805Z-1.089
G1X17.929Y70.818Z-1.095
G1X18.004Y70.834Z-1.057
G1X18.032Y70.838Z-1.066
G1X18.165Y70.844Z-1.050
G1X18.271Y70.836Z-1.061
G1X18.312Y70.829Z-1.062
G1X18.363Y70.818Z-1.093
G1X18.413Y70.803Z-1.085
G1X18.535Y70.748Z-1.135
G1X18.580Y70.719Z-1.143
G1X18.607Y70.698Z-1.171
G1X18.684Y70.625Z-1.173
G1X18.721Y70.580Z-1.188
G1X18.754Y70.530Z-1.160
G1X18.768Y70.506Z-1.170
G1X18.808Y70.420Z-1.159
G1X18.822Y70.377Z-1.145
G1X18.835Y70.328Z-1.158
G1X18.849Y70.258Z-1.129
G1X18.854Y70.222Z-1.143
G1X18.861Y70.097Z-1.136
G1X18.860Y68.935Z-1.131
G1X18.852Y68.823Z-1.134
G1X18.846Y68.786Z-1.134
G1X18.835Y68.735Z-1.158
G1X18.819Y68.676Z-1.144
G1X18.807Y68.640Z-1.162
G1X18.768Y68.554Z-1.171
G1X18.742Y68.513Z-1.167
G1X18.721Y68.482Z-1.187
G1X18.652Y68.403Z-1.165
G1X18.606Y68.363Z-1.167
G1X18.554Y68.325Z-1.128
G1X18.535Y68.313Z-1.135
G1X18.408Y68.256Z-1.086
G1X18.363Y68.243Z-1.093
G1X18.290Y68.228Z-1.056
G1X18.261Y68.223Z-1.066
G1X18.128Y68.217Z-1.050
G1X18.022Y68.225Z-1.062
G1X17.982Y68.232Z-1.064
G1X17.929Y68.244Z-1.095
G1X17.881Y68.258Z-1.088
G1X17.757Y68.314Z-1.142
G1X17.715Y68.341Z-1.147
G1X17.686Y68.363Z-1.174
G1X17.608Y68.437Z-1.175
G1X17.571Y68.483Z-1.193
G1X17.539Y68.530Z-1.170
G1X17.524Y68.556Z-1.181
G1X17.473Y68.677Z-1.149
G1X17.458Y68.734Z-1.161
G1X17.444Y68.804Z-1.131
G1X17.439Y68.840Z-1.144
G1X17.432Y68.964Z-1.135
G1X17.433Y70.126Z-1.131
G1X17.441Y70.239Z-1.136
G1X17.447Y70.276Z-1.135
G1X17.458Y70.328Z-1.161
G1X17.473Y70.386Z-1.148
G1X17.486Y70.423Z-1.167
G1X17.525Y70.508Z-1.178
G1X17.551Y70.550Z-1.175
G1X17.571Y70.579Z-1.194
G0Z5.080
G1Z-1.194F381.0
G1X17.539Y70.532Z-1.169F889.0
G1X17.524Y70.506Z-1.180
G1X17.473Y70.386Z-1.148
G1X17.458Y70.328Z-1.161
G1X17.444Y70.258Z-1.131
G1X17.439Y70.222Z-1.144
G1X17.432Y70.098Z-1.135
G1X17.433Y68.935Z-1.131
G1X17.441Y68.823Z-1.136
G1X17.447Y68.785Z-1.135
G1X17.458Y68.734Z-1.161
G1X17.473Y68.677Z-1.149
G1X17.486Y68.639Z-1.168
G1X17.524Y68.556Z-1.181
G1X17.550Y68.513Z-1.175
G1X17.571Y68.483Z-1.193
G1X17.642Y68.401Z-1.169
G1X17.686Y68.363Z-1.174
G1X17.739Y68.325Z-1.136
G1X17.757Y68.313Z-1.142
G1X17.881Y68.258Z-1.088
G1X17.929Y68.244Z-1.095
G1X18.004Y68.228Z-1.057
G1X18.032Y68.224Z-1.066
G1X18.165Y68.217Z-1.050
G1X18.271Y68.225Z-1.061
G1X18.312Y68.232Z-1.063
G1X18.363Y68.243Z-1.093
G1X18.413Y68.258Z-1.085
G1X18.535Y68.313Z-1.135
G1X18.579Y68.343Z-1.141
G1X18.606Y68.363Z-1.167
G1X18.685Y68.437Z-1.170
G1X18.721Y68.482Z-1.187
G1X18.754Y68.531Z-1.162
G1X18.768Y68.555Z-1.171
G1X18.808Y68.643Z-1.159
G1X18.822Y68.685Z-1.145
G1X18.835Y68.735Z-1.158
G1X18.849Y68.803Z-1.129
G1X18.854Y68.840Z-1.143
G1X18.861Y68.964Z-1.136
G1X18.860Y70.126Z-1.131
G1X18.852Y70.239Z-1.135
G1X18.846Y70.276Z-1.134
G1X18.835Y70.328Z-1.158
G1X18.819Y70.387Z-1.144
G1X18.807Y70.422Z-1.161
G1X18.754Y70.530Z-1.160
G1X18.721Y70.580Z-1.188
G1X18.652Y70.659Z-1.169
G1X18.607Y70.698Z-1.171
G1X18.553Y70.737Z-1.129
G1X18.454Y70.789Z-1.109
G1X18.408Y70.805Z-1.086
G1X18.363Y70.818Z-1.093
G1X18.290Y70.834Z-1.056
G1X18.261Y70.838Z-1.066
G1X18.128Y70.844Z-1.050
G1X18.022Y70.837Z-1.062
G1X17.982Y70.829Z-1.064
G1X17.929Y70.818Z-1.095
G1X17.881Y70.804Z-1.088
G1X17.756Y70.747Z-1.142
G1X17.715Y70.720Z-1.149
G1X17.686Y70.698Z-1.177
G1X17.609Y70.626Z-1.178
G1X17.571Y70.579Z-1.194
G0Z5.080
G0X36.335Y107.805
G1Z-0.500F381.0
G1X36.468F889.0
G1X35.975Y108.889
G1X35.877Y108.867
G1X36.335Y107.805
G0Z5.080
G0X36.364Y107.848
G1Z-1.000F381.0
G1X36.400Y107.848F889.0
G1X35.950Y108.839
G1X35.938Y108.836
G1X36.364Y107.848
G0Z5.080
G0X36.375Y107.865
G1Z-1.188F381.0
G1X36.536Y107.761Z0.000F889.0
G1X36.375Y107.865Z-1.188
G1X35.947Y108.831Z-1.072
G1X36.001Y108.939Z0.000
G1X35.947Y108.831Z-1.072
G1X35.815Y108.899Z0.000
G1X35.947Y108.831Z-1.072
G1X36.375Y107.865Z-1.188
G1X36.306Y107.761Z0.000
G1X36.375Y107.865Z-1.188
G0Z5.080
G0X35.792Y109.068
G1Z-0.500F381.0
G1X35.998Y109.089F889.0
G1X36.156Y109.146
G1X36.280Y109.237
G1X36.372Y109.357
G1X36.431Y109.512
G1X36.453Y109.834
G1X36.431Y110.031
G1X36.372Y110.183
G1X36.281Y110.303
G1X36.157Y110.392
G1X35.998Y110.450
G1X35.792Y110.471
G1X35.147
G1Y110.388
G1X35.831
G1X36.018Y110.354
G1X36.119Y110.298
G1X36.204Y110.221
G1X36.305Y110.045
G1X36.336Y109.840
G1Y109.688
G1X36.305Y109.487
G1X36.203Y109.312
G1X36.116Y109.236
G1X36.016Y109.181
G1X35.831Y109.148
G1X35.147
G1Y109.068
G1X35.792
G0Z5.080
G0X36.000Y110.402
G1Z-1.000F381.0
G1X35.988Y110.407F889.0
G1X35.959Y110.410
G1X36.000Y110.402
G0Z5.080
G0X36.063Y110.379
G1Z-1.000F381.0
G1X36.145Y110.334F889.0
G1X36.239Y110.248
G1X36.347Y110.060
G1X36.379Y109.843
G1Y109.685
G1X36.347Y109.472
G1X36.237Y109.284
G1X36.142Y109.200
G1X36.074Y109.163
G1X36.135Y109.185
G1X36.249Y109.268
G1X36.333Y109.379
G1X36.388Y109.522
G1X36.409Y109.832
G1X36.388Y110.021
G1X36.333Y110.161
G1X36.250Y110.271
G1X36.136Y110.353
G1X36.063Y110.379
G0Z5.080
G0X36.316Y110.152
G1Z-1.220F381.0
G1X36.250Y110.250Z-1.144F889.0
G1X36.241Y110.262Z-1.147
G1X36.147Y110.338Z-1.067
G1X36.133Y110.347Z-1.071
G1X36.032Y110.392Z-0.985
G1X35.988Y110.405Z-1.013
G1X35.837Y110.427Z-0.949
G1X35.790Y110.430Z-0.970
G1X35.188
G1X35.103Y110.514Z0.000
G1X35.188Y110.430Z-0.970
G1X35.103Y110.345Z0.000
G1X35.188Y110.430Z-0.970
G1X35.790
G1X35.853Y110.425Z-0.952
G1X35.988Y110.405Z-1.013
G1X36.032Y110.392Z-0.985
G1X36.133Y110.347Z-1.071
G1X36.168Y110.322Z-1.075
G1X36.241Y110.262Z-1.147
G1X36.267Y110.226Z-1.155
G1X36.316Y110.152Z-1.220
G1X36.354Y110.071Z-1.158
G1X36.371Y110.017Z-1.199
G1X36.394Y109.827Z-1.171
G1X36.393Y109.701Z-1.162
G1X36.390Y109.667Z-1.155
G1X36.372Y109.526Z-1.189
G1X36.353Y109.463Z-1.138
G1X36.318Y109.387Z-1.199
G1X36.249Y109.285Z-1.121
G1X36.241Y109.276Z-1.123
G1X36.147Y109.200Z-1.053
G1X36.133Y109.190Z-1.057
G1X36.031Y109.145Z-0.973
G1X35.988Y109.132Z-1.000
G1X35.837Y109.111Z-0.937
G1X35.790Y109.108Z-0.958
G1X35.187
G1X35.103Y109.192Z0.000
G1X35.187Y109.108Z-0.958
G1X35.103Y109.024Z0.000
G1X35.187Y109.108Z-0.958
G1X35.790
G1X35.853Y109.113Z-0.940
G1X35.988Y109.132Z-1.000
G1X36.031Y109.145Z-0.973
G1X36.133Y109.190Z-1.057
G1X36.163Y109.212Z-1.058
G1X36.241Y109.276Z-1.123
G1X36.265Y109.308Z-1.131
G1X36.318Y109.387Z-1.199
G1X36.353Y109.463Z-1.138
G1X36.372Y109.526Z-1.189
G1X36.391Y109.676Z-1.154
G1X36.394Y109.715Z-1.171
G1X36.391Y109.860Z-1.166
G1X36.371Y110.017Z-1.199
G1X36.354Y110.071Z-1.158
G1X36.316Y110.152Z-1.220
G0Z5.080
G0X37.535Y110.393
G1Z-0.500F381.0
G1X37.531Y110.391F889.0
G1X37.661Y110.302
G1Y110.393
G1X37.535
G1X37.514Y110.469
G1X37.212Y110.280
G1Y110.206
G1X37.380Y110.302
G2X37.636Y110.154I0.085J-0.148
G1Y107.805
G1X37.737
G1Y110.469
G1X37.514
G0Z5.080
G0X37.431Y110.365
G1Z-1.000F381.0
G2X37.679Y110.154I0.034J-0.212F889.0
G1Y107.848
G1X37.693
G1Y110.425
G1X37.526
G1X37.431Y110.365
G0Z5.080
G0X37.587Y110.381
G1Z-1.500F381.0
G1X37.649Y110.335F889.0
G1Y110.381
G1X37.587
G0Z5.080
G0X37.635Y110.367
G1Z-1.664F381.0
G1X37.673Y110.260Z-1.223F889.0
G1X37.686Y110.154Z-1.076
G1Y107.855
G1X37.592Y107.761Z0.000
G1X37.686Y107.855Z-1.076
G1X37.780Y107.761Z0.000
G1X37.686Y107.855Z-1.076
G1Y110.154
G1X37.673Y110.260Z-1.223
G1X37.635Y110.367Z-1.664
G1X37.780Y110.512Z0.000
G1X37.635Y110.367Z-1.664
G1X37.536Y110.391Z-1.384
G1X37.501Y110.512Z0.000
G1X37.536Y110.391Z-1.384
G1X37.441Y110.369Z-1.024
G1X37.363Y110.333Z-0.904
G1X37.245Y110.262Z-0.873
G1X37.168Y110.304Z0.000
G1X37.245Y110.262Z-0.873
G1X37.168Y110.131Z0.000
G1X37.245Y110.262Z-0.873
G1X37.363Y110.333Z-0.904
G1X37.441Y110.369Z-1.024
G1X37.536Y110.391Z-1.384
G1X37.635Y110.367Z-1.664
G0Z5.080
G0X35.053Y110.471
G1Z-0.500F381.0
